(.../Documents/eagle/pcbgcode/pcb-gcode.ulp)
(Copyright 2005 - 2012 by John Johnson)
(See readme.txt for licensing terms.)
(This file generated from the board:)
(.../fablab-paderborn/laos-i2c-panel/Board3.brd)
(Current profile is .../eagle/pcbgcode/profiles/mach.pp  )
(This file generated 27.05.15 20:38)
(Settings from pcb-machine.h)
(spindle on time = 3.0000)
(  Tool Size)
(0.2000  )
(spindle speed = 30000.0000)
(tool change at 0.0000  0.0000  25.4000 )
(feed rate xy = F500   )
(feed rate z  = F500   )
(Z Axis Settings)
(  High     Up        Down     Drill)
(12.7000 	2.5400  	-0.1778 	-0.8128 )
(Settings from pcb-defaults.h)
(isolate min = 0.0254)
(isolate max = 0.2000)
(isolate step = 0.2000)
(Generated bottom outlines, bottom drill, )
(Unit of measure: mm)
(Metric Mode)
G21
(Absolute Coordinates)
G90
S30000
G00 Z12.7000 
G00 X0.0000  Y0.0000  
M03
G04 P3.000000
G00 Z2.5400  
G00 X-26.4477 Y23.9594 
G01 Z-0.1778 F500   
G01 X-26.4111 Y24.0228 F500   
G01 X-26.3922 Y24.0934 
G01 X-26.3922 Y68.4649 
G01 X-21.3677 Y73.4894 
G01 X-21.3311 Y73.5528 
G01 X-21.3122 Y73.6234 
G01 X-21.3122 Y81.3166 
G01 X-21.3311 Y81.3872 
G01 X-21.3677 Y81.4506 
G01 X-21.4194 Y81.5023 
G01 X-37.8777 Y97.9606 
G01 X-37.9294 Y98.0123 
G01 X-37.9928 Y98.0489 
G01 X-38.0634 Y98.0678 
G01 X-58.4566 Y98.0678 
G01 X-58.5272 Y98.0489 
G01 X-58.5906 Y98.0123 
G01 X-58.6423 Y97.9606 
G01 X-59.6019 Y97.0010 
G01 X-59.7824 Y97.0010 
G01 X-59.9637 Y96.9649 
G01 X-60.1344 Y96.8942 
G01 X-60.2881 Y96.7915 
G01 X-60.4187 Y96.6609 
G01 X-60.5214 Y96.5072 
G01 X-60.5921 Y96.3365 
G01 X-60.6282 Y96.1552 
G01 X-60.6282 Y94.3448 
G01 X-60.5921 Y94.1635 
G01 X-60.5214 Y93.9928 
G01 X-60.4187 Y93.8391 
G01 X-60.2881 Y93.7085 
G01 X-60.1344 Y93.6058 
G01 X-59.9678 Y93.5368 
G01 X-59.9678 Y73.8917 
G01 X-60.0863 Y73.8426 
G01 X-60.2233 Y73.7510 
G01 X-60.3398 Y73.6345 
G01 X-60.4314 Y73.4975 
G01 X-60.4944 Y73.3452 
G01 X-60.5266 Y73.1836 
G01 X-60.5266 Y71.5964 
G01 X-60.4944 Y71.4348 
G01 X-60.4314 Y71.2825 
G01 X-60.3398 Y71.1455 
G01 X-60.2233 Y71.0290 
G01 X-60.0863 Y70.9374 
G01 X-59.9340 Y70.8744 
G01 X-59.7724 Y70.8422 
G01 X-59.6076 Y70.8422 
G01 X-59.4460 Y70.8744 
G01 X-59.2937 Y70.9374 
G01 X-59.1567 Y71.0290 
G01 X-59.0402 Y71.1455 
G01 X-58.9486 Y71.2825 
G01 X-58.8856 Y71.4348 
G01 X-58.8534 Y71.5964 
G01 X-58.8534 Y72.1122 
G01 X-57.9866 Y72.1122 
G01 X-57.9866 Y71.5964 
G01 X-57.9544 Y71.4348 
G01 X-57.8914 Y71.2825 
G01 X-57.7998 Y71.1455 
G01 X-57.6833 Y71.0290 
G01 X-57.5463 Y70.9374 
G01 X-57.3940 Y70.8744 
G01 X-57.2324 Y70.8422 
G01 X-57.0676 Y70.8422 
G01 X-56.9060 Y70.8744 
G01 X-56.7537 Y70.9374 
G01 X-56.6167 Y71.0290 
G01 X-56.5002 Y71.1455 
G01 X-56.4086 Y71.2825 
G01 X-56.3456 Y71.4348 
G01 X-56.3134 Y71.5964 
G01 X-56.3134 Y73.1836 
G01 X-56.3456 Y73.3452 
G01 X-56.3529 Y73.3630 
G01 X-55.6353 Y74.7983 
G01 X-55.6211 Y74.8228 
G01 X-55.6189 Y74.8309 
G01 X-55.6152 Y74.8385 
G01 X-55.6095 Y74.8662 
G01 X-55.6022 Y74.8934 
G01 X-55.6022 Y74.9019 
G01 X-55.6005 Y74.9101 
G01 X-55.6022 Y74.9383 
G01 X-55.6022 Y76.2366 
G01 X-55.6211 Y76.3072 
G01 X-55.6577 Y76.3706 
G01 X-55.7094 Y76.4223 
G01 X-56.3620 Y77.0749 
G01 X-56.3134 Y77.1235 
G01 X-56.3134 Y77.8165 
G01 X-56.8035 Y78.3066 
G01 X-57.4965 Y78.3066 
G01 X-57.9866 Y77.8165 
G01 X-57.9866 Y77.1235 
G01 X-57.4965 Y76.6334 
G01 X-56.8035 Y76.6334 
G01 X-56.7549 Y76.6820 
G01 X-56.1578 Y76.0849 
G01 X-56.1578 Y74.9956 
G01 X-56.7392 Y73.8328 
G01 X-56.7537 Y73.8426 
G01 X-56.9060 Y73.9056 
G01 X-57.0676 Y73.9378 
G01 X-57.2324 Y73.9378 
G01 X-57.3940 Y73.9056 
G01 X-57.5463 Y73.8426 
G01 X-57.6833 Y73.7510 
G01 X-57.7998 Y73.6345 
G01 X-57.8914 Y73.4975 
G01 X-57.9544 Y73.3452 
G01 X-57.9866 Y73.1836 
G01 X-57.9866 Y72.6678 
G01 X-58.8534 Y72.6678 
G01 X-58.8534 Y73.1836 
G01 X-58.8856 Y73.3452 
G01 X-58.9486 Y73.4975 
G01 X-59.0402 Y73.6345 
G01 X-59.1567 Y73.7510 
G01 X-59.2937 Y73.8426 
G01 X-59.4122 Y73.8917 
G01 X-59.4122 Y93.5368 
G01 X-59.2456 Y93.6058 
G01 X-59.0919 Y93.7085 
G01 X-58.9613 Y93.8391 
G01 X-58.8586 Y93.9928 
G01 X-58.7879 Y94.1635 
G01 X-58.7518 Y94.3448 
G01 X-58.7518 Y96.1552 
G01 X-58.7879 Y96.3365 
G01 X-58.8586 Y96.5072 
G01 X-58.9613 Y96.6609 
G01 X-59.0588 Y96.7584 
G01 X-58.3049 Y97.5122 
G01 X-38.2151 Y97.5122 
G01 X-21.8678 Y81.1649 
G01 X-21.8678 Y73.7751 
G01 X-26.8406 Y68.8023 
G01 X-26.8923 Y68.7506 
G01 X-28.9716 Y66.6712 
G01 X-29.0691 Y66.7687 
G01 X-29.2228 Y66.8714 
G01 X-29.3935 Y66.9421 
G01 X-29.5748 Y66.9782 
G01 X-31.3852 Y66.9782 
G01 X-31.5665 Y66.9421 
G01 X-31.7372 Y66.8714 
G01 X-31.8909 Y66.7687 
G01 X-31.9884 Y66.6712 
G01 X-32.7422 Y67.4251 
G01 X-32.7422 Y74.8149 
G01 X-31.0253 Y76.5318 
G01 X-29.5748 Y76.5318 
G01 X-29.3935 Y76.5679 
G01 X-29.2228 Y76.6386 
G01 X-29.0691 Y76.7413 
G01 X-28.9385 Y76.8719 
G01 X-28.8358 Y77.0256 
G01 X-28.7668 Y77.1922 
G01 X-27.9034 Y77.1922 
G01 X-27.8328 Y77.2111 
G01 X-27.7694 Y77.2477 
G01 X-27.7177 Y77.2994 
G01 X-25.5262 Y79.4909 
G01 X-24.6064 Y79.4909 
G01 X-24.4448 Y79.5230 
G01 X-24.2925 Y79.5861 
G01 X-24.1555 Y79.6777 
G01 X-24.0390 Y79.7942 
G01 X-23.9474 Y79.9312 
G01 X-23.8844 Y80.0835 
G01 X-23.8522 Y80.2451 
G01 X-23.8522 Y80.4099 
G01 X-23.8844 Y80.5715 
G01 X-23.9474 Y80.7238 
G01 X-24.0390 Y80.8608 
G01 X-24.1555 Y80.9773 
G01 X-24.2925 Y81.0689 
G01 X-24.4448 Y81.1319 
G01 X-24.6064 Y81.1641 
G01 X-26.1936 Y81.1641 
G01 X-26.3552 Y81.1319 
G01 X-26.5075 Y81.0689 
G01 X-26.6445 Y80.9773 
G01 X-26.7610 Y80.8608 
G01 X-26.8526 Y80.7238 
G01 X-26.9156 Y80.5715 
G01 X-26.9478 Y80.4099 
G01 X-26.9478 Y80.2451 
G01 X-26.9156 Y80.0835 
G01 X-26.8526 Y79.9312 
G01 X-26.7610 Y79.7942 
G01 X-26.6445 Y79.6777 
G01 X-26.5075 Y79.5861 
G01 X-26.3552 Y79.5230 
G01 X-26.2923 Y79.5105 
G01 X-28.0551 Y77.7478 
G01 X-28.7668 Y77.7478 
G01 X-28.8358 Y77.9144 
G01 X-28.9385 Y78.0681 
G01 X-29.0691 Y78.1987 
G01 X-29.2228 Y78.3014 
G01 X-29.3935 Y78.3721 
G01 X-29.5748 Y78.4082 
G01 X-31.3852 Y78.4082 
G01 X-31.5665 Y78.3721 
G01 X-31.7372 Y78.3014 
G01 X-31.8909 Y78.1987 
G01 X-32.0215 Y78.0681 
G01 X-32.1242 Y77.9144 
G01 X-32.1949 Y77.7437 
G01 X-32.2310 Y77.5624 
G01 X-32.2310 Y77.3776 
G01 X-32.1949 Y77.1963 
G01 X-32.1242 Y77.0256 
G01 X-32.0215 Y76.8719 
G01 X-31.8909 Y76.7413 
G01 X-31.7372 Y76.6386 
G01 X-31.7139 Y76.6289 
G01 X-33.2423 Y75.1006 
G01 X-33.2789 Y75.0372 
G01 X-33.2978 Y74.9666 
G01 X-33.2978 Y67.5878 
G01 X-52.1066 Y67.5878 
G01 X-52.1772 Y67.5689 
G01 X-52.2406 Y67.5323 
G01 X-52.2923 Y67.4806 
G01 X-53.8793 Y65.8935 
G01 X-53.9602 Y66.0145 
G01 X-54.0767 Y66.1310 
G01 X-54.2137 Y66.2226 
G01 X-54.3660 Y66.2856 
G01 X-54.5276 Y66.3178 
G01 X-54.6924 Y66.3178 
G01 X-54.8540 Y66.2856 
G01 X-55.0063 Y66.2226 
G01 X-55.1433 Y66.1310 
G01 X-55.2598 Y66.0145 
G01 X-55.3514 Y65.8775 
G01 X-55.4144 Y65.7252 
G01 X-55.4466 Y65.5636 
G01 X-55.4466 Y63.9764 
G01 X-55.4144 Y63.8148 
G01 X-55.3514 Y63.6625 
G01 X-55.2598 Y63.5255 
G01 X-55.1433 Y63.4090 
G01 X-55.0063 Y63.3174 
G01 X-54.8540 Y63.2544 
G01 X-54.6924 Y63.2222 
G01 X-54.5276 Y63.2222 
G01 X-54.3660 Y63.2544 
G01 X-54.2137 Y63.3174 
G01 X-54.0767 Y63.4090 
G01 X-53.9602 Y63.5255 
G01 X-53.8793 Y63.6465 
G01 X-53.6178 Y63.3849 
G01 X-53.6178 Y57.9866 
G01 X-53.6865 Y57.9866 
G01 X-54.1766 Y57.4965 
G01 X-54.1766 Y56.8035 
G01 X-53.6865 Y56.3134 
G01 X-52.9935 Y56.3134 
G01 X-52.5034 Y56.8035 
G01 X-52.5034 Y57.4965 
G01 X-52.9935 Y57.9866 
G01 X-53.0622 Y57.9866 
G01 X-53.0622 Y63.5366 
G01 X-53.0811 Y63.6072 
G01 X-53.1177 Y63.6706 
G01 X-53.7734 Y64.3263 
G01 X-53.7734 Y65.2137 
G01 X-51.9549 Y67.0322 
G01 X-33.1351 Y67.0322 
G01 X-32.2310 Y66.1281 
G01 X-32.2310 Y65.9476 
G01 X-32.1949 Y65.7663 
G01 X-32.1242 Y65.5956 
G01 X-32.0215 Y65.4419 
G01 X-31.8909 Y65.3113 
G01 X-31.7372 Y65.2086 
G01 X-31.5665 Y65.1379 
G01 X-31.3852 Y65.1018 
G01 X-29.5748 Y65.1018 
G01 X-29.3935 Y65.1379 
G01 X-29.2228 Y65.2086 
G01 X-29.0691 Y65.3113 
G01 X-28.9385 Y65.4419 
G01 X-28.8358 Y65.5956 
G01 X-28.7651 Y65.7663 
G01 X-28.7290 Y65.9476 
G01 X-28.7290 Y66.1281 
G01 X-26.9478 Y67.9093 
G01 X-26.9478 Y24.2451 
G01 X-43.2951 Y7.8978  
G01 X-93.8649 Y7.8978  
G01 X-98.7822 Y12.8151 
G01 X-98.7822 Y95.1349 
G01 X-96.4049 Y97.5122 
G01 X-94.0951 Y97.5122 
G01 X-93.3412 Y96.7584 
G01 X-93.4387 Y96.6609 
G01 X-93.5414 Y96.5072 
G01 X-93.6121 Y96.3365 
G01 X-93.6482 Y96.1552 
G01 X-93.6482 Y94.3448 
G01 X-93.6121 Y94.1635 
G01 X-93.5414 Y93.9928 
G01 X-93.4387 Y93.8391 
G01 X-93.3081 Y93.7085 
G01 X-93.1544 Y93.6058 
G01 X-92.9878 Y93.5368 
G01 X-92.9878 Y81.2434 
G01 X-92.9689 Y81.1728 
G01 X-92.9323 Y81.1094 
G01 X-91.3531 Y79.5303 
G01 X-91.5654 Y79.3180 
G01 X-91.5654 Y78.1620 
G01 X-90.7480 Y77.3446 
G01 X-90.4478 Y77.3446 
G01 X-90.4478 Y65.6574 
G01 X-90.5376 Y65.6574 
G01 X-91.0574 Y65.1376 
G01 X-91.0574 Y64.4024 
G01 X-90.5376 Y63.8826 
G01 X-89.8024 Y63.8826 
G01 X-89.2826 Y64.4024 
G01 X-89.2826 Y65.1376 
G01 X-89.8024 Y65.6574 
G01 X-89.8922 Y65.6574 
G01 X-89.8922 Y72.1122 
G01 X-88.0732 Y72.1122 
G01 X-88.0042 Y71.9456 
G01 X-87.9015 Y71.7919 
G01 X-87.7709 Y71.6613 
G01 X-87.6172 Y71.5586 
G01 X-87.4465 Y71.4879 
G01 X-87.2652 Y71.4518 
G01 X-85.4548 Y71.4518 
G01 X-85.2735 Y71.4879 
G01 X-85.1028 Y71.5586 
G01 X-84.9491 Y71.6613 
G01 X-84.8185 Y71.7919 
G01 X-84.7158 Y71.9456 
G01 X-84.6451 Y72.1163 
G01 X-84.6090 Y72.2976 
G01 X-84.6090 Y72.4824 
G01 X-84.6451 Y72.6637 
G01 X-84.7158 Y72.8344 
G01 X-84.8185 Y72.9881 
G01 X-84.9491 Y73.1187 
G01 X-85.1028 Y73.2214 
G01 X-85.2735 Y73.2921 
G01 X-85.4548 Y73.3282 
G01 X-87.2652 Y73.3282 
G01 X-87.4465 Y73.2921 
G01 X-87.6172 Y73.2214 
G01 X-87.7709 Y73.1187 
G01 X-87.9015 Y72.9881 
G01 X-88.0042 Y72.8344 
G01 X-88.0732 Y72.6678 
G01 X-89.8922 Y72.6678 
G01 X-89.8922 Y77.3446 
G01 X-89.5920 Y77.3446 
G01 X-88.7746 Y78.1620 
G01 X-88.7746 Y79.3180 
G01 X-89.5920 Y80.1354 
G01 X-90.7480 Y80.1354 
G01 X-90.9603 Y79.9231 
G01 X-92.4322 Y81.3951 
G01 X-92.4322 Y93.5368 
G01 X-92.2656 Y93.6058 
G01 X-92.1119 Y93.7085 
G01 X-91.9813 Y93.8391 
G01 X-91.8786 Y93.9928 
G01 X-91.8079 Y94.1635 
G01 X-91.7718 Y94.3448 
G01 X-91.7718 Y96.1552 
G01 X-91.8079 Y96.3365 
G01 X-91.8786 Y96.5072 
G01 X-91.9813 Y96.6609 
G01 X-92.1119 Y96.7915 
G01 X-92.2656 Y96.8942 
G01 X-92.4363 Y96.9649 
G01 X-92.6176 Y97.0010 
G01 X-92.7981 Y97.0010 
G01 X-93.7577 Y97.9606 
G01 X-93.8094 Y98.0123 
G01 X-93.8728 Y98.0489 
G01 X-93.9434 Y98.0678 
G01 X-96.5566 Y98.0678 
G01 X-96.6272 Y98.0489 
G01 X-96.6906 Y98.0123 
G01 X-99.2306 Y95.4723 
G01 X-99.2823 Y95.4206 
G01 X-99.3189 Y95.3572 
G01 X-99.3378 Y95.2866 
G01 X-99.3378 Y12.6634 
G01 X-99.3189 Y12.5928 
G01 X-99.2823 Y12.5294 
G01 X-94.2023 Y7.4494  
G01 X-94.1506 Y7.3977  
G01 X-94.0872 Y7.3611  
G01 X-94.0166 Y7.3422  
G01 X-43.1434 Y7.3422  
G01 X-43.0728 Y7.3611  
G01 X-43.0094 Y7.3977  
G01 X-26.4994 Y23.9077 
G01 X-26.4477 Y23.9594 
G00 Z2.5400  
G00 X-41.0506 Y23.9102 
G01 Z-0.1778 F500   
G01 X-40.9732 Y24.0971 F500   
G01 X-40.9337 Y24.2955 
G01 X-40.9337 Y26.3013 
G01 X-40.9732 Y26.4997 
G01 X-41.0506 Y26.6866 
G01 X-41.1630 Y26.8548 
G01 X-41.3061 Y26.9979 
G01 X-41.4743 Y27.1103 
G01 X-41.6322 Y27.1757 
G01 X-41.6322 Y36.3243 
G01 X-41.4743 Y36.3897 
G01 X-41.3061 Y36.5021 
G01 X-41.1630 Y36.6452 
G01 X-41.0506 Y36.8134 
G01 X-40.9732 Y37.0003 
G01 X-40.9337 Y37.1987 
G01 X-40.9337 Y39.2045 
G01 X-40.9732 Y39.4029 
G01 X-41.0506 Y39.5898 
G01 X-41.1630 Y39.7580 
G01 X-41.3061 Y39.9011 
G01 X-41.4743 Y40.0135 
G01 X-41.6612 Y40.0909 
G01 X-41.8596 Y40.1304 
G01 X-42.0620 Y40.1304 
G01 X-42.2604 Y40.0909 
G01 X-42.4473 Y40.0135 
G01 X-42.5289 Y39.9590 
G01 X-42.9022 Y40.7056 
G01 X-42.9022 Y48.1944 
G01 X-42.5289 Y48.9410 
G01 X-42.4473 Y48.8865 
G01 X-42.2604 Y48.8091 
G01 X-42.0620 Y48.7696 
G01 X-41.8596 Y48.7696 
G01 X-41.6612 Y48.8091 
G01 X-41.4743 Y48.8865 
G01 X-41.3061 Y48.9989 
G01 X-41.1630 Y49.1420 
G01 X-41.0506 Y49.3102 
G01 X-40.9732 Y49.4971 
G01 X-40.9337 Y49.6955 
G01 X-40.9337 Y51.7013 
G01 X-40.9732 Y51.8997 
G01 X-41.0506 Y52.0866 
G01 X-41.1630 Y52.2548 
G01 X-41.3061 Y52.3979 
G01 X-41.4743 Y52.5103 
G01 X-41.6612 Y52.5877 
G01 X-41.8596 Y52.6272 
G01 X-42.0620 Y52.6272 
G01 X-42.2604 Y52.5877 
G01 X-42.4473 Y52.5103 
G01 X-42.6155 Y52.3979 
G01 X-42.7586 Y52.2548 
G01 X-42.8710 Y52.0866 
G01 X-42.9484 Y51.8997 
G01 X-42.9879 Y51.7013 
G01 X-42.9879 Y49.6955 
G01 X-42.9484 Y49.4971 
G01 X-42.9138 Y49.4135 
G01 X-43.4247 Y48.3917 
G01 X-43.4389 Y48.3672 
G01 X-43.4410 Y48.3591 
G01 X-43.4448 Y48.3515 
G01 X-43.4505 Y48.3238 
G01 X-43.4578 Y48.2966 
G01 X-43.4578 Y48.2881 
G01 X-43.4595 Y48.2799 
G01 X-43.4578 Y48.2517 
G01 X-43.4578 Y40.6483 
G01 X-43.4595 Y40.6201 
G01 X-43.4578 Y40.6119 
G01 X-43.4578 Y40.6034 
G01 X-43.4505 Y40.5762 
G01 X-43.4448 Y40.5485 
G01 X-43.4410 Y40.5409 
G01 X-43.4389 Y40.5328 
G01 X-43.4247 Y40.5083 
G01 X-42.9138 Y39.4865 
G01 X-42.9484 Y39.4029 
G01 X-42.9879 Y39.2045 
G01 X-42.9879 Y37.1987 
G01 X-42.9484 Y37.0003 
G01 X-42.8710 Y36.8134 
G01 X-42.7586 Y36.6452 
G01 X-42.6155 Y36.5021 
G01 X-42.4473 Y36.3897 
G01 X-42.2604 Y36.3123 
G01 X-42.1878 Y36.2978 
G01 X-42.1878 Y27.2022 
G01 X-42.2604 Y27.1877 
G01 X-42.4473 Y27.1103 
G01 X-42.6155 Y26.9979 
G01 X-42.7586 Y26.8548 
G01 X-42.8710 Y26.6866 
G01 X-42.9484 Y26.4997 
G01 X-42.9879 Y26.3013 
G01 X-42.9879 Y24.2955 
G01 X-42.9484 Y24.0971 
G01 X-42.8710 Y23.9102 
G01 X-42.7586 Y23.7420 
G01 X-42.7248 Y23.7081 
G01 X-43.3506 Y23.0823 
G01 X-43.4023 Y23.0306 
G01 X-43.4389 Y22.9672 
G01 X-43.4578 Y22.8966 
G01 X-43.4578 Y16.5183 
G01 X-43.4595 Y16.4901 
G01 X-43.4578 Y16.4819 
G01 X-43.4578 Y16.4734 
G01 X-43.4505 Y16.4462 
G01 X-43.4448 Y16.4185 
G01 X-43.4410 Y16.4109 
G01 X-43.4389 Y16.4028 
G01 X-43.4247 Y16.3783 
G01 X-42.5185 Y14.5659 
G01 X-42.6155 Y14.5011 
G01 X-42.7586 Y14.3580 
G01 X-42.8710 Y14.1898 
G01 X-42.9484 Y14.0029 
G01 X-42.9879 Y13.8045 
G01 X-42.9879 Y12.0150 
G01 X-45.8351 Y9.1678  
G01 X-93.8649 Y9.1678  
G01 X-97.5122 Y12.8151 
G01 X-97.5122 Y49.4149 
G01 X-93.8649 Y53.0622 
G01 X-84.4907 Y53.0622 
G01 X-86.6537 Y50.8992 
G01 X-86.6537 Y51.7013 
G01 X-86.6932 Y51.8997 
G01 X-86.7706 Y52.0866 
G01 X-86.8830 Y52.2548 
G01 X-87.0261 Y52.3979 
G01 X-87.1943 Y52.5103 
G01 X-87.3812 Y52.5877 
G01 X-87.5796 Y52.6272 
G01 X-87.7820 Y52.6272 
G01 X-87.9804 Y52.5877 
G01 X-88.1673 Y52.5103 
G01 X-88.3355 Y52.3979 
G01 X-88.4786 Y52.2548 
G01 X-88.5910 Y52.0866 
G01 X-88.6684 Y51.8997 
G01 X-88.7079 Y51.7013 
G01 X-88.7079 Y49.6955 
G01 X-88.6684 Y49.4971 
G01 X-88.5910 Y49.3102 
G01 X-88.4786 Y49.1420 
G01 X-88.3355 Y48.9989 
G01 X-88.1673 Y48.8865 
G01 X-87.9804 Y48.8091 
G01 X-87.9078 Y48.7946 
G01 X-87.9078 Y40.1054 
G01 X-87.9804 Y40.0909 
G01 X-88.1673 Y40.0135 
G01 X-88.3355 Y39.9011 
G01 X-88.4786 Y39.7580 
G01 X-88.5910 Y39.5898 
G01 X-88.6684 Y39.4029 
G01 X-88.7079 Y39.2045 
G01 X-88.7079 Y37.4150 
G01 X-92.9323 Y33.1906 
G01 X-92.9689 Y33.1272 
G01 X-92.9878 Y33.0566 
G01 X-92.9878 Y27.1757 
G01 X-93.1457 Y27.1103 
G01 X-93.3139 Y26.9979 
G01 X-93.4570 Y26.8548 
G01 X-93.5694 Y26.6866 
G01 X-93.6468 Y26.4997 
G01 X-93.6863 Y26.3013 
G01 X-93.6863 Y24.2955 
G01 X-93.6468 Y24.0971 
G01 X-93.5694 Y23.9102 
G01 X-93.4570 Y23.7420 
G01 X-93.3139 Y23.5989 
G01 X-93.1457 Y23.4865 
G01 X-92.9878 Y23.4211 
G01 X-92.9878 Y14.6789 
G01 X-93.1457 Y14.6135 
G01 X-93.3139 Y14.5011 
G01 X-93.4570 Y14.3580 
G01 X-93.5694 Y14.1898 
G01 X-93.6468 Y14.0029 
G01 X-93.6863 Y13.8045 
G01 X-93.6863 Y11.7987 
G01 X-93.6468 Y11.6003 
G01 X-93.5694 Y11.4134 
G01 X-93.4570 Y11.2452 
G01 X-93.3139 Y11.1021 
G01 X-93.1457 Y10.9897 
G01 X-92.9588 Y10.9123 
G01 X-92.7604 Y10.8728 
G01 X-92.5580 Y10.8728 
G01 X-92.3596 Y10.9123 
G01 X-92.1727 Y10.9897 
G01 X-92.0045 Y11.1021 
G01 X-91.8614 Y11.2452 
G01 X-91.7490 Y11.4134 
G01 X-91.6716 Y11.6003 
G01 X-91.6321 Y11.7987 
G01 X-91.6321 Y13.8045 
G01 X-91.6716 Y14.0029 
G01 X-91.7490 Y14.1898 
G01 X-91.8614 Y14.3580 
G01 X-92.0045 Y14.5011 
G01 X-92.1727 Y14.6135 
G01 X-92.3596 Y14.6909 
G01 X-92.4322 Y14.7054 
G01 X-92.4322 Y23.3946 
G01 X-92.3596 Y23.4091 
G01 X-92.1727 Y23.4865 
G01 X-92.0045 Y23.5989 
G01 X-91.8614 Y23.7420 
G01 X-91.7490 Y23.9102 
G01 X-91.6716 Y24.0971 
G01 X-91.6321 Y24.2955 
G01 X-91.6321 Y26.3013 
G01 X-91.6716 Y26.4997 
G01 X-91.7490 Y26.6866 
G01 X-91.8614 Y26.8548 
G01 X-92.0045 Y26.9979 
G01 X-92.1727 Y27.1103 
G01 X-92.3596 Y27.1877 
G01 X-92.4322 Y27.2022 
G01 X-92.4322 Y32.9049 
G01 X-88.5641 Y36.7731 
G01 X-88.4786 Y36.6452 
G01 X-88.3355 Y36.5021 
G01 X-88.1673 Y36.3897 
G01 X-87.9804 Y36.3123 
G01 X-87.7820 Y36.2728 
G01 X-87.5796 Y36.2728 
G01 X-87.3812 Y36.3123 
G01 X-87.1943 Y36.3897 
G01 X-87.0261 Y36.5021 
G01 X-86.8830 Y36.6452 
G01 X-86.7706 Y36.8134 
G01 X-86.6932 Y37.0003 
G01 X-86.6537 Y37.1987 
G01 X-86.6537 Y39.2045 
G01 X-86.6932 Y39.4029 
G01 X-86.7706 Y39.5898 
G01 X-86.8830 Y39.7580 
G01 X-87.0261 Y39.9011 
G01 X-87.1943 Y40.0135 
G01 X-87.3522 Y40.0789 
G01 X-87.3522 Y48.8211 
G01 X-87.1943 Y48.8865 
G01 X-87.0261 Y48.9989 
G01 X-86.8830 Y49.1420 
G01 X-86.7706 Y49.3102 
G01 X-86.6932 Y49.4971 
G01 X-86.6537 Y49.6955 
G01 X-86.6537 Y50.1134 
G01 X-83.6494 Y53.1177 
G01 X-82.4349 Y54.3322 
G01 X-72.3534 Y54.3322 
G01 X-72.2828 Y54.3511 
G01 X-72.2194 Y54.3877 
G01 X-72.1677 Y54.4394 
G01 X-72.1311 Y54.5028 
G01 X-72.1122 Y54.5734 
G01 X-72.1122 Y63.2683 
G01 X-71.9937 Y63.3174 
G01 X-71.8567 Y63.4090 
G01 X-71.7402 Y63.5255 
G01 X-71.6486 Y63.6625 
G01 X-71.5855 Y63.8148 
G01 X-71.5534 Y63.9764 
G01 X-71.5534 Y65.5636 
G01 X-71.5855 Y65.7252 
G01 X-71.6486 Y65.8775 
G01 X-71.7402 Y66.0145 
G01 X-71.8567 Y66.1310 
G01 X-71.9937 Y66.2226 
G01 X-72.1460 Y66.2856 
G01 X-72.3076 Y66.3178 
G01 X-72.4724 Y66.3178 
G01 X-72.6340 Y66.2856 
G01 X-72.7863 Y66.2226 
G01 X-72.9233 Y66.1310 
G01 X-73.0398 Y66.0145 
G01 X-73.1314 Y65.8775 
G01 X-73.1944 Y65.7252 
G01 X-73.2266 Y65.5636 
G01 X-73.2266 Y63.9764 
G01 X-73.1944 Y63.8148 
G01 X-73.1314 Y63.6625 
G01 X-73.0398 Y63.5255 
G01 X-72.9233 Y63.4090 
G01 X-72.7863 Y63.3174 
G01 X-72.6678 Y63.2683 
G01 X-72.6678 Y54.8878 
G01 X-82.5866 Y54.8878 
G01 X-82.6572 Y54.8689 
G01 X-82.7206 Y54.8323 
G01 X-82.7723 Y54.7806 
G01 X-83.9351 Y53.6178 
G01 X-94.0166 Y53.6178 
G01 X-94.0872 Y53.5989 
G01 X-94.1506 Y53.5623 
G01 X-94.2023 Y53.5106 
G01 X-98.0123 Y49.7006 
G01 X-98.0489 Y49.6372 
G01 X-98.0678 Y49.5666 
G01 X-98.0678 Y12.6634 
G01 X-98.0489 Y12.5928 
G01 X-98.0123 Y12.5294 
G01 X-97.9606 Y12.4777 
G01 X-94.1506 Y8.6677  
G01 X-94.0872 Y8.6311  
G01 X-94.0166 Y8.6122  
G01 X-45.6834 Y8.6122  
G01 X-45.6128 Y8.6311  
G01 X-45.5494 Y8.6677  
G01 X-45.4977 Y8.7194  
G01 X-42.8441 Y11.3731 
G01 X-42.7586 Y11.2452 
G01 X-42.6155 Y11.1021 
G01 X-42.4473 Y10.9897 
G01 X-42.2604 Y10.9123 
G01 X-42.0620 Y10.8728 
G01 X-41.8596 Y10.8728 
G01 X-41.6612 Y10.9123 
G01 X-41.4743 Y10.9897 
G01 X-41.3061 Y11.1021 
G01 X-41.1630 Y11.2452 
G01 X-41.0506 Y11.4134 
G01 X-40.9732 Y11.6003 
G01 X-40.9337 Y11.7987 
G01 X-40.9337 Y13.8045 
G01 X-40.9732 Y14.0029 
G01 X-41.0506 Y14.1898 
G01 X-41.1630 Y14.3580 
G01 X-41.3061 Y14.5011 
G01 X-41.4743 Y14.6135 
G01 X-41.6612 Y14.6909 
G01 X-41.8596 Y14.7304 
G01 X-41.9796 Y14.7304 
G01 X-42.9022 Y16.5756 
G01 X-42.9022 Y22.7449 
G01 X-42.2418 Y23.4054 
G01 X-42.0620 Y23.3696 
G01 X-41.8596 Y23.3696 
G01 X-41.6612 Y23.4091 
G01 X-41.4743 Y23.4865 
G01 X-41.3061 Y23.5989 
G01 X-41.1630 Y23.7420 
G01 X-41.0506 Y23.9102 
G00 Z2.5400  
G00 X-46.0290 Y23.9102 
G01 Z-0.1778 F500   
G01 X-45.9516 Y24.0971 F500   
G01 X-45.9121 Y24.2955 
G01 X-45.9121 Y26.3013 
G01 X-45.9516 Y26.4997 
G01 X-46.0290 Y26.6866 
G01 X-46.1414 Y26.8548 
G01 X-46.2845 Y26.9979 
G01 X-46.4527 Y27.1103 
G01 X-46.6396 Y27.1877 
G01 X-46.8380 Y27.2272 
G01 X-47.0404 Y27.2272 
G01 X-47.2388 Y27.1877 
G01 X-47.4257 Y27.1103 
G01 X-47.5939 Y26.9979 
G01 X-47.7370 Y26.8548 
G01 X-47.8494 Y26.6866 
G01 X-47.8595 Y26.6623 
G01 X-50.5222 Y29.3251 
G01 X-50.5222 Y50.6849 
G01 X-49.3594 Y51.8477 
G01 X-49.3077 Y51.8994 
G01 X-49.2711 Y51.9628 
G01 X-49.2522 Y52.0334 
G01 X-49.2522 Y63.2683 
G01 X-49.1337 Y63.3174 
G01 X-48.9967 Y63.4090 
G01 X-48.8802 Y63.5255 
G01 X-48.7886 Y63.6625 
G01 X-48.7255 Y63.8148 
G01 X-48.6934 Y63.9764 
G01 X-48.6934 Y65.5636 
G01 X-48.7255 Y65.7252 
G01 X-48.7886 Y65.8775 
G01 X-48.8802 Y66.0145 
G01 X-48.9967 Y66.1310 
G01 X-49.1337 Y66.2226 
G01 X-49.2860 Y66.2856 
G01 X-49.4476 Y66.3178 
G01 X-49.6124 Y66.3178 
G01 X-49.7740 Y66.2856 
G01 X-49.9263 Y66.2226 
G01 X-50.0633 Y66.1310 
G01 X-50.1798 Y66.0145 
G01 X-50.2714 Y65.8775 
G01 X-50.3344 Y65.7252 
G01 X-50.3666 Y65.5636 
G01 X-50.3666 Y63.9764 
G01 X-50.3344 Y63.8148 
G01 X-50.2714 Y63.6625 
G01 X-50.1798 Y63.5255 
G01 X-50.0633 Y63.4090 
G01 X-49.9263 Y63.3174 
G01 X-49.8078 Y63.2683 
G01 X-49.8078 Y52.1851 
G01 X-51.0223 Y50.9706 
G01 X-51.0589 Y50.9072 
G01 X-51.0778 Y50.8366 
G01 X-51.0778 Y29.1734 
G01 X-51.0589 Y29.1028 
G01 X-51.0223 Y29.0394 
G01 X-47.9663 Y25.9834 
G01 X-47.9663 Y25.6778 
G01 X-63.3849 Y25.6778 
G01 X-65.8694 Y28.1623 
G01 X-65.9328 Y28.1989 
G01 X-66.0034 Y28.2178 
G01 X-70.5610 Y28.2178 
G01 X-70.5250 Y28.3985 
G01 X-70.5250 Y28.6015 
G01 X-70.5646 Y28.8005 
G01 X-70.6422 Y28.9880 
G01 X-70.7550 Y29.1567 
G01 X-70.8985 Y29.3002 
G01 X-71.0672 Y29.4129 
G01 X-71.2547 Y29.4906 
G01 X-71.4537 Y29.5302 
G01 X-72.1122 Y29.5302 
G01 X-72.1122 Y30.3698 
G01 X-71.5636 Y30.3698 
G01 X-71.3839 Y30.4055 
G01 X-71.2146 Y30.4757 
G01 X-71.0622 Y30.5775 
G01 X-70.9327 Y30.7070 
G01 X-70.8309 Y30.8594 
G01 X-70.7607 Y31.0287 
G01 X-70.7250 Y31.2084 
G01 X-70.7250 Y31.3916 
G01 X-70.7607 Y31.5713 
G01 X-70.8309 Y31.7406 
G01 X-70.9327 Y31.8930 
G01 X-71.0622 Y32.0225 
G01 X-71.2146 Y32.1243 
G01 X-71.3839 Y32.1945 
G01 X-71.5636 Y32.2302 
G01 X-73.3564 Y32.2302 
G01 X-73.5361 Y32.1945 
G01 X-73.7054 Y32.1243 
G01 X-73.8578 Y32.0225 
G01 X-73.9873 Y31.8930 
G01 X-74.0891 Y31.7406 
G01 X-74.1593 Y31.5713 
G01 X-74.1950 Y31.3916 
G01 X-74.1950 Y31.2084 
G01 X-74.1593 Y31.0287 
G01 X-74.0891 Y30.8594 
G01 X-73.9873 Y30.7070 
G01 X-73.8578 Y30.5775 
G01 X-73.7054 Y30.4757 
G01 X-73.5361 Y30.4055 
G01 X-73.3564 Y30.3698 
G01 X-72.6678 Y30.3698 
G01 X-72.6678 Y29.5302 
G01 X-73.4663 Y29.5302 
G01 X-73.6653 Y29.4906 
G01 X-73.8528 Y29.4129 
G01 X-74.0215 Y29.3002 
G01 X-74.1650 Y29.1567 
G01 X-74.2777 Y28.9880 
G01 X-74.3554 Y28.8005 
G01 X-74.3950 Y28.6015 
G01 X-74.3950 Y28.3985 
G01 X-74.3554 Y28.1995 
G01 X-74.2777 Y28.0120 
G01 X-74.1650 Y27.8433 
G01 X-74.0215 Y27.6998 
G01 X-73.8528 Y27.5870 
G01 X-73.6653 Y27.5094 
G01 X-73.4663 Y27.4698 
G01 X-71.4537 Y27.4698 
G01 X-71.2547 Y27.5094 
G01 X-71.0672 Y27.5870 
G01 X-70.9547 Y27.6622 
G01 X-66.1551 Y27.6622 
G01 X-63.7223 Y25.2294 
G01 X-63.6706 Y25.1777 
G01 X-63.6072 Y25.1411 
G01 X-63.5366 Y25.1222 
G01 X-47.9663 Y25.1222 
G01 X-47.9663 Y24.2955 
G01 X-47.9268 Y24.0971 
G01 X-47.8494 Y23.9102 
G01 X-47.7370 Y23.7420 
G01 X-47.5939 Y23.5989 
G01 X-47.4257 Y23.4865 
G01 X-47.2388 Y23.4091 
G01 X-47.0404 Y23.3696 
G01 X-46.8380 Y23.3696 
G01 X-46.6582 Y23.4054 
G01 X-45.9978 Y22.7449 
G01 X-45.9978 Y16.5756 
G01 X-46.9204 Y14.7304 
G01 X-47.0404 Y14.7304 
G01 X-47.2388 Y14.6909 
G01 X-47.4257 Y14.6135 
G01 X-47.5939 Y14.5011 
G01 X-47.7370 Y14.3580 
G01 X-47.8494 Y14.1898 
G01 X-47.9268 Y14.0029 
G01 X-47.9663 Y13.8045 
G01 X-47.9663 Y11.7987 
G01 X-47.9268 Y11.6003 
G01 X-47.8494 Y11.4134 
G01 X-47.7370 Y11.2452 
G01 X-47.5939 Y11.1021 
G01 X-47.4257 Y10.9897 
G01 X-47.2388 Y10.9123 
G01 X-47.0404 Y10.8728 
G01 X-46.8380 Y10.8728 
G01 X-46.6396 Y10.9123 
G01 X-46.4527 Y10.9897 
G01 X-46.2845 Y11.1021 
G01 X-46.1414 Y11.2452 
G01 X-46.0290 Y11.4134 
G01 X-45.9516 Y11.6003 
G01 X-45.9121 Y11.7987 
G01 X-45.9121 Y13.8045 
G01 X-45.9516 Y14.0029 
G01 X-46.0290 Y14.1898 
G01 X-46.1414 Y14.3580 
G01 X-46.2845 Y14.5011 
G01 X-46.3815 Y14.5659 
G01 X-45.4753 Y16.3783 
G01 X-45.4611 Y16.4028 
G01 X-45.4589 Y16.4109 
G01 X-45.4552 Y16.4185 
G01 X-45.4495 Y16.4462 
G01 X-45.4422 Y16.4734 
G01 X-45.4422 Y16.4819 
G01 X-45.4405 Y16.4901 
G01 X-45.4422 Y16.5183 
G01 X-45.4422 Y22.8966 
G01 X-45.4611 Y22.9672 
G01 X-45.4977 Y23.0306 
G01 X-45.5494 Y23.0823 
G01 X-46.1752 Y23.7081 
G01 X-46.1414 Y23.7420 
G01 X-46.0290 Y23.9102 
G00 Z2.5400  
G00 X-46.1414 Y36.6452 
G01 Z-0.1778 F500   
G01 X-46.0290 Y36.8134 F500   
G01 X-45.9516 Y37.0003 
G01 X-45.9121 Y37.1987 
G01 X-45.9121 Y39.2045 
G01 X-45.9516 Y39.4029 
G01 X-45.9862 Y39.4864 
G01 X-45.4753 Y40.5083 
G01 X-45.4611 Y40.5328 
G01 X-45.4589 Y40.5409 
G01 X-45.4552 Y40.5485 
G01 X-45.4495 Y40.5762 
G01 X-45.4422 Y40.6034 
G01 X-45.4422 Y40.6119 
G01 X-45.4405 Y40.6201 
G01 X-45.4422 Y40.6483 
G01 X-45.4422 Y48.2517 
G01 X-45.4405 Y48.2799 
G01 X-45.4422 Y48.2881 
G01 X-45.4422 Y48.2966 
G01 X-45.4495 Y48.3238 
G01 X-45.4552 Y48.3515 
G01 X-45.4589 Y48.3591 
G01 X-45.4611 Y48.3672 
G01 X-45.4753 Y48.3917 
G01 X-45.9862 Y49.4135 
G01 X-45.9516 Y49.4971 
G01 X-45.9121 Y49.6955 
G01 X-45.9121 Y51.7013 
G01 X-45.9516 Y51.8997 
G01 X-46.0290 Y52.0866 
G01 X-46.1414 Y52.2548 
G01 X-46.2845 Y52.3979 
G01 X-46.4527 Y52.5103 
G01 X-46.6396 Y52.5877 
G01 X-46.7122 Y52.6022 
G01 X-46.7122 Y63.2683 
G01 X-46.5937 Y63.3174 
G01 X-46.4567 Y63.4090 
G01 X-46.3402 Y63.5255 
G01 X-46.2486 Y63.6625 
G01 X-46.1855 Y63.8148 
G01 X-46.1534 Y63.9764 
G01 X-46.1534 Y65.5636 
G01 X-46.1855 Y65.7252 
G01 X-46.2486 Y65.8775 
G01 X-46.3402 Y66.0145 
G01 X-46.4567 Y66.1310 
G01 X-46.5937 Y66.2226 
G01 X-46.7460 Y66.2856 
G01 X-46.9076 Y66.3178 
G01 X-47.0724 Y66.3178 
G01 X-47.2340 Y66.2856 
G01 X-47.3863 Y66.2226 
G01 X-47.5233 Y66.1310 
G01 X-47.6398 Y66.0145 
G01 X-47.7314 Y65.8775 
G01 X-47.7944 Y65.7252 
G01 X-47.8266 Y65.5636 
G01 X-47.8266 Y63.9764 
G01 X-47.7944 Y63.8148 
G01 X-47.7314 Y63.6625 
G01 X-47.6398 Y63.5255 
G01 X-47.5233 Y63.4090 
G01 X-47.3863 Y63.3174 
G01 X-47.2678 Y63.2683 
G01 X-47.2678 Y52.5757 
G01 X-47.4257 Y52.5103 
G01 X-47.5939 Y52.3979 
G01 X-47.7370 Y52.2548 
G01 X-47.8494 Y52.0866 
G01 X-47.9268 Y51.8997 
G01 X-47.9663 Y51.7013 
G01 X-47.9663 Y49.6955 
G01 X-47.9268 Y49.4971 
G01 X-47.8494 Y49.3102 
G01 X-47.7370 Y49.1420 
G01 X-47.5939 Y48.9989 
G01 X-47.4257 Y48.8865 
G01 X-47.2388 Y48.8091 
G01 X-47.0404 Y48.7696 
G01 X-46.8380 Y48.7696 
G01 X-46.6396 Y48.8091 
G01 X-46.4527 Y48.8865 
G01 X-46.3711 Y48.9410 
G01 X-45.9978 Y48.1944 
G01 X-45.9978 Y40.7056 
G01 X-46.3711 Y39.9590 
G01 X-46.4527 Y40.0135 
G01 X-46.6396 Y40.0909 
G01 X-46.8380 Y40.1304 
G01 X-47.0404 Y40.1304 
G01 X-47.2388 Y40.0909 
G01 X-47.4257 Y40.0135 
G01 X-47.5939 Y39.9011 
G01 X-47.7370 Y39.7580 
G01 X-47.8494 Y39.5898 
G01 X-47.9268 Y39.4029 
G01 X-47.9663 Y39.2045 
G01 X-47.9663 Y37.1987 
G01 X-47.9268 Y37.0003 
G01 X-47.8494 Y36.8134 
G01 X-47.7370 Y36.6452 
G01 X-47.5939 Y36.5021 
G01 X-47.4257 Y36.3897 
G01 X-47.2388 Y36.3123 
G01 X-47.0404 Y36.2728 
G01 X-46.8380 Y36.2728 
G01 X-46.6396 Y36.3123 
G01 X-46.4527 Y36.3897 
G01 X-46.2845 Y36.5021 
G01 X-46.1414 Y36.6452 
G00 Z2.5400  
G00 X-53.0622 Y34.2983 
G01 Z-0.1778 F500   
G01 X-53.0622 Y51.9549 F500   
G01 X-51.8994 Y53.1177 
G01 X-51.8477 Y53.1694 
G01 X-51.8111 Y53.2328 
G01 X-51.7922 Y53.3034 
G01 X-51.7922 Y63.2683 
G01 X-51.6737 Y63.3174 
G01 X-51.5367 Y63.4090 
G01 X-51.4202 Y63.5255 
G01 X-51.3286 Y63.6625 
G01 X-51.2655 Y63.8148 
G01 X-51.2334 Y63.9764 
G01 X-51.2334 Y65.5636 
G01 X-51.2655 Y65.7252 
G01 X-51.3286 Y65.8775 
G01 X-51.4202 Y66.0145 
G01 X-51.5367 Y66.1310 
G01 X-51.6737 Y66.2226 
G01 X-51.8260 Y66.2856 
G01 X-51.9876 Y66.3178 
G01 X-52.1524 Y66.3178 
G01 X-52.3140 Y66.2856 
G01 X-52.4663 Y66.2226 
G01 X-52.6033 Y66.1310 
G01 X-52.7198 Y66.0145 
G01 X-52.8114 Y65.8775 
G01 X-52.8744 Y65.7252 
G01 X-52.9066 Y65.5636 
G01 X-52.9066 Y63.9764 
G01 X-52.8744 Y63.8148 
G01 X-52.8114 Y63.6625 
G01 X-52.7198 Y63.5255 
G01 X-52.6033 Y63.4090 
G01 X-52.4663 Y63.3174 
G01 X-52.3478 Y63.2683 
G01 X-52.3478 Y53.4551 
G01 X-53.5623 Y52.2406 
G01 X-53.5989 Y52.1772 
G01 X-53.6178 Y52.1066 
G01 X-53.6178 Y34.3556 
G01 X-57.3217 Y26.9478 
G01 X-63.3849 Y26.9478 
G01 X-70.7677 Y34.3306 
G01 X-70.7550 Y34.3433 
G01 X-70.6422 Y34.5120 
G01 X-70.5646 Y34.6995 
G01 X-70.5250 Y34.8985 
G01 X-70.5250 Y35.1015 
G01 X-70.5646 Y35.3005 
G01 X-70.6422 Y35.4880 
G01 X-70.7550 Y35.6567 
G01 X-70.8985 Y35.8002 
G01 X-71.0672 Y35.9130 
G01 X-71.2547 Y35.9906 
G01 X-71.4537 Y36.0302 
G01 X-73.4663 Y36.0302 
G01 X-73.6653 Y35.9906 
G01 X-73.8528 Y35.9130 
G01 X-74.0215 Y35.8002 
G01 X-74.1650 Y35.6567 
G01 X-74.2777 Y35.4880 
G01 X-74.3554 Y35.3005 
G01 X-74.3950 Y35.1015 
G01 X-74.3950 Y34.8985 
G01 X-74.3554 Y34.6995 
G01 X-74.2777 Y34.5120 
G01 X-74.1650 Y34.3433 
G01 X-74.0215 Y34.1998 
G01 X-73.8528 Y34.0870 
G01 X-73.6653 Y34.0094 
G01 X-73.4663 Y33.9698 
G01 X-71.4537 Y33.9698 
G01 X-71.2547 Y34.0094 
G01 X-71.2388 Y34.0160 
G01 X-63.6706 Y26.4477 
G01 X-63.6072 Y26.4111 
G01 X-63.5366 Y26.3922 
G01 X-57.1781 Y26.3922 
G01 X-57.1699 Y26.3905 
G01 X-57.1417 Y26.3922 
G01 X-57.1134 Y26.3922 
G01 X-57.1053 Y26.3944 
G01 X-57.0968 Y26.3949 
G01 X-57.0701 Y26.4038 
G01 X-57.0428 Y26.4111 
G01 X-57.0355 Y26.4154 
G01 X-57.0275 Y26.4180 
G01 X-57.0039 Y26.4336 
G01 X-56.9794 Y26.4477 
G01 X-56.9735 Y26.4537 
G01 X-56.9664 Y26.4583 
G01 X-56.9477 Y26.4795 
G01 X-56.9277 Y26.4994 
G01 X-56.9235 Y26.5067 
G01 X-56.9179 Y26.5130 
G01 X-56.9053 Y26.5383 
G01 X-56.8911 Y26.5628 
G01 X-56.8889 Y26.5709 
G01 X-53.0953 Y34.1583 
G01 X-53.0811 Y34.1828 
G01 X-53.0789 Y34.1909 
G01 X-53.0752 Y34.1985 
G01 X-53.0695 Y34.2262 
G01 X-53.0622 Y34.2534 
G01 X-53.0622 Y34.2619 
G01 X-53.0605 Y34.2701 
G01 X-53.0622 Y34.2983 
G00 Z2.5400  
G00 X-60.4550 Y34.3433 
G01 Z-0.1778 F500   
G01 X-60.3422 Y34.5120 F500   
G01 X-60.2646 Y34.6995 
G01 X-60.2250 Y34.8985 
G01 X-60.2250 Y35.1015 
G01 X-60.2646 Y35.3005 
G01 X-60.3422 Y35.4880 
G01 X-60.4550 Y35.6567 
G01 X-60.5985 Y35.8002 
G01 X-60.7672 Y35.9130 
G01 X-60.9547 Y35.9906 
G01 X-61.1537 Y36.0302 
G01 X-62.3073 Y36.0302 
G01 X-65.7622 Y39.4851 
G01 X-65.7622 Y59.5749 
G01 X-64.5477 Y60.7894 
G01 X-64.5111 Y60.8528 
G01 X-64.4922 Y60.9234 
G01 X-64.4922 Y63.2683 
G01 X-64.3737 Y63.3174 
G01 X-64.2367 Y63.4090 
G01 X-64.1202 Y63.5255 
G01 X-64.0286 Y63.6625 
G01 X-63.9656 Y63.8148 
G01 X-63.9334 Y63.9764 
G01 X-63.9334 Y65.5636 
G01 X-63.9656 Y65.7252 
G01 X-64.0286 Y65.8775 
G01 X-64.1202 Y66.0145 
G01 X-64.2367 Y66.1310 
G01 X-64.3737 Y66.2226 
G01 X-64.5260 Y66.2856 
G01 X-64.6876 Y66.3178 
G01 X-64.8524 Y66.3178 
G01 X-65.0140 Y66.2856 
G01 X-65.1663 Y66.2226 
G01 X-65.3033 Y66.1310 
G01 X-65.4198 Y66.0145 
G01 X-65.5114 Y65.8775 
G01 X-65.5744 Y65.7252 
G01 X-65.6066 Y65.5636 
G01 X-65.6066 Y63.9764 
G01 X-65.5744 Y63.8148 
G01 X-65.5114 Y63.6625 
G01 X-65.4198 Y63.5255 
G01 X-65.3033 Y63.4090 
G01 X-65.1663 Y63.3174 
G01 X-65.0478 Y63.2683 
G01 X-65.0478 Y61.0751 
G01 X-66.2623 Y59.8606 
G01 X-66.2989 Y59.7972 
G01 X-66.3178 Y59.7266 
G01 X-66.3178 Y47.1051 
G01 X-86.7605 Y26.6623 
G01 X-86.7706 Y26.6866 
G01 X-86.8830 Y26.8548 
G01 X-87.0261 Y26.9979 
G01 X-87.1943 Y27.1103 
G01 X-87.3812 Y27.1877 
G01 X-87.5796 Y27.2272 
G01 X-87.7820 Y27.2272 
G01 X-87.9804 Y27.1877 
G01 X-88.1673 Y27.1103 
G01 X-88.3355 Y26.9979 
G01 X-88.4786 Y26.8548 
G01 X-88.5910 Y26.6866 
G01 X-88.6684 Y26.4997 
G01 X-88.7079 Y26.3013 
G01 X-88.7079 Y24.2955 
G01 X-88.6684 Y24.0971 
G01 X-88.5910 Y23.9102 
G01 X-88.4786 Y23.7420 
G01 X-88.3355 Y23.5989 
G01 X-88.1673 Y23.4865 
G01 X-87.9804 Y23.4091 
G01 X-87.9078 Y23.3946 
G01 X-87.9078 Y14.7054 
G01 X-87.9804 Y14.6909 
G01 X-88.1673 Y14.6135 
G01 X-88.3355 Y14.5011 
G01 X-88.4786 Y14.3580 
G01 X-88.5910 Y14.1898 
G01 X-88.6684 Y14.0029 
G01 X-88.7079 Y13.8045 
G01 X-88.7079 Y11.7987 
G01 X-88.6684 Y11.6003 
G01 X-88.5910 Y11.4134 
G01 X-88.4786 Y11.2452 
G01 X-88.3355 Y11.1021 
G01 X-88.1673 Y10.9897 
G01 X-87.9804 Y10.9123 
G01 X-87.7820 Y10.8728 
G01 X-87.5796 Y10.8728 
G01 X-87.3812 Y10.9123 
G01 X-87.1943 Y10.9897 
G01 X-87.0261 Y11.1021 
G01 X-86.8830 Y11.2452 
G01 X-86.7706 Y11.4134 
G01 X-86.6932 Y11.6003 
G01 X-86.6537 Y11.7987 
G01 X-86.6537 Y13.8045 
G01 X-86.6932 Y14.0029 
G01 X-86.7706 Y14.1898 
G01 X-86.8830 Y14.3580 
G01 X-87.0261 Y14.5011 
G01 X-87.1943 Y14.6135 
G01 X-87.3522 Y14.6789 
G01 X-87.3522 Y23.4211 
G01 X-87.1943 Y23.4865 
G01 X-87.0261 Y23.5989 
G01 X-86.8830 Y23.7420 
G01 X-86.7706 Y23.9102 
G01 X-86.6932 Y24.0971 
G01 X-86.6537 Y24.2955 
G01 X-86.6537 Y25.9834 
G01 X-66.3178 Y46.3193 
G01 X-66.3178 Y39.3334 
G01 X-66.2989 Y39.2628 
G01 X-66.2623 Y39.1994 
G01 X-66.2106 Y39.1477 
G01 X-63.0931 Y36.0302 
G01 X-63.1663 Y36.0302 
G01 X-63.3653 Y35.9906 
G01 X-63.5528 Y35.9130 
G01 X-63.7215 Y35.8002 
G01 X-63.8650 Y35.6567 
G01 X-63.9778 Y35.4880 
G01 X-64.0554 Y35.3005 
G01 X-64.0950 Y35.1015 
G01 X-64.0950 Y34.8985 
G01 X-64.0554 Y34.6995 
G01 X-63.9778 Y34.5120 
G01 X-63.8650 Y34.3433 
G01 X-63.7215 Y34.1998 
G01 X-63.5528 Y34.0870 
G01 X-63.3653 Y34.0094 
G01 X-63.1663 Y33.9698 
G01 X-61.1537 Y33.9698 
G01 X-60.9547 Y34.0094 
G01 X-60.7672 Y34.0870 
G01 X-60.5985 Y34.1998 
G01 X-60.4550 Y34.3433 
G00 Z2.5400  
G00 X-60.7622 Y32.0225 
G01 Z-0.1778 F500   
G01 X-60.9146 Y32.1243 F500   
G01 X-61.0839 Y32.1945 
G01 X-61.2636 Y32.2302 
G01 X-63.0564 Y32.2302 
G01 X-63.2361 Y32.1945 
G01 X-63.4054 Y32.1243 
G01 X-63.5499 Y32.0278 
G01 X-65.9249 Y32.0278 
G01 X-70.9494 Y37.0523 
G01 X-71.0128 Y37.0889 
G01 X-71.0834 Y37.1078 
G01 X-73.6966 Y37.1078 
G01 X-73.7672 Y37.0889 
G01 X-73.8306 Y37.0523 
G01 X-85.2606 Y25.6223 
G01 X-85.3123 Y25.5706 
G01 X-85.3489 Y25.5072 
G01 X-85.3678 Y25.4366 
G01 X-85.3678 Y25.3634 
G01 X-85.3489 Y25.2928 
G01 X-85.3123 Y25.2294 
G01 X-84.0978 Y24.0149 
G01 X-84.0978 Y12.8151 
G01 X-86.4751 Y10.4378 
G01 X-90.7693 Y10.4378 
G01 X-89.9477 Y11.2594 
G01 X-89.9111 Y11.3228 
G01 X-89.8922 Y11.3934 
G01 X-89.8922 Y26.5549 
G01 X-68.4649 Y47.9822 
G01 X-67.2734 Y47.9822 
G01 X-67.2028 Y48.0011 
G01 X-67.1394 Y48.0377 
G01 X-67.0877 Y48.0894 
G01 X-67.0511 Y48.1528 
G01 X-67.0322 Y48.2234 
G01 X-67.0322 Y63.2683 
G01 X-66.9137 Y63.3174 
G01 X-66.7767 Y63.4090 
G01 X-66.6602 Y63.5255 
G01 X-66.5686 Y63.6625 
G01 X-66.5055 Y63.8148 
G01 X-66.4734 Y63.9764 
G01 X-66.4734 Y65.5636 
G01 X-66.5055 Y65.7252 
G01 X-66.5686 Y65.8775 
G01 X-66.6602 Y66.0145 
G01 X-66.7767 Y66.1310 
G01 X-66.9137 Y66.2226 
G01 X-67.0660 Y66.2856 
G01 X-67.2276 Y66.3178 
G01 X-67.3924 Y66.3178 
G01 X-67.5540 Y66.2856 
G01 X-67.7063 Y66.2226 
G01 X-67.8433 Y66.1310 
G01 X-67.9598 Y66.0145 
G01 X-68.0514 Y65.8775 
G01 X-68.1144 Y65.7252 
G01 X-68.1466 Y65.5636 
G01 X-68.1466 Y63.9764 
G01 X-68.1144 Y63.8148 
G01 X-68.0514 Y63.6625 
G01 X-67.9598 Y63.5255 
G01 X-67.8433 Y63.4090 
G01 X-67.7063 Y63.3174 
G01 X-67.5878 Y63.2683 
G01 X-67.5878 Y48.5378 
G01 X-68.6166 Y48.5378 
G01 X-68.6872 Y48.5189 
G01 X-68.7506 Y48.4823 
G01 X-90.3406 Y26.8923 
G01 X-90.3923 Y26.8406 
G01 X-90.4289 Y26.7772 
G01 X-90.4478 Y26.7066 
G01 X-90.4478 Y11.5451 
G01 X-91.5551 Y10.4378 
G01 X-93.8649 Y10.4378 
G01 X-96.2422 Y12.8151 
G01 X-96.2422 Y34.1749 
G01 X-93.5795 Y36.8377 
G01 X-93.5694 Y36.8134 
G01 X-93.4570 Y36.6452 
G01 X-93.3139 Y36.5021 
G01 X-93.1457 Y36.3897 
G01 X-92.9588 Y36.3123 
G01 X-92.7604 Y36.2728 
G01 X-92.5580 Y36.2728 
G01 X-92.3596 Y36.3123 
G01 X-92.1727 Y36.3897 
G01 X-92.0045 Y36.5021 
G01 X-91.8614 Y36.6452 
G01 X-91.7490 Y36.8134 
G01 X-91.6716 Y37.0003 
G01 X-91.6321 Y37.1987 
G01 X-91.6321 Y39.2045 
G01 X-91.6716 Y39.4029 
G01 X-91.7490 Y39.5898 
G01 X-91.8614 Y39.7580 
G01 X-92.0045 Y39.9011 
G01 X-92.1727 Y40.0135 
G01 X-92.3596 Y40.0909 
G01 X-92.4322 Y40.1054 
G01 X-92.4322 Y48.7946 
G01 X-92.3596 Y48.8091 
G01 X-92.1727 Y48.8865 
G01 X-92.0045 Y48.9989 
G01 X-91.8614 Y49.1420 
G01 X-91.7490 Y49.3102 
G01 X-91.6716 Y49.4971 
G01 X-91.6321 Y49.6955 
G01 X-91.6321 Y51.7013 
G01 X-91.6716 Y51.8997 
G01 X-91.7490 Y52.0866 
G01 X-91.8614 Y52.2548 
G01 X-92.0045 Y52.3979 
G01 X-92.1727 Y52.5103 
G01 X-92.3596 Y52.5877 
G01 X-92.5580 Y52.6272 
G01 X-92.7604 Y52.6272 
G01 X-92.9588 Y52.5877 
G01 X-93.1457 Y52.5103 
G01 X-93.3139 Y52.3979 
G01 X-93.4570 Y52.2548 
G01 X-93.5694 Y52.0866 
G01 X-93.6468 Y51.8997 
G01 X-93.6863 Y51.7013 
G01 X-93.6863 Y49.6955 
G01 X-93.6468 Y49.4971 
G01 X-93.5694 Y49.3102 
G01 X-93.4570 Y49.1420 
G01 X-93.3139 Y48.9989 
G01 X-93.1457 Y48.8865 
G01 X-92.9878 Y48.8211 
G01 X-92.9878 Y40.0789 
G01 X-93.1457 Y40.0135 
G01 X-93.3139 Y39.9011 
G01 X-93.4570 Y39.7580 
G01 X-93.5694 Y39.5898 
G01 X-93.6468 Y39.4029 
G01 X-93.6863 Y39.2045 
G01 X-93.6863 Y37.5166 
G01 X-96.7423 Y34.4606 
G01 X-96.7789 Y34.3972 
G01 X-96.7978 Y34.3266 
G01 X-96.7978 Y12.6634 
G01 X-96.7789 Y12.5928 
G01 X-96.7423 Y12.5294 
G01 X-96.6906 Y12.4777 
G01 X-94.1506 Y9.9377  
G01 X-94.0872 Y9.9011  
G01 X-94.0166 Y9.8822  
G01 X-86.3234 Y9.8822  
G01 X-86.2528 Y9.9011  
G01 X-86.1894 Y9.9377  
G01 X-86.1377 Y9.9894  
G01 X-83.5977 Y12.5294 
G01 X-83.5611 Y12.5928 
G01 X-83.5422 Y12.6634 
G01 X-83.5422 Y24.1666 
G01 X-83.5611 Y24.2372 
G01 X-83.5977 Y24.3006 
G01 X-84.6971 Y25.4000 
G01 X-73.5449 Y36.5522 
G01 X-71.2351 Y36.5522 
G01 X-66.2106 Y31.5277 
G01 X-66.1472 Y31.4911 
G01 X-66.0766 Y31.4722 
G01 X-63.8790 Y31.4722 
G01 X-63.8950 Y31.3916 
G01 X-63.8950 Y31.2084 
G01 X-63.8593 Y31.0287 
G01 X-63.7891 Y30.8594 
G01 X-63.6873 Y30.7070 
G01 X-63.5578 Y30.5775 
G01 X-63.4054 Y30.4757 
G01 X-63.2361 Y30.4055 
G01 X-63.0564 Y30.3698 
G01 X-61.2636 Y30.3698 
G01 X-61.0839 Y30.4055 
G01 X-60.9146 Y30.4757 
G01 X-60.7622 Y30.5775 
G01 X-60.6327 Y30.7070 
G01 X-60.5309 Y30.8594 
G01 X-60.4607 Y31.0287 
G01 X-60.4250 Y31.2084 
G01 X-60.4250 Y31.3916 
G01 X-60.4607 Y31.5713 
G01 X-60.5309 Y31.7406 
G01 X-60.6327 Y31.8930 
G01 X-60.7622 Y32.0225 
G00 Z2.5400  
G00 X-60.7672 Y29.4129 
G01 Z-0.1778 F500   
G01 X-60.9547 Y29.4906 F500   
G01 X-61.1537 Y29.5302 
G01 X-63.1663 Y29.5302 
G01 X-63.3653 Y29.4906 
G01 X-63.5528 Y29.4129 
G01 X-63.7215 Y29.3002 
G01 X-63.8650 Y29.1567 
G01 X-63.9778 Y28.9880 
G01 X-64.0554 Y28.8005 
G01 X-64.0950 Y28.6015 
G01 X-64.0950 Y28.3985 
G01 X-64.0554 Y28.1995 
G01 X-63.9778 Y28.0120 
G01 X-63.8650 Y27.8433 
G01 X-63.7215 Y27.6998 
G01 X-63.5528 Y27.5870 
G01 X-63.3653 Y27.5094 
G01 X-63.1663 Y27.4698 
G01 X-61.1537 Y27.4698 
G01 X-60.9547 Y27.5094 
G01 X-60.7672 Y27.5870 
G01 X-60.5985 Y27.6998 
G01 X-60.4550 Y27.8433 
G01 X-60.3422 Y28.0120 
G01 X-60.2646 Y28.1995 
G01 X-60.2601 Y28.2222 
G01 X-58.3834 Y28.2222 
G01 X-58.3128 Y28.2411 
G01 X-58.2494 Y28.2777 
G01 X-58.1977 Y28.3294 
G01 X-58.1611 Y28.3928 
G01 X-58.1422 Y28.4634 
G01 X-58.1422 Y51.3398 
G01 X-57.7903 Y51.3398 
G01 X-57.7442 Y51.3589 
G01 X-57.7089 Y51.3942 
G01 X-57.6898 Y51.4403 
G01 X-57.6898 Y52.6997 
G01 X-57.7089 Y52.7458 
G01 X-57.7442 Y52.7811 
G01 X-57.7903 Y52.8002 
G01 X-59.0497 Y52.8002 
G01 X-59.0958 Y52.7811 
G01 X-59.1311 Y52.7458 
G01 X-59.1502 Y52.6997 
G01 X-59.1502 Y51.4403 
G01 X-59.1311 Y51.3942 
G01 X-59.0958 Y51.3589 
G01 X-59.0497 Y51.3398 
G01 X-58.6978 Y51.3398 
G01 X-58.6978 Y28.7778 
G01 X-60.2601 Y28.7778 
G01 X-60.2646 Y28.8005 
G01 X-60.3422 Y28.9880 
G01 X-60.4550 Y29.1567 
G01 X-60.5985 Y29.3002 
G01 X-60.7672 Y29.4129 
G00 Z2.5400  
G00 X-59.6534 Y54.3322 
G01 Z-0.1778 F500   
G01 X-59.5828 Y54.3511 F500   
G01 X-59.5194 Y54.3877 
G01 X-58.5081 Y55.3990 
G01 X-58.3276 Y55.3990 
G01 X-58.1463 Y55.4351 
G01 X-57.9756 Y55.5058 
G01 X-57.8219 Y55.6085 
G01 X-57.6913 Y55.7391 
G01 X-57.5886 Y55.8928 
G01 X-57.5179 Y56.0635 
G01 X-57.4818 Y56.2448 
G01 X-57.4818 Y58.0552 
G01 X-57.5179 Y58.2365 
G01 X-57.5886 Y58.4072 
G01 X-57.6913 Y58.5609 
G01 X-57.8219 Y58.6915 
G01 X-57.9756 Y58.7942 
G01 X-58.1463 Y58.8649 
G01 X-58.3276 Y58.9010 
G01 X-58.5124 Y58.9010 
G01 X-58.6937 Y58.8649 
G01 X-58.8644 Y58.7942 
G01 X-59.0181 Y58.6915 
G01 X-59.1487 Y58.5609 
G01 X-59.2514 Y58.4072 
G01 X-59.3221 Y58.2365 
G01 X-59.3582 Y58.0552 
G01 X-59.3582 Y56.2448 
G01 X-59.3221 Y56.0635 
G01 X-59.2514 Y55.8928 
G01 X-59.1487 Y55.7391 
G01 X-59.0512 Y55.6416 
G01 X-59.8051 Y54.8878 
G01 X-64.4922 Y54.8878 
G01 X-64.4922 Y59.5749 
G01 X-60.4207 Y63.6465 
G01 X-60.3398 Y63.5255 
G01 X-60.2233 Y63.4090 
G01 X-60.0863 Y63.3174 
G01 X-59.9340 Y63.2544 
G01 X-59.7724 Y63.2222 
G01 X-59.6076 Y63.2222 
G01 X-59.4460 Y63.2544 
G01 X-59.2937 Y63.3174 
G01 X-59.1567 Y63.4090 
G01 X-59.0402 Y63.5255 
G01 X-58.9486 Y63.6625 
G01 X-58.8856 Y63.8148 
G01 X-58.8534 Y63.9764 
G01 X-58.8534 Y65.5636 
G01 X-58.8856 Y65.7252 
G01 X-58.9486 Y65.8775 
G01 X-59.0402 Y66.0145 
G01 X-59.1567 Y66.1310 
G01 X-59.2937 Y66.2226 
G01 X-59.4460 Y66.2856 
G01 X-59.6076 Y66.3178 
G01 X-59.7724 Y66.3178 
G01 X-59.9340 Y66.2856 
G01 X-60.0863 Y66.2226 
G01 X-60.2233 Y66.1310 
G01 X-60.3398 Y66.0145 
G01 X-60.4314 Y65.8775 
G01 X-60.4944 Y65.7252 
G01 X-60.5266 Y65.5636 
G01 X-60.5266 Y64.3263 
G01 X-64.9406 Y59.9123 
G01 X-64.9923 Y59.8606 
G01 X-65.0289 Y59.7972 
G01 X-65.0478 Y59.7266 
G01 X-65.0478 Y54.5734 
G01 X-65.0289 Y54.5028 
G01 X-64.9923 Y54.4394 
G01 X-64.9406 Y54.3877 
G01 X-64.8772 Y54.3511 
G01 X-64.8066 Y54.3322 
G01 X-59.6534 Y54.3322 
G00 Z2.5400  
G00 X-60.2313 Y55.7391 
G01 Z-0.1778 F500   
G01 X-60.1286 Y55.8928 F500   
G01 X-60.0579 Y56.0635 
G01 X-60.0218 Y56.2448 
G01 X-60.0218 Y58.0552 
G01 X-60.0579 Y58.2365 
G01 X-60.1286 Y58.4072 
G01 X-60.2313 Y58.5609 
G01 X-60.3288 Y58.6584 
G01 X-56.9277 Y62.0594 
G01 X-56.8911 Y62.1228 
G01 X-56.8722 Y62.1934 
G01 X-56.8722 Y63.2683 
G01 X-56.7537 Y63.3174 
G01 X-56.6167 Y63.4090 
G01 X-56.5002 Y63.5255 
G01 X-56.4086 Y63.6625 
G01 X-56.3456 Y63.8148 
G01 X-56.3134 Y63.9764 
G01 X-56.3134 Y65.2137 
G01 X-53.2249 Y68.3022 
G01 X-48.2234 Y68.3022 
G01 X-48.1528 Y68.3211 
G01 X-48.0894 Y68.3577 
G01 X-48.0377 Y68.4094 
G01 X-48.0011 Y68.4728 
G01 X-47.9822 Y68.5434 
G01 X-47.9822 Y69.5722 
G01 X-43.1434 Y69.5722 
G01 X-43.0728 Y69.5911 
G01 X-43.0094 Y69.6277 
G01 X-42.9577 Y69.6794 
G01 X-42.9211 Y69.7428 
G01 X-42.9022 Y69.8134 
G01 X-42.9022 Y77.1922 
G01 X-39.3334 Y77.1922 
G01 X-39.2628 Y77.2111 
G01 X-39.1994 Y77.2477 
G01 X-39.1477 Y77.2994 
G01 X-39.1111 Y77.3628 
G01 X-39.0922 Y77.4334 
G01 X-39.0922 Y81.1649 
G01 X-35.9551 Y84.3020 
G01 X-35.9065 Y84.2534 
G01 X-35.2135 Y84.2534 
G01 X-34.7234 Y84.7435 
G01 X-34.7234 Y84.8122 
G01 X-32.1932 Y84.8122 
G01 X-32.1242 Y84.6456 
G01 X-32.0215 Y84.4919 
G01 X-31.8909 Y84.3613 
G01 X-31.7372 Y84.2586 
G01 X-31.5665 Y84.1879 
G01 X-31.3852 Y84.1518 
G01 X-29.5748 Y84.1518 
G01 X-29.3935 Y84.1879 
G01 X-29.2228 Y84.2586 
G01 X-29.0691 Y84.3613 
G01 X-28.9385 Y84.4919 
G01 X-28.8358 Y84.6456 
G01 X-28.7668 Y84.8122 
G01 X-28.0551 Y84.8122 
G01 X-26.2923 Y83.0495 
G01 X-26.3552 Y83.0369 
G01 X-26.5075 Y82.9739 
G01 X-26.6445 Y82.8823 
G01 X-26.7610 Y82.7658 
G01 X-26.8526 Y82.6288 
G01 X-26.9156 Y82.4765 
G01 X-26.9478 Y82.3149 
G01 X-26.9478 Y82.1501 
G01 X-26.9156 Y81.9885 
G01 X-26.8526 Y81.8362 
G01 X-26.7610 Y81.6992 
G01 X-26.6445 Y81.5827 
G01 X-26.5075 Y81.4911 
G01 X-26.3552 Y81.4280 
G01 X-26.1936 Y81.3959 
G01 X-24.6064 Y81.3959 
G01 X-24.4448 Y81.4280 
G01 X-24.2925 Y81.4911 
G01 X-24.1555 Y81.5827 
G01 X-24.0390 Y81.6992 
G01 X-23.9474 Y81.8362 
G01 X-23.9069 Y81.9340 
G01 X-23.1378 Y81.1649 
G01 X-23.1378 Y78.8551 
G01 X-29.9347 Y72.0582 
G01 X-31.3852 Y72.0582 
G01 X-31.5665 Y72.0221 
G01 X-31.7372 Y71.9514 
G01 X-31.8909 Y71.8487 
G01 X-32.0215 Y71.7181 
G01 X-32.1242 Y71.5644 
G01 X-32.1949 Y71.3937 
G01 X-32.2310 Y71.2124 
G01 X-32.2310 Y71.0276 
G01 X-32.1949 Y70.8463 
G01 X-32.1242 Y70.6756 
G01 X-32.0215 Y70.5219 
G01 X-31.8909 Y70.3913 
G01 X-31.7372 Y70.2886 
G01 X-31.5665 Y70.2179 
G01 X-31.3852 Y70.1818 
G01 X-30.7578 Y70.1818 
G01 X-30.7578 Y69.5182 
G01 X-31.3852 Y69.5182 
G01 X-31.5665 Y69.4821 
G01 X-31.7372 Y69.4114 
G01 X-31.8909 Y69.3087 
G01 X-32.0215 Y69.1781 
G01 X-32.1242 Y69.0244 
G01 X-32.1949 Y68.8537 
G01 X-32.2310 Y68.6724 
G01 X-32.2310 Y68.4876 
G01 X-32.1949 Y68.3063 
G01 X-32.1242 Y68.1356 
G01 X-32.0215 Y67.9819 
G01 X-31.8909 Y67.8513 
G01 X-31.7372 Y67.7486 
G01 X-31.5665 Y67.6779 
G01 X-31.3852 Y67.6418 
G01 X-29.5748 Y67.6418 
G01 X-29.3935 Y67.6779 
G01 X-29.2228 Y67.7486 
G01 X-29.0691 Y67.8513 
G01 X-28.9385 Y67.9819 
G01 X-28.8358 Y68.1356 
G01 X-28.7651 Y68.3063 
G01 X-28.7290 Y68.4876 
G01 X-28.7290 Y68.6724 
G01 X-28.7651 Y68.8537 
G01 X-28.8358 Y69.0244 
G01 X-28.9385 Y69.1781 
G01 X-29.0691 Y69.3087 
G01 X-29.2228 Y69.4114 
G01 X-29.3935 Y69.4821 
G01 X-29.5748 Y69.5182 
G01 X-30.2022 Y69.5182 
G01 X-30.2022 Y70.1818 
G01 X-29.5748 Y70.1818 
G01 X-29.3935 Y70.2179 
G01 X-29.2228 Y70.2886 
G01 X-29.0691 Y70.3913 
G01 X-28.9385 Y70.5219 
G01 X-28.8358 Y70.6756 
G01 X-28.7651 Y70.8463 
G01 X-28.7290 Y71.0276 
G01 X-28.7290 Y71.2124 
G01 X-28.7651 Y71.3937 
G01 X-28.8358 Y71.5644 
G01 X-28.9385 Y71.7181 
G01 X-29.0691 Y71.8487 
G01 X-29.2228 Y71.9514 
G01 X-29.2461 Y71.9611 
G01 X-22.6894 Y78.5177 
G01 X-22.6377 Y78.5694 
G01 X-22.6011 Y78.6328 
G01 X-22.5822 Y78.7034 
G01 X-22.5822 Y81.3166 
G01 X-22.6011 Y81.3872 
G01 X-22.6377 Y81.4506 
G01 X-23.9077 Y82.7206 
G01 X-23.9594 Y82.7723 
G01 X-24.0228 Y82.8089 
G01 X-24.0934 Y82.8278 
G01 X-24.1010 Y82.8278 
G01 X-24.1555 Y82.8823 
G01 X-24.2925 Y82.9739 
G01 X-24.4448 Y83.0369 
G01 X-24.6064 Y83.0691 
G01 X-25.5262 Y83.0691 
G01 X-27.7177 Y85.2606 
G01 X-27.7694 Y85.3123 
G01 X-27.8328 Y85.3489 
G01 X-27.9034 Y85.3678 
G01 X-28.7668 Y85.3678 
G01 X-28.8358 Y85.5344 
G01 X-28.9385 Y85.6881 
G01 X-29.0691 Y85.8187 
G01 X-29.2228 Y85.9214 
G01 X-29.3935 Y85.9921 
G01 X-29.5748 Y86.0282 
G01 X-31.3852 Y86.0282 
G01 X-31.5665 Y85.9921 
G01 X-31.7372 Y85.9214 
G01 X-31.8909 Y85.8187 
G01 X-32.0215 Y85.6881 
G01 X-32.1242 Y85.5344 
G01 X-32.1932 Y85.3678 
G01 X-34.7234 Y85.3678 
G01 X-34.7234 Y85.4365 
G01 X-35.2135 Y85.9266 
G01 X-35.9065 Y85.9266 
G01 X-36.3966 Y85.4365 
G01 X-36.3966 Y84.7435 
G01 X-36.3480 Y84.6949 
G01 X-39.5406 Y81.5023 
G01 X-39.5923 Y81.4506 
G01 X-39.6289 Y81.3872 
G01 X-39.6478 Y81.3166 
G01 X-39.6478 Y77.7478 
G01 X-43.2166 Y77.7478 
G01 X-43.2872 Y77.7289 
G01 X-43.3506 Y77.6923 
G01 X-43.4023 Y77.6406 
G01 X-43.4389 Y77.5772 
G01 X-43.4578 Y77.5066 
G01 X-43.4578 Y70.1278 
G01 X-47.9822 Y70.1278 
G01 X-47.9822 Y77.5066 
G01 X-48.0011 Y77.5772 
G01 X-48.0377 Y77.6406 
G01 X-48.0894 Y77.6923 
G01 X-48.1528 Y77.7289 
G01 X-48.2234 Y77.7478 
G01 X-51.2334 Y77.7478 
G01 X-51.2334 Y77.8165 
G01 X-51.7235 Y78.3066 
G01 X-52.4165 Y78.3066 
G01 X-52.9066 Y77.8165 
G01 X-52.9066 Y77.1235 
G01 X-52.8580 Y77.0749 
G01 X-53.4551 Y76.4778 
G01 X-54.6466 Y76.4778 
G01 X-54.7172 Y76.4589 
G01 X-54.7806 Y76.4223 
G01 X-54.8323 Y76.3706 
G01 X-54.8689 Y76.3072 
G01 X-54.8878 Y76.2366 
G01 X-54.8878 Y73.8917 
G01 X-55.0063 Y73.8426 
G01 X-55.1433 Y73.7510 
G01 X-55.2598 Y73.6345 
G01 X-55.3514 Y73.4975 
G01 X-55.4144 Y73.3452 
G01 X-55.4466 Y73.1836 
G01 X-55.4466 Y71.5964 
G01 X-55.4144 Y71.4348 
G01 X-55.3514 Y71.2825 
G01 X-55.2598 Y71.1455 
G01 X-55.1433 Y71.0290 
G01 X-55.0063 Y70.9374 
G01 X-54.8540 Y70.8744 
G01 X-54.6924 Y70.8422 
G01 X-54.5276 Y70.8422 
G01 X-54.3660 Y70.8744 
G01 X-54.2137 Y70.9374 
G01 X-54.0767 Y71.0290 
G01 X-53.9602 Y71.1455 
G01 X-53.8686 Y71.2825 
G01 X-53.8055 Y71.4348 
G01 X-53.7734 Y71.5964 
G01 X-53.7734 Y73.1836 
G01 X-53.8055 Y73.3452 
G01 X-53.8686 Y73.4975 
G01 X-53.9602 Y73.6345 
G01 X-54.0767 Y73.7510 
G01 X-54.2137 Y73.8426 
G01 X-54.3322 Y73.8917 
G01 X-54.3322 Y75.9222 
G01 X-53.3034 Y75.9222 
G01 X-53.2328 Y75.9411 
G01 X-53.1694 Y75.9777 
G01 X-53.1177 Y76.0294 
G01 X-52.4651 Y76.6820 
G01 X-52.4165 Y76.6334 
G01 X-51.7235 Y76.6334 
G01 X-51.2334 Y77.1235 
G01 X-51.2334 Y77.1922 
G01 X-48.5378 Y77.1922 
G01 X-48.5378 Y68.8578 
G01 X-72.4266 Y68.8578 
G01 X-72.4972 Y68.8389 
G01 X-72.5606 Y68.8023 
G01 X-72.6123 Y68.7506 
G01 X-75.1006 Y66.2623 
G01 X-75.1523 Y66.2106 
G01 X-75.1889 Y66.1472 
G01 X-75.2078 Y66.0766 
G01 X-75.2078 Y57.4278 
G01 X-88.7283 Y57.4278 
G01 X-89.5446 Y59.0604 
G01 X-89.2826 Y59.3224 
G01 X-89.2826 Y60.0576 
G01 X-89.8024 Y60.5774 
G01 X-90.5376 Y60.5774 
G01 X-90.6010 Y60.5139 
G01 X-93.3093 Y63.2222 
G01 X-88.8634 Y63.2222 
G01 X-88.7928 Y63.2411 
G01 X-88.7294 Y63.2777 
G01 X-88.6777 Y63.3294 
G01 X-88.6411 Y63.3928 
G01 X-88.6222 Y63.4634 
G01 X-88.6222 Y65.9249 
G01 X-80.0981 Y74.4490 
G01 X-79.9219 Y74.4490 
G01 X-78.9623 Y73.4894 
G01 X-78.9106 Y73.4377 
G01 X-78.8472 Y73.4011 
G01 X-78.7766 Y73.3822 
G01 X-76.1634 Y73.3822 
G01 X-76.0928 Y73.4011 
G01 X-76.0294 Y73.4377 
G01 X-74.7594 Y74.7077 
G01 X-74.7077 Y74.7594 
G01 X-74.6711 Y74.8228 
G01 X-74.6522 Y74.8934 
G01 X-74.6522 Y93.5368 
G01 X-74.4856 Y93.6058 
G01 X-74.3319 Y93.7085 
G01 X-74.2013 Y93.8391 
G01 X-74.0986 Y93.9928 
G01 X-74.0279 Y94.1635 
G01 X-73.9918 Y94.3448 
G01 X-73.9918 Y94.9722 
G01 X-73.3282 Y94.9722 
G01 X-73.3282 Y94.3448 
G01 X-73.2921 Y94.1635 
G01 X-73.2214 Y93.9928 
G01 X-73.1187 Y93.8391 
G01 X-72.9881 Y93.7085 
G01 X-72.8344 Y93.6058 
G01 X-72.6637 Y93.5351 
G01 X-72.4824 Y93.4990 
G01 X-72.2976 Y93.4990 
G01 X-72.1163 Y93.5351 
G01 X-71.9456 Y93.6058 
G01 X-71.7919 Y93.7085 
G01 X-71.6613 Y93.8391 
G01 X-71.5586 Y93.9928 
G01 X-71.4879 Y94.1635 
G01 X-71.4518 Y94.3448 
G01 X-71.4518 Y96.1552 
G01 X-71.4879 Y96.3365 
G01 X-71.5586 Y96.5072 
G01 X-71.6613 Y96.6609 
G01 X-71.7919 Y96.7915 
G01 X-71.9456 Y96.8942 
G01 X-72.1163 Y96.9649 
G01 X-72.2976 Y97.0010 
G01 X-72.4824 Y97.0010 
G01 X-72.6637 Y96.9649 
G01 X-72.8344 Y96.8942 
G01 X-72.9881 Y96.7915 
G01 X-73.1187 Y96.6609 
G01 X-73.2214 Y96.5072 
G01 X-73.2921 Y96.3365 
G01 X-73.3282 Y96.1552 
G01 X-73.3282 Y95.5278 
G01 X-73.9918 Y95.5278 
G01 X-73.9918 Y96.1552 
G01 X-74.0279 Y96.3365 
G01 X-74.0986 Y96.5072 
G01 X-74.2013 Y96.6609 
G01 X-74.3319 Y96.7915 
G01 X-74.4856 Y96.8942 
G01 X-74.6563 Y96.9649 
G01 X-74.8376 Y97.0010 
G01 X-75.0224 Y97.0010 
G01 X-75.2037 Y96.9649 
G01 X-75.3744 Y96.8942 
G01 X-75.5281 Y96.7915 
G01 X-75.6587 Y96.6609 
G01 X-75.7614 Y96.5072 
G01 X-75.8321 Y96.3365 
G01 X-75.8682 Y96.1552 
G01 X-75.8682 Y95.5278 
G01 X-76.5318 Y95.5278 
G01 X-76.5318 Y96.1552 
G01 X-76.5679 Y96.3365 
G01 X-76.6386 Y96.5072 
G01 X-76.7413 Y96.6609 
G01 X-76.8719 Y96.7915 
G01 X-77.0256 Y96.8942 
G01 X-77.1963 Y96.9649 
G01 X-77.3776 Y97.0010 
G01 X-77.5624 Y97.0010 
G01 X-77.7437 Y96.9649 
G01 X-77.9144 Y96.8942 
G01 X-78.0681 Y96.7915 
G01 X-78.1987 Y96.6609 
G01 X-78.3014 Y96.5072 
G01 X-78.3721 Y96.3365 
G01 X-78.4082 Y96.1552 
G01 X-78.4082 Y95.5278 
G01 X-79.0718 Y95.5278 
G01 X-79.0718 Y96.1552 
G01 X-79.1079 Y96.3365 
G01 X-79.1786 Y96.5072 
G01 X-79.2813 Y96.6609 
G01 X-79.4119 Y96.7915 
G01 X-79.5656 Y96.8942 
G01 X-79.7363 Y96.9649 
G01 X-79.9176 Y97.0010 
G01 X-80.1024 Y97.0010 
G01 X-80.2837 Y96.9649 
G01 X-80.4544 Y96.8942 
G01 X-80.6081 Y96.7915 
G01 X-80.7387 Y96.6609 
G01 X-80.8414 Y96.5072 
G01 X-80.9121 Y96.3365 
G01 X-80.9482 Y96.1552 
G01 X-80.9482 Y94.3448 
G01 X-80.9121 Y94.1635 
G01 X-80.8414 Y93.9928 
G01 X-80.7387 Y93.8391 
G01 X-80.6081 Y93.7085 
G01 X-80.4544 Y93.6058 
G01 X-80.2878 Y93.5368 
G01 X-80.2878 Y89.1778 
G01 X-84.8122 Y89.1778 
G01 X-84.8122 Y93.5368 
G01 X-84.6456 Y93.6058 
G01 X-84.4919 Y93.7085 
G01 X-84.3613 Y93.8391 
G01 X-84.2586 Y93.9928 
G01 X-84.1879 Y94.1635 
G01 X-84.1518 Y94.3448 
G01 X-84.1518 Y96.1552 
G01 X-84.1879 Y96.3365 
G01 X-84.2586 Y96.5072 
G01 X-84.3613 Y96.6609 
G01 X-84.4919 Y96.7915 
G01 X-84.6456 Y96.8942 
G01 X-84.8163 Y96.9649 
G01 X-84.9976 Y97.0010 
G01 X-85.1824 Y97.0010 
G01 X-85.3637 Y96.9649 
G01 X-85.5344 Y96.8942 
G01 X-85.6881 Y96.7915 
G01 X-85.8187 Y96.6609 
G01 X-85.9214 Y96.5072 
G01 X-85.9921 Y96.3365 
G01 X-86.0282 Y96.1552 
G01 X-86.0282 Y94.3448 
G01 X-85.9921 Y94.1635 
G01 X-85.9214 Y93.9928 
G01 X-85.8187 Y93.8391 
G01 X-85.6881 Y93.7085 
G01 X-85.5344 Y93.6058 
G01 X-85.3678 Y93.5368 
G01 X-85.3678 Y88.8634 
G01 X-85.3489 Y88.7928 
G01 X-85.3123 Y88.7294 
G01 X-85.2606 Y88.6777 
G01 X-85.1972 Y88.6411 
G01 X-85.1266 Y88.6222 
G01 X-80.2878 Y88.6222 
G01 X-80.2878 Y84.6566 
G01 X-80.3565 Y84.6566 
G01 X-80.8466 Y84.1665 
G01 X-80.8466 Y83.4735 
G01 X-80.3565 Y82.9834 
G01 X-79.6635 Y82.9834 
G01 X-79.1734 Y83.4735 
G01 X-79.1734 Y84.1665 
G01 X-79.6635 Y84.6566 
G01 X-79.7322 Y84.6566 
G01 X-79.7322 Y93.5368 
G01 X-79.5656 Y93.6058 
G01 X-79.4119 Y93.7085 
G01 X-79.2813 Y93.8391 
G01 X-79.1786 Y93.9928 
G01 X-79.1079 Y94.1635 
G01 X-79.0718 Y94.3448 
G01 X-79.0718 Y94.9722 
G01 X-78.4082 Y94.9722 
G01 X-78.4082 Y94.3448 
G01 X-78.3721 Y94.1635 
G01 X-78.3014 Y93.9928 
G01 X-78.1987 Y93.8391 
G01 X-78.0681 Y93.7085 
G01 X-77.9144 Y93.6058 
G01 X-77.7437 Y93.5351 
G01 X-77.5624 Y93.4990 
G01 X-77.3776 Y93.4990 
G01 X-77.1963 Y93.5351 
G01 X-77.0256 Y93.6058 
G01 X-76.8719 Y93.7085 
G01 X-76.7413 Y93.8391 
G01 X-76.6386 Y93.9928 
G01 X-76.5679 Y94.1635 
G01 X-76.5318 Y94.3448 
G01 X-76.5318 Y94.9722 
G01 X-75.8682 Y94.9722 
G01 X-75.8682 Y94.3448 
G01 X-75.8321 Y94.1635 
G01 X-75.7614 Y93.9928 
G01 X-75.6587 Y93.8391 
G01 X-75.5281 Y93.7085 
G01 X-75.3744 Y93.6058 
G01 X-75.2078 Y93.5368 
G01 X-75.2078 Y75.0451 
G01 X-76.3151 Y73.9378 
G01 X-78.6249 Y73.9378 
G01 X-79.3788 Y74.6916 
G01 X-79.2813 Y74.7891 
G01 X-79.1786 Y74.9428 
G01 X-79.1079 Y75.1135 
G01 X-79.0718 Y75.2948 
G01 X-79.0718 Y77.1052 
G01 X-79.1079 Y77.2865 
G01 X-79.1786 Y77.4572 
G01 X-79.2813 Y77.6109 
G01 X-79.4119 Y77.7415 
G01 X-79.5656 Y77.8442 
G01 X-79.7363 Y77.9149 
G01 X-79.9176 Y77.9510 
G01 X-80.1024 Y77.9510 
G01 X-80.2837 Y77.9149 
G01 X-80.4544 Y77.8442 
G01 X-80.6081 Y77.7415 
G01 X-80.7387 Y77.6109 
G01 X-80.8414 Y77.4572 
G01 X-80.9121 Y77.2865 
G01 X-80.9482 Y77.1052 
G01 X-80.9482 Y75.2948 
G01 X-80.9121 Y75.1135 
G01 X-80.8414 Y74.9428 
G01 X-80.7387 Y74.7891 
G01 X-80.6412 Y74.6916 
G01 X-89.0706 Y66.2623 
G01 X-89.1223 Y66.2106 
G01 X-89.1589 Y66.1472 
G01 X-89.1778 Y66.0766 
G01 X-89.1778 Y63.7778 
G01 X-93.8649 Y63.7778 
G01 X-94.9722 Y64.8851 
G01 X-94.9722 Y93.5368 
G01 X-94.8056 Y93.6058 
G01 X-94.6519 Y93.7085 
G01 X-94.5213 Y93.8391 
G01 X-94.4186 Y93.9928 
G01 X-94.3479 Y94.1635 
G01 X-94.3118 Y94.3448 
G01 X-94.3118 Y96.1552 
G01 X-94.3479 Y96.3365 
G01 X-94.4186 Y96.5072 
G01 X-94.5213 Y96.6609 
G01 X-94.6519 Y96.7915 
G01 X-94.8056 Y96.8942 
G01 X-94.9763 Y96.9649 
G01 X-95.1576 Y97.0010 
G01 X-95.3424 Y97.0010 
G01 X-95.5237 Y96.9649 
G01 X-95.6944 Y96.8942 
G01 X-95.8481 Y96.7915 
G01 X-95.9787 Y96.6609 
G01 X-96.0814 Y96.5072 
G01 X-96.1521 Y96.3365 
G01 X-96.1882 Y96.1552 
G01 X-96.1882 Y94.3448 
G01 X-96.1521 Y94.1635 
G01 X-96.0814 Y93.9928 
G01 X-95.9787 Y93.8391 
G01 X-95.8481 Y93.7085 
G01 X-95.6944 Y93.6058 
G01 X-95.5278 Y93.5368 
G01 X-95.5278 Y64.7334 
G01 X-95.5089 Y64.6628 
G01 X-95.4723 Y64.5994 
G01 X-95.4206 Y64.5477 
G01 X-94.2023 Y63.3294 
G01 X-94.1506 Y63.2777 
G01 X-90.9939 Y60.1210 
G01 X-91.0574 Y60.0576 
G01 X-91.0574 Y59.3224 
G01 X-90.5376 Y58.8026 
G01 X-90.0369 Y58.8026 
G01 X-89.1611 Y57.0509 
G01 X-89.1589 Y57.0428 
G01 X-89.1447 Y57.0183 
G01 X-89.1321 Y56.9930 
G01 X-89.1265 Y56.9867 
G01 X-89.1223 Y56.9794 
G01 X-89.1023 Y56.9595 
G01 X-89.0836 Y56.9383 
G01 X-89.0765 Y56.9337 
G01 X-89.0706 Y56.9277 
G01 X-89.0461 Y56.9136 
G01 X-89.0225 Y56.8980 
G01 X-89.0145 Y56.8954 
G01 X-89.0072 Y56.8911 
G01 X-88.9799 Y56.8838 
G01 X-88.9531 Y56.8749 
G01 X-88.9447 Y56.8744 
G01 X-88.9366 Y56.8722 
G01 X-88.9083 Y56.8722 
G01 X-88.8801 Y56.8705 
G01 X-88.8719 Y56.8722 
G01 X-74.8934 Y56.8722 
G01 X-74.8228 Y56.8911 
G01 X-74.7594 Y56.9277 
G01 X-74.7077 Y56.9794 
G01 X-74.6711 Y57.0428 
G01 X-74.6522 Y57.1134 
G01 X-74.6522 Y65.9249 
G01 X-72.2749 Y68.3022 
G01 X-54.0107 Y68.3022 
G01 X-56.4193 Y65.8935 
G01 X-56.5002 Y66.0145 
G01 X-56.6167 Y66.1310 
G01 X-56.7537 Y66.2226 
G01 X-56.9060 Y66.2856 
G01 X-57.0676 Y66.3178 
G01 X-57.2324 Y66.3178 
G01 X-57.3940 Y66.2856 
G01 X-57.5463 Y66.2226 
G01 X-57.6833 Y66.1310 
G01 X-57.7998 Y66.0145 
G01 X-57.8914 Y65.8775 
G01 X-57.9544 Y65.7252 
G01 X-57.9866 Y65.5636 
G01 X-57.9866 Y63.9764 
G01 X-57.9544 Y63.8148 
G01 X-57.8914 Y63.6625 
G01 X-57.7998 Y63.5255 
G01 X-57.6833 Y63.4090 
G01 X-57.5463 Y63.3174 
G01 X-57.4278 Y63.2683 
G01 X-57.4278 Y62.3451 
G01 X-60.8719 Y58.9010 
G01 X-61.0524 Y58.9010 
G01 X-61.2337 Y58.8649 
G01 X-61.4044 Y58.7942 
G01 X-61.5581 Y58.6915 
G01 X-61.6887 Y58.5609 
G01 X-61.7914 Y58.4072 
G01 X-61.8621 Y58.2365 
G01 X-61.8982 Y58.0552 
G01 X-61.8982 Y56.2448 
G01 X-61.8621 Y56.0635 
G01 X-61.7914 Y55.8928 
G01 X-61.6887 Y55.7391 
G01 X-61.5581 Y55.6085 
G01 X-61.4044 Y55.5058 
G01 X-61.2337 Y55.4351 
G01 X-61.0524 Y55.3990 
G01 X-60.8676 Y55.3990 
G01 X-60.6863 Y55.4351 
G01 X-60.5156 Y55.5058 
G01 X-60.3619 Y55.6085 
G01 X-60.2313 Y55.7391 
G00 Z2.5400  
G00 X-62.7713 Y55.7391 
G01 Z-0.1778 F500   
G01 X-62.6686 Y55.8928 F500   
G01 X-62.5979 Y56.0635 
G01 X-62.5618 Y56.2448 
G01 X-62.5618 Y58.0552 
G01 X-62.5979 Y58.2365 
G01 X-62.6686 Y58.4072 
G01 X-62.7713 Y58.5609 
G01 X-62.8688 Y58.6584 
G01 X-58.1977 Y63.3294 
G01 X-58.1611 Y63.3928 
G01 X-58.1422 Y63.4634 
G01 X-58.1422 Y66.0766 
G01 X-58.1611 Y66.1472 
G01 X-58.1977 Y66.2106 
G01 X-58.2494 Y66.2623 
G01 X-59.5194 Y67.5323 
G01 X-59.5828 Y67.5689 
G01 X-59.6534 Y67.5878 
G01 X-59.7266 Y67.5878 
G01 X-59.7972 Y67.5689 
G01 X-59.8606 Y67.5323 
G01 X-59.9123 Y67.4806 
G01 X-61.4993 Y65.8935 
G01 X-61.5802 Y66.0145 
G01 X-61.6967 Y66.1310 
G01 X-61.8337 Y66.2226 
G01 X-61.9860 Y66.2856 
G01 X-62.1476 Y66.3178 
G01 X-62.3124 Y66.3178 
G01 X-62.4740 Y66.2856 
G01 X-62.6263 Y66.2226 
G01 X-62.7633 Y66.1310 
G01 X-62.8798 Y66.0145 
G01 X-62.9714 Y65.8775 
G01 X-63.0344 Y65.7252 
G01 X-63.0666 Y65.5636 
G01 X-63.0666 Y63.9764 
G01 X-63.0344 Y63.8148 
G01 X-62.9714 Y63.6625 
G01 X-62.8798 Y63.5255 
G01 X-62.7633 Y63.4090 
G01 X-62.6263 Y63.3174 
G01 X-62.4740 Y63.2544 
G01 X-62.3124 Y63.2222 
G01 X-62.1476 Y63.2222 
G01 X-61.9860 Y63.2544 
G01 X-61.8337 Y63.3174 
G01 X-61.6967 Y63.4090 
G01 X-61.5802 Y63.5255 
G01 X-61.4886 Y63.6625 
G01 X-61.4256 Y63.8148 
G01 X-61.3934 Y63.9764 
G01 X-61.3934 Y65.2137 
G01 X-59.6900 Y66.9171 
G01 X-58.6978 Y65.9249 
G01 X-58.6978 Y63.6151 
G01 X-63.4119 Y58.9010 
G01 X-63.5924 Y58.9010 
G01 X-63.7737 Y58.8649 
G01 X-63.9444 Y58.7942 
G01 X-64.0981 Y58.6915 
G01 X-64.2287 Y58.5609 
G01 X-64.3314 Y58.4072 
G01 X-64.4021 Y58.2365 
G01 X-64.4382 Y58.0552 
G01 X-64.4382 Y56.2448 
G01 X-64.4021 Y56.0635 
G01 X-64.3314 Y55.8928 
G01 X-64.2287 Y55.7391 
G01 X-64.0981 Y55.6085 
G01 X-63.9444 Y55.5058 
G01 X-63.7737 Y55.4351 
G01 X-63.5924 Y55.3990 
G01 X-63.4076 Y55.3990 
G01 X-63.2263 Y55.4351 
G01 X-63.0556 Y55.5058 
G01 X-62.9019 Y55.6085 
G01 X-62.7713 Y55.7391 
G00 Z2.5400  
G00 X-69.1742 Y52.7811 
G01 Z-0.1778 F500   
G01 X-69.2203 Y52.8002 F500   
G01 X-69.5722 Y52.8002 
G01 X-69.5722 Y63.2683 
G01 X-69.4537 Y63.3174 
G01 X-69.3167 Y63.4090 
G01 X-69.2002 Y63.5255 
G01 X-69.1086 Y63.6625 
G01 X-69.0456 Y63.8148 
G01 X-69.0134 Y63.9764 
G01 X-69.0134 Y65.5636 
G01 X-69.0456 Y65.7252 
G01 X-69.1086 Y65.8775 
G01 X-69.2002 Y66.0145 
G01 X-69.3167 Y66.1310 
G01 X-69.4537 Y66.2226 
G01 X-69.6060 Y66.2856 
G01 X-69.7676 Y66.3178 
G01 X-69.9324 Y66.3178 
G01 X-70.0940 Y66.2856 
G01 X-70.2463 Y66.2226 
G01 X-70.3833 Y66.1310 
G01 X-70.4998 Y66.0145 
G01 X-70.5914 Y65.8775 
G01 X-70.6544 Y65.7252 
G01 X-70.6866 Y65.5636 
G01 X-70.6866 Y63.9764 
G01 X-70.6544 Y63.8148 
G01 X-70.5914 Y63.6625 
G01 X-70.4998 Y63.5255 
G01 X-70.3833 Y63.4090 
G01 X-70.2463 Y63.3174 
G01 X-70.1278 Y63.2683 
G01 X-70.1278 Y52.8002 
G01 X-70.4797 Y52.8002 
G01 X-70.5258 Y52.7811 
G01 X-70.5611 Y52.7458 
G01 X-70.5802 Y52.6997 
G01 X-70.5802 Y51.4403 
G01 X-70.5611 Y51.3942 
G01 X-70.5258 Y51.3589 
G01 X-70.4797 Y51.3398 
G01 X-69.2203 Y51.3398 
G01 X-69.1742 Y51.3589 
G01 X-69.1389 Y51.3942 
G01 X-69.1198 Y51.4403 
G01 X-69.1198 Y52.6997 
G01 X-69.1389 Y52.7458 
G01 X-69.1742 Y52.7811 
G00 Z2.5400  
G00 X-78.0289 Y59.0142 
G01 Z-0.1778 F500   
G01 X-78.0098 Y59.0603 F500   
G01 X-78.0098 Y60.3197 
G01 X-78.0289 Y60.3658 
G01 X-78.0642 Y60.4011 
G01 X-78.1103 Y60.4202 
G01 X-79.3697 Y60.4202 
G01 X-79.4158 Y60.4011 
G01 X-79.4511 Y60.3658 
G01 X-79.4702 Y60.3197 
G01 X-79.4702 Y59.9678 
G01 X-86.7426 Y59.9678 
G01 X-86.7426 Y60.0576 
G01 X-87.2624 Y60.5774 
G01 X-87.9976 Y60.5774 
G01 X-88.5174 Y60.0576 
G01 X-88.5174 Y59.3224 
G01 X-87.9976 Y58.8026 
G01 X-87.2624 Y58.8026 
G01 X-86.7426 Y59.3224 
G01 X-86.7426 Y59.4122 
G01 X-79.4702 Y59.4122 
G01 X-79.4702 Y59.0603 
G01 X-79.4511 Y59.0142 
G01 X-79.4158 Y58.9789 
G01 X-79.3697 Y58.9598 
G01 X-78.1103 Y58.9598 
G01 X-78.0642 Y58.9789 
G01 X-78.0289 Y59.0142 
G00 Z2.5400  
G00 X-77.4334 Y60.6822 
G01 Z-0.1778 F500   
G01 X-77.3628 Y60.7011 F500   
G01 X-77.2994 Y60.7377 
G01 X-77.2477 Y60.7894 
G01 X-77.2111 Y60.8528 
G01 X-77.1922 Y60.9234 
G01 X-77.1922 Y65.9249 
G01 X-73.5449 Y69.5722 
G01 X-69.8134 Y69.5722 
G01 X-69.7428 Y69.5911 
G01 X-69.6794 Y69.6277 
G01 X-69.6277 Y69.6794 
G01 X-68.0407 Y71.2665 
G01 X-67.9598 Y71.1455 
G01 X-67.8433 Y71.0290 
G01 X-67.7063 Y70.9374 
G01 X-67.5540 Y70.8744 
G01 X-67.3924 Y70.8422 
G01 X-67.2276 Y70.8422 
G01 X-67.0660 Y70.8744 
G01 X-66.9137 Y70.9374 
G01 X-66.7767 Y71.0290 
G01 X-66.6602 Y71.1455 
G01 X-66.5686 Y71.2825 
G01 X-66.5055 Y71.4348 
G01 X-66.4734 Y71.5964 
G01 X-66.4734 Y73.1836 
G01 X-66.5055 Y73.3452 
G01 X-66.5686 Y73.4975 
G01 X-66.6602 Y73.6345 
G01 X-66.7767 Y73.7510 
G01 X-66.9137 Y73.8426 
G01 X-67.0322 Y73.8917 
G01 X-67.0322 Y93.5368 
G01 X-66.8656 Y93.6058 
G01 X-66.7119 Y93.7085 
G01 X-66.5813 Y93.8391 
G01 X-66.4786 Y93.9928 
G01 X-66.4079 Y94.1635 
G01 X-66.3718 Y94.3448 
G01 X-66.3718 Y96.1552 
G01 X-66.4079 Y96.3365 
G01 X-66.4786 Y96.5072 
G01 X-66.5813 Y96.6609 
G01 X-66.7119 Y96.7915 
G01 X-66.8656 Y96.8942 
G01 X-67.0363 Y96.9649 
G01 X-67.2176 Y97.0010 
G01 X-67.4024 Y97.0010 
G01 X-67.5837 Y96.9649 
G01 X-67.7544 Y96.8942 
G01 X-67.9081 Y96.7915 
G01 X-68.0387 Y96.6609 
G01 X-68.1414 Y96.5072 
G01 X-68.2121 Y96.3365 
G01 X-68.2482 Y96.1552 
G01 X-68.2482 Y94.3448 
G01 X-68.2121 Y94.1635 
G01 X-68.1414 Y93.9928 
G01 X-68.0387 Y93.8391 
G01 X-67.9081 Y93.7085 
G01 X-67.7544 Y93.6058 
G01 X-67.5878 Y93.5368 
G01 X-67.5878 Y73.8917 
G01 X-67.7063 Y73.8426 
G01 X-67.8433 Y73.7510 
G01 X-67.9598 Y73.6345 
G01 X-68.0514 Y73.4975 
G01 X-68.1144 Y73.3452 
G01 X-68.1466 Y73.1836 
G01 X-68.1466 Y71.9463 
G01 X-69.9651 Y70.1278 
G01 X-73.6966 Y70.1278 
G01 X-73.7672 Y70.1089 
G01 X-73.8306 Y70.0723 
G01 X-77.6923 Y66.2106 
G01 X-77.7289 Y66.1472 
G01 X-77.7478 Y66.0766 
G01 X-77.7478 Y61.2378 
G01 X-88.7849 Y61.2378 
G01 X-89.3461 Y61.7989 
G01 X-89.2826 Y61.8624 
G01 X-89.2826 Y62.5976 
G01 X-89.8024 Y63.1174 
G01 X-90.5376 Y63.1174 
G01 X-91.0574 Y62.5976 
G01 X-91.0574 Y61.8624 
G01 X-90.5376 Y61.3426 
G01 X-89.8024 Y61.3426 
G01 X-89.7390 Y61.4061 
G01 X-89.0706 Y60.7377 
G01 X-89.0072 Y60.7011 
G01 X-88.9366 Y60.6822 
G01 X-77.4334 Y60.6822 
G00 Z2.5400  
G00 X-79.2989 Y62.8242 
G01 Z-0.1778 F500   
G01 X-79.2798 Y62.8703 F500   
G01 X-79.2798 Y64.1297 
G01 X-79.2989 Y64.1758 
G01 X-79.3342 Y64.2111 
G01 X-79.3803 Y64.2302 
G01 X-80.6397 Y64.2302 
G01 X-80.6858 Y64.2111 
G01 X-80.7211 Y64.1758 
G01 X-80.7402 Y64.1297 
G01 X-80.7402 Y63.1627 
G01 X-81.3951 Y62.5078 
G01 X-86.7426 Y62.5078 
G01 X-86.7426 Y62.5976 
G01 X-87.2624 Y63.1174 
G01 X-87.9976 Y63.1174 
G01 X-88.5174 Y62.5976 
G01 X-88.5174 Y61.8624 
G01 X-87.9976 Y61.3426 
G01 X-87.2624 Y61.3426 
G01 X-86.7426 Y61.8624 
G01 X-86.7426 Y61.9522 
G01 X-81.2434 Y61.9522 
G01 X-81.1728 Y61.9711 
G01 X-81.1094 Y62.0077 
G01 X-80.3473 Y62.7698 
G01 X-79.3803 Y62.7698 
G01 X-79.3342 Y62.7889 
G01 X-79.2989 Y62.8242 
G00 Z2.5400  
G00 X-82.3794 Y64.5477 
G01 Z-0.1778 F500   
G01 X-73.4894 Y73.4377 F500   
G01 X-73.4377 Y73.4894 
G01 X-73.4011 Y73.5528 
G01 X-73.3822 Y73.6234 
G01 X-73.3822 Y81.8198 
G01 X-73.0303 Y81.8198 
G01 X-72.9842 Y81.8389 
G01 X-72.9489 Y81.8742 
G01 X-72.9298 Y81.9203 
G01 X-72.9298 Y83.1797 
G01 X-72.9489 Y83.2258 
G01 X-72.9842 Y83.2611 
G01 X-73.0303 Y83.2802 
G01 X-74.2897 Y83.2802 
G01 X-74.3358 Y83.2611 
G01 X-74.3711 Y83.2258 
G01 X-74.3902 Y83.1797 
G01 X-74.3902 Y81.9203 
G01 X-74.3711 Y81.8742 
G01 X-74.3358 Y81.8389 
G01 X-74.2897 Y81.8198 
G01 X-73.9378 Y81.8198 
G01 X-73.9378 Y73.7751 
G01 X-82.6651 Y65.0478 
G01 X-86.7426 Y65.0478 
G01 X-86.7426 Y65.1376 
G01 X-87.2624 Y65.6574 
G01 X-87.9976 Y65.6574 
G01 X-88.5174 Y65.1376 
G01 X-88.5174 Y64.4024 
G01 X-87.9976 Y63.8826 
G01 X-87.2624 Y63.8826 
G01 X-86.7426 Y64.4024 
G01 X-86.7426 Y64.4922 
G01 X-82.5134 Y64.4922 
G01 X-82.4428 Y64.5111 
G01 X-82.3794 Y64.5477 
G00 Z2.5400  
G00 X-84.8185 Y74.3319 
G01 Z-0.1778 F500   
G01 X-84.7158 Y74.4856 F500   
G01 X-84.6451 Y74.6563 
G01 X-84.6090 Y74.8376 
G01 X-84.6090 Y75.0224 
G01 X-84.6451 Y75.2037 
G01 X-84.7158 Y75.3744 
G01 X-84.8185 Y75.5281 
G01 X-84.9491 Y75.6587 
G01 X-85.1028 Y75.7614 
G01 X-85.1261 Y75.7711 
G01 X-82.3794 Y78.5177 
G01 X-82.3277 Y78.5694 
G01 X-80.4051 Y80.4920 
G01 X-80.3565 Y80.4434 
G01 X-79.6635 Y80.4434 
G01 X-79.1734 Y80.9335 
G01 X-79.1734 Y81.6265 
G01 X-79.6635 Y82.1166 
G01 X-80.3565 Y82.1166 
G01 X-80.8466 Y81.6265 
G01 X-80.8466 Y80.9335 
G01 X-80.7980 Y80.8849 
G01 X-82.5500 Y79.1329 
G01 X-88.9869 Y85.5697 
G01 X-88.7746 Y85.7820 
G01 X-88.7746 Y86.9380 
G01 X-89.5920 Y87.7554 
G01 X-90.7480 Y87.7554 
G01 X-91.5654 Y86.9380 
G01 X-91.5654 Y85.7820 
G01 X-90.7480 Y84.9646 
G01 X-89.5920 Y84.9646 
G01 X-89.3797 Y85.1769 
G01 X-82.9429 Y78.7400 
G01 X-85.8147 Y75.8682 
G01 X-87.2652 Y75.8682 
G01 X-87.4465 Y75.8321 
G01 X-87.6172 Y75.7614 
G01 X-87.7709 Y75.6587 
G01 X-87.9015 Y75.5281 
G01 X-88.0042 Y75.3744 
G01 X-88.0749 Y75.2037 
G01 X-88.1110 Y75.0224 
G01 X-88.1110 Y74.8376 
G01 X-88.0749 Y74.6563 
G01 X-88.0042 Y74.4856 
G01 X-87.9015 Y74.3319 
G01 X-87.7709 Y74.2013 
G01 X-87.6172 Y74.0986 
G01 X-87.4465 Y74.0279 
G01 X-87.2652 Y73.9918 
G01 X-85.4548 Y73.9918 
G01 X-85.2735 Y74.0279 
G01 X-85.1028 Y74.0986 
G01 X-84.9491 Y74.2013 
G01 X-84.8185 Y74.3319 
G00 Z2.5400  
G00 X-78.0681 Y74.6585 
G01 Z-0.1778 F500   
G01 X-77.9144 Y74.5558 F500   
G01 X-77.7437 Y74.4851 
G01 X-77.5624 Y74.4490 
G01 X-77.3776 Y74.4490 
G01 X-77.1963 Y74.4851 
G01 X-77.0256 Y74.5558 
G01 X-76.8719 Y74.6585 
G01 X-76.7413 Y74.7891 
G01 X-76.6386 Y74.9428 
G01 X-76.5679 Y75.1135 
G01 X-76.5318 Y75.2948 
G01 X-76.5318 Y77.1052 
G01 X-76.5679 Y77.2865 
G01 X-76.6386 Y77.4572 
G01 X-76.7413 Y77.6109 
G01 X-76.8719 Y77.7415 
G01 X-77.0256 Y77.8442 
G01 X-77.1922 Y77.9132 
G01 X-77.1922 Y84.3598 
G01 X-76.8403 Y84.3598 
G01 X-76.7942 Y84.3789 
G01 X-76.7589 Y84.4142 
G01 X-76.7398 Y84.4603 
G01 X-76.7398 Y85.7197 
G01 X-76.7589 Y85.7658 
G01 X-76.7942 Y85.8011 
G01 X-76.8403 Y85.8202 
G01 X-78.0997 Y85.8202 
G01 X-78.1458 Y85.8011 
G01 X-78.1811 Y85.7658 
G01 X-78.2002 Y85.7197 
G01 X-78.2002 Y84.4603 
G01 X-78.1811 Y84.4142 
G01 X-78.1458 Y84.3789 
G01 X-78.0997 Y84.3598 
G01 X-77.7478 Y84.3598 
G01 X-77.7478 Y83.3759 
G01 X-77.7585 Y83.3866 
G01 X-78.4515 Y83.3866 
G01 X-78.9416 Y82.8965 
G01 X-78.9416 Y82.2035 
G01 X-78.4515 Y81.7134 
G01 X-77.7585 Y81.7134 
G01 X-77.7478 Y81.7241 
G01 X-77.7478 Y77.9132 
G01 X-77.9144 Y77.8442 
G01 X-78.0681 Y77.7415 
G01 X-78.1987 Y77.6109 
G01 X-78.3014 Y77.4572 
G01 X-78.3721 Y77.2865 
G01 X-78.4082 Y77.1052 
G01 X-78.4082 Y75.2948 
G01 X-78.3721 Y75.1135 
G01 X-78.3014 Y74.9428 
G01 X-78.1987 Y74.7891 
G01 X-78.0681 Y74.6585 
G00 Z2.5400  
G00 X-73.0398 Y73.6345 
G01 Z-0.1778 F500   
G01 X-73.1314 Y73.4975 F500   
G01 X-73.1944 Y73.3452 
G01 X-73.2266 Y73.1836 
G01 X-73.2266 Y71.5964 
G01 X-73.1944 Y71.4348 
G01 X-73.1314 Y71.2825 
G01 X-73.0398 Y71.1455 
G01 X-72.9233 Y71.0290 
G01 X-72.7863 Y70.9374 
G01 X-72.6340 Y70.8744 
G01 X-72.4724 Y70.8422 
G01 X-72.3076 Y70.8422 
G01 X-72.1460 Y70.8744 
G01 X-71.9937 Y70.9374 
G01 X-71.8567 Y71.0290 
G01 X-71.7402 Y71.1455 
G01 X-71.6486 Y71.2825 
G01 X-71.5855 Y71.4348 
G01 X-71.5534 Y71.5964 
G01 X-71.5534 Y73.1836 
G01 X-71.5855 Y73.3452 
G01 X-71.6486 Y73.4975 
G01 X-71.7402 Y73.6345 
G01 X-71.8567 Y73.7510 
G01 X-71.9937 Y73.8426 
G01 X-72.1122 Y73.8917 
G01 X-72.1122 Y79.2798 
G01 X-71.7603 Y79.2798 
G01 X-71.7142 Y79.2989 
G01 X-71.6789 Y79.3342 
G01 X-71.6598 Y79.3803 
G01 X-71.6598 Y80.6397 
G01 X-71.6789 Y80.6858 
G01 X-71.7142 Y80.7211 
G01 X-71.7603 Y80.7402 
G01 X-73.0197 Y80.7402 
G01 X-73.0658 Y80.7211 
G01 X-73.1011 Y80.6858 
G01 X-73.1202 Y80.6397 
G01 X-73.1202 Y79.3803 
G01 X-73.1011 Y79.3342 
G01 X-73.0658 Y79.2989 
G01 X-73.0197 Y79.2798 
G01 X-72.6678 Y79.2798 
G01 X-72.6678 Y73.8917 
G01 X-72.7863 Y73.8426 
G01 X-72.9233 Y73.7510 
G01 X-73.0398 Y73.6345 
G00 Z2.5400  
G00 X-70.4998 Y73.6345 
G01 Z-0.1778 F500   
G01 X-70.5914 Y73.4975 F500   
G01 X-70.6544 Y73.3452 
G01 X-70.6866 Y73.1836 
G01 X-70.6866 Y71.5964 
G01 X-70.6544 Y71.4348 
G01 X-70.5914 Y71.2825 
G01 X-70.4998 Y71.1455 
G01 X-70.3833 Y71.0290 
G01 X-70.2463 Y70.9374 
G01 X-70.0940 Y70.8744 
G01 X-69.9324 Y70.8422 
G01 X-69.7676 Y70.8422 
G01 X-69.6060 Y70.8744 
G01 X-69.4537 Y70.9374 
G01 X-69.3167 Y71.0290 
G01 X-69.2002 Y71.1455 
G01 X-69.1086 Y71.2825 
G01 X-69.0456 Y71.4348 
G01 X-69.0134 Y71.5964 
G01 X-69.0134 Y73.1836 
G01 X-69.0456 Y73.3452 
G01 X-69.1086 Y73.4975 
G01 X-69.2002 Y73.6345 
G01 X-69.3167 Y73.7510 
G01 X-69.4537 Y73.8426 
G01 X-69.5722 Y73.8917 
G01 X-69.5722 Y89.4398 
G01 X-69.2203 Y89.4398 
G01 X-69.1742 Y89.4589 
G01 X-69.1389 Y89.4942 
G01 X-69.1198 Y89.5403 
G01 X-69.1198 Y90.7997 
G01 X-69.1389 Y90.8458 
G01 X-69.1742 Y90.8811 
G01 X-69.2203 Y90.9002 
G01 X-70.4797 Y90.9002 
G01 X-70.5258 Y90.8811 
G01 X-70.5611 Y90.8458 
G01 X-70.5802 Y90.7997 
G01 X-70.5802 Y89.5403 
G01 X-70.5611 Y89.4942 
G01 X-70.5258 Y89.4589 
G01 X-70.4797 Y89.4398 
G01 X-70.1278 Y89.4398 
G01 X-70.1278 Y73.8917 
G01 X-70.2463 Y73.8426 
G01 X-70.3833 Y73.7510 
G01 X-70.4998 Y73.6345 
G00 Z2.5400  
G00 X-65.4198 Y73.6345 
G01 Z-0.1778 F500   
G01 X-65.5114 Y73.4975 F500   
G01 X-65.5744 Y73.3452 
G01 X-65.6066 Y73.1836 
G01 X-65.6066 Y71.5964 
G01 X-65.5744 Y71.4348 
G01 X-65.5114 Y71.2825 
G01 X-65.4198 Y71.1455 
G01 X-65.3033 Y71.0290 
G01 X-65.1663 Y70.9374 
G01 X-65.0140 Y70.8744 
G01 X-64.8524 Y70.8422 
G01 X-64.6876 Y70.8422 
G01 X-64.5260 Y70.8744 
G01 X-64.3737 Y70.9374 
G01 X-64.2367 Y71.0290 
G01 X-64.1202 Y71.1455 
G01 X-64.0286 Y71.2825 
G01 X-63.9656 Y71.4348 
G01 X-63.9334 Y71.5964 
G01 X-63.9334 Y73.1836 
G01 X-63.9656 Y73.3452 
G01 X-64.0286 Y73.4975 
G01 X-64.1202 Y73.6345 
G01 X-64.2367 Y73.7510 
G01 X-64.3737 Y73.8426 
G01 X-64.4922 Y73.8917 
G01 X-64.4922 Y81.8198 
G01 X-64.1403 Y81.8198 
G01 X-64.0942 Y81.8389 
G01 X-64.0589 Y81.8742 
G01 X-64.0398 Y81.9203 
G01 X-64.0398 Y83.1797 
G01 X-64.0589 Y83.2258 
G01 X-64.0942 Y83.2611 
G01 X-64.1403 Y83.2802 
G01 X-64.4922 Y83.2802 
G01 X-64.4922 Y93.5368 
G01 X-64.3256 Y93.6058 
G01 X-64.1719 Y93.7085 
G01 X-64.0413 Y93.8391 
G01 X-63.9386 Y93.9928 
G01 X-63.8679 Y94.1635 
G01 X-63.8318 Y94.3448 
G01 X-63.8318 Y96.1552 
G01 X-63.8679 Y96.3365 
G01 X-63.9386 Y96.5072 
G01 X-64.0413 Y96.6609 
G01 X-64.1719 Y96.7915 
G01 X-64.3256 Y96.8942 
G01 X-64.4963 Y96.9649 
G01 X-64.6776 Y97.0010 
G01 X-64.8624 Y97.0010 
G01 X-65.0437 Y96.9649 
G01 X-65.2144 Y96.8942 
G01 X-65.3681 Y96.7915 
G01 X-65.4987 Y96.6609 
G01 X-65.6014 Y96.5072 
G01 X-65.6721 Y96.3365 
G01 X-65.7082 Y96.1552 
G01 X-65.7082 Y94.3448 
G01 X-65.6721 Y94.1635 
G01 X-65.6014 Y93.9928 
G01 X-65.4987 Y93.8391 
G01 X-65.3681 Y93.7085 
G01 X-65.2144 Y93.6058 
G01 X-65.0478 Y93.5368 
G01 X-65.0478 Y83.2802 
G01 X-65.3997 Y83.2802 
G01 X-65.4458 Y83.2611 
G01 X-65.4811 Y83.2258 
G01 X-65.5002 Y83.1797 
G01 X-65.5002 Y81.9203 
G01 X-65.4811 Y81.8742 
G01 X-65.4458 Y81.8389 
G01 X-65.3997 Y81.8198 
G01 X-65.0478 Y81.8198 
G01 X-65.0478 Y73.8917 
G01 X-65.1663 Y73.8426 
G01 X-65.3033 Y73.7510 
G01 X-65.4198 Y73.6345 
G00 Z2.5400  
G00 X-62.8798 Y73.6345 
G01 Z-0.1778 F500   
G01 X-62.9714 Y73.4975 F500   
G01 X-63.0344 Y73.3452 
G01 X-63.0666 Y73.1836 
G01 X-63.0666 Y71.5964 
G01 X-63.0344 Y71.4348 
G01 X-62.9714 Y71.2825 
G01 X-62.8798 Y71.1455 
G01 X-62.7633 Y71.0290 
G01 X-62.6263 Y70.9374 
G01 X-62.4740 Y70.8744 
G01 X-62.3124 Y70.8422 
G01 X-62.1476 Y70.8422 
G01 X-61.9860 Y70.8744 
G01 X-61.8337 Y70.9374 
G01 X-61.6967 Y71.0290 
G01 X-61.5802 Y71.1455 
G01 X-61.4886 Y71.2825 
G01 X-61.4256 Y71.4348 
G01 X-61.3934 Y71.5964 
G01 X-61.3934 Y73.1836 
G01 X-61.4256 Y73.3452 
G01 X-61.4886 Y73.4975 
G01 X-61.5802 Y73.6345 
G01 X-61.6967 Y73.7510 
G01 X-61.8337 Y73.8426 
G01 X-61.9522 Y73.8917 
G01 X-61.9522 Y76.7398 
G01 X-61.6003 Y76.7398 
G01 X-61.5542 Y76.7589 
G01 X-61.5189 Y76.7942 
G01 X-61.4998 Y76.8403 
G01 X-61.4998 Y78.0997 
G01 X-61.5189 Y78.1458 
G01 X-61.5542 Y78.1811 
G01 X-61.6003 Y78.2002 
G01 X-61.9522 Y78.2002 
G01 X-61.9522 Y93.5368 
G01 X-61.7856 Y93.6058 
G01 X-61.6319 Y93.7085 
G01 X-61.5013 Y93.8391 
G01 X-61.3986 Y93.9928 
G01 X-61.3279 Y94.1635 
G01 X-61.2918 Y94.3448 
G01 X-61.2918 Y96.1552 
G01 X-61.3279 Y96.3365 
G01 X-61.3986 Y96.5072 
G01 X-61.5013 Y96.6609 
G01 X-61.6319 Y96.7915 
G01 X-61.7856 Y96.8942 
G01 X-61.9563 Y96.9649 
G01 X-62.1376 Y97.0010 
G01 X-62.3224 Y97.0010 
G01 X-62.5037 Y96.9649 
G01 X-62.6744 Y96.8942 
G01 X-62.8281 Y96.7915 
G01 X-62.9587 Y96.6609 
G01 X-63.0614 Y96.5072 
G01 X-63.1321 Y96.3365 
G01 X-63.1682 Y96.1552 
G01 X-63.1682 Y94.3448 
G01 X-63.1321 Y94.1635 
G01 X-63.0614 Y93.9928 
G01 X-62.9587 Y93.8391 
G01 X-62.8281 Y93.7085 
G01 X-62.6744 Y93.6058 
G01 X-62.5078 Y93.5368 
G01 X-62.5078 Y78.2002 
G01 X-62.8597 Y78.2002 
G01 X-62.9058 Y78.1811 
G01 X-62.9411 Y78.1458 
G01 X-62.9602 Y78.0997 
G01 X-62.9602 Y76.8403 
G01 X-62.9411 Y76.7942 
G01 X-62.9058 Y76.7589 
G01 X-62.8597 Y76.7398 
G01 X-62.5078 Y76.7398 
G01 X-62.5078 Y73.8917 
G01 X-62.6263 Y73.8426 
G01 X-62.7633 Y73.7510 
G01 X-62.8798 Y73.6345 
G00 Z2.5400  
G00 X-63.2222 Y71.2351 
G01 Z-0.1778 F500   
G01 X-63.2222 Y84.3598 F500   
G01 X-62.8703 Y84.3598 
G01 X-62.8242 Y84.3789 
G01 X-62.7889 Y84.4142 
G01 X-62.7698 Y84.4603 
G01 X-62.7698 Y85.7197 
G01 X-62.7889 Y85.7658 
G01 X-62.8242 Y85.8011 
G01 X-62.8703 Y85.8202 
G01 X-64.1297 Y85.8202 
G01 X-64.1758 Y85.8011 
G01 X-64.2111 Y85.7658 
G01 X-64.2302 Y85.7197 
G01 X-64.2302 Y84.4603 
G01 X-64.2111 Y84.4142 
G01 X-64.1758 Y84.3789 
G01 X-64.1297 Y84.3598 
G01 X-63.7778 Y84.3598 
G01 X-63.7778 Y71.0834 
G01 X-63.7589 Y71.0128 
G01 X-63.7223 Y70.9494 
G01 X-63.6706 Y70.8977 
G01 X-62.4006 Y69.6277 
G01 X-62.3372 Y69.5911 
G01 X-62.2666 Y69.5722 
G01 X-49.4934 Y69.5722 
G01 X-49.4228 Y69.5911 
G01 X-49.3594 Y69.6277 
G01 X-49.3077 Y69.6794 
G01 X-49.2711 Y69.7428 
G01 X-49.2522 Y69.8134 
G01 X-49.2522 Y70.8883 
G01 X-49.1337 Y70.9374 
G01 X-48.9967 Y71.0290 
G01 X-48.8802 Y71.1455 
G01 X-48.7886 Y71.2825 
G01 X-48.7255 Y71.4348 
G01 X-48.6934 Y71.5964 
G01 X-48.6934 Y73.1836 
G01 X-48.7255 Y73.3452 
G01 X-48.7886 Y73.4975 
G01 X-48.8802 Y73.6345 
G01 X-48.9967 Y73.7510 
G01 X-49.1337 Y73.8426 
G01 X-49.2860 Y73.9056 
G01 X-49.4476 Y73.9378 
G01 X-49.6124 Y73.9378 
G01 X-49.7740 Y73.9056 
G01 X-49.9263 Y73.8426 
G01 X-50.0633 Y73.7510 
G01 X-50.1798 Y73.6345 
G01 X-50.2714 Y73.4975 
G01 X-50.3344 Y73.3452 
G01 X-50.3666 Y73.1836 
G01 X-50.3666 Y71.5964 
G01 X-50.3344 Y71.4348 
G01 X-50.2714 Y71.2825 
G01 X-50.1798 Y71.1455 
G01 X-50.0633 Y71.0290 
G01 X-49.9263 Y70.9374 
G01 X-49.8078 Y70.8883 
G01 X-49.8078 Y70.1278 
G01 X-62.1149 Y70.1278 
G01 X-63.2222 Y71.2351 
G00 Z2.5400  
G00 X-59.0958 Y74.2189 
G01 Z-0.1778 F500   
G01 X-59.0497 Y74.1998 F500   
G01 X-57.7903 Y74.1998 
G01 X-57.7442 Y74.2189 
G01 X-57.7089 Y74.2542 
G01 X-57.6898 Y74.3003 
G01 X-57.6898 Y75.5597 
G01 X-57.7089 Y75.6058 
G01 X-57.7442 Y75.6411 
G01 X-57.7903 Y75.6602 
G01 X-58.1422 Y75.6602 
G01 X-58.1422 Y86.8998 
G01 X-57.7903 Y86.8998 
G01 X-57.7442 Y86.9189 
G01 X-57.7089 Y86.9542 
G01 X-57.6898 Y87.0003 
G01 X-57.6898 Y88.2597 
G01 X-57.7089 Y88.3058 
G01 X-57.7442 Y88.3411 
G01 X-57.7903 Y88.3602 
G01 X-59.0497 Y88.3602 
G01 X-59.0958 Y88.3411 
G01 X-59.1311 Y88.3058 
G01 X-59.1502 Y88.2597 
G01 X-59.1502 Y87.0003 
G01 X-59.1311 Y86.9542 
G01 X-59.0958 Y86.9189 
G01 X-59.0497 Y86.8998 
G01 X-58.6978 Y86.8998 
G01 X-58.6978 Y75.6602 
G01 X-59.0497 Y75.6602 
G01 X-59.0958 Y75.6411 
G01 X-59.1311 Y75.6058 
G01 X-59.1502 Y75.5597 
G01 X-59.1502 Y74.3003 
G01 X-59.1311 Y74.2542 
G01 X-59.0958 Y74.2189 
G00 Z2.5400  
G00 X-52.7458 Y74.2189 
G01 Z-0.1778 F500   
G01 X-52.6997 Y74.1998 F500   
G01 X-52.3478 Y74.1998 
G01 X-52.3478 Y73.8917 
G01 X-52.4663 Y73.8426 
G01 X-52.6033 Y73.7510 
G01 X-52.7198 Y73.6345 
G01 X-52.8114 Y73.4975 
G01 X-52.8744 Y73.3452 
G01 X-52.9066 Y73.1836 
G01 X-52.9066 Y71.5964 
G01 X-52.8744 Y71.4348 
G01 X-52.8114 Y71.2825 
G01 X-52.7198 Y71.1455 
G01 X-52.6033 Y71.0290 
G01 X-52.4663 Y70.9374 
G01 X-52.3140 Y70.8744 
G01 X-52.1524 Y70.8422 
G01 X-51.9876 Y70.8422 
G01 X-51.8260 Y70.8744 
G01 X-51.6737 Y70.9374 
G01 X-51.5367 Y71.0290 
G01 X-51.4202 Y71.1455 
G01 X-51.3286 Y71.2825 
G01 X-51.2655 Y71.4348 
G01 X-51.2334 Y71.5964 
G01 X-51.2334 Y73.1836 
G01 X-51.2655 Y73.3452 
G01 X-51.3286 Y73.4975 
G01 X-51.4202 Y73.6345 
G01 X-51.5367 Y73.7510 
G01 X-51.6737 Y73.8426 
G01 X-51.7922 Y73.8917 
G01 X-51.7922 Y74.1998 
G01 X-51.4403 Y74.1998 
G01 X-51.3942 Y74.2189 
G01 X-51.3589 Y74.2542 
G01 X-51.3398 Y74.3003 
G01 X-51.3398 Y75.5597 
G01 X-51.3589 Y75.6058 
G01 X-51.3942 Y75.6411 
G01 X-51.4403 Y75.6602 
G01 X-52.6997 Y75.6602 
G01 X-52.7458 Y75.6411 
G01 X-52.7811 Y75.6058 
G01 X-52.8002 Y75.5597 
G01 X-52.8002 Y74.3003 
G01 X-52.7811 Y74.2542 
G01 X-52.7458 Y74.2189 
G00 Z2.5400  
G00 X-47.6398 Y73.6345 
G01 Z-0.1778 F500   
G01 X-47.7314 Y73.4975 F500   
G01 X-47.7944 Y73.3452 
G01 X-47.8266 Y73.1836 
G01 X-47.8266 Y71.5964 
G01 X-47.7944 Y71.4348 
G01 X-47.7314 Y71.2825 
G01 X-47.6398 Y71.1455 
G01 X-47.5233 Y71.0290 
G01 X-47.3863 Y70.9374 
G01 X-47.2340 Y70.8744 
G01 X-47.0724 Y70.8422 
G01 X-46.9076 Y70.8422 
G01 X-46.7460 Y70.8744 
G01 X-46.5937 Y70.9374 
G01 X-46.4567 Y71.0290 
G01 X-46.3402 Y71.1455 
G01 X-46.2486 Y71.2825 
G01 X-46.1855 Y71.4348 
G01 X-46.1534 Y71.5964 
G01 X-46.1534 Y73.1836 
G01 X-46.1855 Y73.3452 
G01 X-46.2486 Y73.4975 
G01 X-46.3402 Y73.6345 
G01 X-46.4567 Y73.7510 
G01 X-46.5937 Y73.8426 
G01 X-46.7122 Y73.8917 
G01 X-46.7122 Y91.9798 
G01 X-46.3603 Y91.9798 
G01 X-46.3142 Y91.9989 
G01 X-46.2789 Y92.0342 
G01 X-46.2598 Y92.0803 
G01 X-46.2598 Y93.3397 
G01 X-46.2789 Y93.3858 
G01 X-46.3142 Y93.4211 
G01 X-46.3603 Y93.4402 
G01 X-47.6197 Y93.4402 
G01 X-47.6658 Y93.4211 
G01 X-47.7011 Y93.3858 
G01 X-47.7202 Y93.3397 
G01 X-47.7202 Y92.0803 
G01 X-47.7011 Y92.0342 
G01 X-47.6658 Y91.9989 
G01 X-47.6197 Y91.9798 
G01 X-47.2678 Y91.9798 
G01 X-47.2678 Y73.8917 
G01 X-47.3863 Y73.8426 
G01 X-47.5233 Y73.7510 
G01 X-47.6398 Y73.6345 
G00 Z2.5400  
G00 X-45.0998 Y73.6345 
G01 Z-0.1778 F500   
G01 X-45.1914 Y73.4975 F500   
G01 X-45.2544 Y73.3452 
G01 X-45.2866 Y73.1836 
G01 X-45.2866 Y71.5964 
G01 X-45.2544 Y71.4348 
G01 X-45.1914 Y71.2825 
G01 X-45.0998 Y71.1455 
G01 X-44.9833 Y71.0290 
G01 X-44.8463 Y70.9374 
G01 X-44.6940 Y70.8744 
G01 X-44.5324 Y70.8422 
G01 X-44.3676 Y70.8422 
G01 X-44.2060 Y70.8744 
G01 X-44.0537 Y70.9374 
G01 X-43.9167 Y71.0290 
G01 X-43.8002 Y71.1455 
G01 X-43.7086 Y71.2825 
G01 X-43.6456 Y71.4348 
G01 X-43.6134 Y71.5964 
G01 X-43.6134 Y73.1836 
G01 X-43.6456 Y73.3452 
G01 X-43.7086 Y73.4975 
G01 X-43.8002 Y73.6345 
G01 X-43.9167 Y73.7510 
G01 X-44.0537 Y73.8426 
G01 X-44.1722 Y73.8917 
G01 X-44.1722 Y90.7098 
G01 X-43.8203 Y90.7098 
G01 X-43.7742 Y90.7289 
G01 X-43.7389 Y90.7642 
G01 X-43.7198 Y90.8103 
G01 X-43.7198 Y92.0697 
G01 X-43.7389 Y92.1158 
G01 X-43.7742 Y92.1511 
G01 X-43.8203 Y92.1702 
G01 X-45.0797 Y92.1702 
G01 X-45.1258 Y92.1511 
G01 X-45.1611 Y92.1158 
G01 X-45.1802 Y92.0697 
G01 X-45.1802 Y90.8103 
G01 X-45.1611 Y90.7642 
G01 X-45.1258 Y90.7289 
G01 X-45.0797 Y90.7098 
G01 X-44.7278 Y90.7098 
G01 X-44.7278 Y73.8917 
G01 X-44.8463 Y73.8426 
G01 X-44.9833 Y73.7510 
G01 X-45.0998 Y73.6345 
G00 Z2.5400  
G00 X-42.5598 Y73.6345 
G01 Z-0.1778 F500   
G01 X-42.6514 Y73.4975 F500   
G01 X-42.7144 Y73.3452 
G01 X-42.7466 Y73.1836 
G01 X-42.7466 Y71.5964 
G01 X-42.7144 Y71.4348 
G01 X-42.6514 Y71.2825 
G01 X-42.5598 Y71.1455 
G01 X-42.4433 Y71.0290 
G01 X-42.3063 Y70.9374 
G01 X-42.1540 Y70.8744 
G01 X-41.9924 Y70.8422 
G01 X-41.8276 Y70.8422 
G01 X-41.6660 Y70.8744 
G01 X-41.5137 Y70.9374 
G01 X-41.3767 Y71.0290 
G01 X-41.2602 Y71.1455 
G01 X-41.1686 Y71.2825 
G01 X-41.1056 Y71.4348 
G01 X-41.0734 Y71.5964 
G01 X-41.0734 Y72.8337 
G01 X-31.9884 Y81.9188 
G01 X-31.8909 Y81.8213 
G01 X-31.7372 Y81.7186 
G01 X-31.5665 Y81.6479 
G01 X-31.3852 Y81.6118 
G01 X-29.5748 Y81.6118 
G01 X-29.3935 Y81.6479 
G01 X-29.2228 Y81.7186 
G01 X-29.0691 Y81.8213 
G01 X-28.9385 Y81.9519 
G01 X-28.8358 Y82.1056 
G01 X-28.7651 Y82.2763 
G01 X-28.7290 Y82.4576 
G01 X-28.7290 Y82.6424 
G01 X-28.7651 Y82.8237 
G01 X-28.8358 Y82.9944 
G01 X-28.9385 Y83.1481 
G01 X-29.0691 Y83.2787 
G01 X-29.2228 Y83.3814 
G01 X-29.3935 Y83.4521 
G01 X-29.5748 Y83.4882 
G01 X-31.3852 Y83.4882 
G01 X-31.5665 Y83.4521 
G01 X-31.7372 Y83.3814 
G01 X-31.8909 Y83.2787 
G01 X-32.0215 Y83.1481 
G01 X-32.1242 Y82.9944 
G01 X-32.1949 Y82.8237 
G01 X-32.2310 Y82.6424 
G01 X-32.2310 Y82.4619 
G01 X-41.1793 Y73.5135 
G01 X-41.2602 Y73.6345 
G01 X-41.3767 Y73.7510 
G01 X-41.5137 Y73.8426 
G01 X-41.6660 Y73.9056 
G01 X-41.8276 Y73.9378 
G01 X-41.9924 Y73.9378 
G01 X-42.1540 Y73.9056 
G01 X-42.3063 Y73.8426 
G01 X-42.4433 Y73.7510 
G01 X-42.5598 Y73.6345 
G00 Z2.5400  
G00 X-40.0198 Y73.6345 
G01 Z-0.1778 F500   
G01 X-40.1114 Y73.4975 F500   
G01 X-40.1744 Y73.3452 
G01 X-40.2066 Y73.1836 
G01 X-40.2066 Y71.5964 
G01 X-40.1744 Y71.4348 
G01 X-40.1114 Y71.2825 
G01 X-40.0198 Y71.1455 
G01 X-39.9033 Y71.0290 
G01 X-39.7663 Y70.9374 
G01 X-39.6140 Y70.8744 
G01 X-39.4524 Y70.8422 
G01 X-39.2876 Y70.8422 
G01 X-39.1260 Y70.8744 
G01 X-38.9737 Y70.9374 
G01 X-38.8367 Y71.0290 
G01 X-38.7202 Y71.1455 
G01 X-38.6286 Y71.2825 
G01 X-38.5656 Y71.4348 
G01 X-38.5334 Y71.5964 
G01 X-38.5334 Y72.8337 
G01 X-31.9884 Y79.3788 
G01 X-31.8909 Y79.2813 
G01 X-31.7372 Y79.1786 
G01 X-31.5665 Y79.1079 
G01 X-31.3852 Y79.0718 
G01 X-29.5748 Y79.0718 
G01 X-29.3935 Y79.1079 
G01 X-29.2228 Y79.1786 
G01 X-29.0691 Y79.2813 
G01 X-28.9385 Y79.4119 
G01 X-28.8358 Y79.5656 
G01 X-28.7651 Y79.7363 
G01 X-28.7290 Y79.9176 
G01 X-28.7290 Y80.1024 
G01 X-28.7651 Y80.2837 
G01 X-28.8358 Y80.4544 
G01 X-28.9385 Y80.6081 
G01 X-29.0691 Y80.7387 
G01 X-29.2228 Y80.8414 
G01 X-29.3935 Y80.9121 
G01 X-29.5748 Y80.9482 
G01 X-31.3852 Y80.9482 
G01 X-31.5665 Y80.9121 
G01 X-31.7372 Y80.8414 
G01 X-31.8909 Y80.7387 
G01 X-32.0215 Y80.6081 
G01 X-32.1242 Y80.4544 
G01 X-32.1949 Y80.2837 
G01 X-32.2310 Y80.1024 
G01 X-32.2310 Y79.9219 
G01 X-38.6393 Y73.5135 
G01 X-38.7202 Y73.6345 
G01 X-38.8367 Y73.7510 
G01 X-38.9737 Y73.8426 
G01 X-39.1260 Y73.9056 
G01 X-39.2876 Y73.9378 
G01 X-39.4524 Y73.9378 
G01 X-39.6140 Y73.9056 
G01 X-39.7663 Y73.8426 
G01 X-39.9033 Y73.7510 
G01 X-40.0198 Y73.6345 
G00 Z2.5400  
G00 X-41.1989 Y79.3342 
G01 Z-0.1778 F500   
G01 X-41.1798 Y79.3803 F500   
G01 X-41.1798 Y80.6397 
G01 X-41.1989 Y80.6858 
G01 X-41.2342 Y80.7211 
G01 X-41.2803 Y80.7402 
G01 X-41.6322 Y80.7402 
G01 X-41.6322 Y86.0822 
G01 X-38.3016 Y86.0822 
G01 X-38.3016 Y86.0135 
G01 X-37.8115 Y85.5234 
G01 X-37.1185 Y85.5234 
G01 X-36.6284 Y86.0135 
G01 X-36.6284 Y86.7065 
G01 X-37.1185 Y87.1966 
G01 X-37.8115 Y87.1966 
G01 X-38.3016 Y86.7065 
G01 X-38.3016 Y86.6378 
G01 X-41.9466 Y86.6378 
G01 X-42.0172 Y86.6189 
G01 X-42.0806 Y86.5823 
G01 X-42.1323 Y86.5306 
G01 X-42.1689 Y86.4672 
G01 X-42.1878 Y86.3966 
G01 X-42.1878 Y80.7402 
G01 X-42.5397 Y80.7402 
G01 X-42.5858 Y80.7211 
G01 X-42.6211 Y80.6858 
G01 X-42.6402 Y80.6397 
G01 X-42.6402 Y79.3803 
G01 X-42.6211 Y79.3342 
G01 X-42.5858 Y79.2989 
G01 X-42.5397 Y79.2798 
G01 X-41.2803 Y79.2798 
G01 X-41.2342 Y79.2989 
G01 X-41.1989 Y79.3342 
G00 Z2.5400  
G00 X-35.9065 Y86.7934 
G01 Z-0.1778 F500   
G01 X-35.2135 Y86.7934 F500   
G01 X-34.7234 Y87.2835 
G01 X-34.7234 Y87.9765 
G01 X-35.2135 Y88.4666 
G01 X-35.9065 Y88.4666 
G01 X-35.9551 Y88.4180 
G01 X-42.9577 Y95.4206 
G01 X-43.0094 Y95.4723 
G01 X-43.0728 Y95.5089 
G01 X-43.1434 Y95.5278 
G01 X-56.2118 Y95.5278 
G01 X-56.2118 Y96.1552 
G01 X-56.2479 Y96.3365 
G01 X-56.3186 Y96.5072 
G01 X-56.4213 Y96.6609 
G01 X-56.5519 Y96.7915 
G01 X-56.7056 Y96.8942 
G01 X-56.8763 Y96.9649 
G01 X-57.0576 Y97.0010 
G01 X-57.2424 Y97.0010 
G01 X-57.4237 Y96.9649 
G01 X-57.5944 Y96.8942 
G01 X-57.7481 Y96.7915 
G01 X-57.8787 Y96.6609 
G01 X-57.9814 Y96.5072 
G01 X-58.0521 Y96.3365 
G01 X-58.0882 Y96.1552 
G01 X-58.0882 Y94.3448 
G01 X-58.0521 Y94.1635 
G01 X-57.9814 Y93.9928 
G01 X-57.8787 Y93.8391 
G01 X-57.7481 Y93.7085 
G01 X-57.5944 Y93.6058 
G01 X-57.4237 Y93.5351 
G01 X-57.2424 Y93.4990 
G01 X-57.0576 Y93.4990 
G01 X-56.8763 Y93.5351 
G01 X-56.7056 Y93.6058 
G01 X-56.5519 Y93.7085 
G01 X-56.4213 Y93.8391 
G01 X-56.3186 Y93.9928 
G01 X-56.2479 Y94.1635 
G01 X-56.2118 Y94.3448 
G01 X-56.2118 Y94.9722 
G01 X-43.2951 Y94.9722 
G01 X-36.3480 Y88.0251 
G01 X-36.3966 Y87.9765 
G01 X-36.3966 Y87.2835 
G01 X-35.9065 Y86.7934 
G00 Z2.5400  
G00 X-35.7306 Y63.7223 
G01 Z-0.1778 F500   
G01 X-37.0006 Y62.4523 F500   
G01 X-37.0523 Y62.4006 
G01 X-37.0889 Y62.3372 
G01 X-37.1078 Y62.2666 
G01 X-37.1078 Y54.8878 
G01 X-44.1722 Y54.8878 
G01 X-44.1722 Y61.9522 
G01 X-41.8734 Y61.9522 
G01 X-41.8028 Y61.9711 
G01 X-41.7394 Y62.0077 
G01 X-41.6877 Y62.0594 
G01 X-41.6511 Y62.1228 
G01 X-41.6322 Y62.1934 
G01 X-41.6322 Y63.2683 
G01 X-41.5137 Y63.3174 
G01 X-41.3767 Y63.4090 
G01 X-41.2602 Y63.5255 
G01 X-41.1686 Y63.6625 
G01 X-41.1056 Y63.8148 
G01 X-41.0734 Y63.9764 
G01 X-41.0734 Y65.5636 
G01 X-41.1056 Y65.7252 
G01 X-41.1686 Y65.8775 
G01 X-41.2602 Y66.0145 
G01 X-41.3767 Y66.1310 
G01 X-41.5137 Y66.2226 
G01 X-41.6660 Y66.2856 
G01 X-41.8276 Y66.3178 
G01 X-41.9924 Y66.3178 
G01 X-42.1540 Y66.2856 
G01 X-42.3063 Y66.2226 
G01 X-42.4433 Y66.1310 
G01 X-42.5598 Y66.0145 
G01 X-42.6514 Y65.8775 
G01 X-42.7144 Y65.7252 
G01 X-42.7466 Y65.5636 
G01 X-42.7466 Y63.9764 
G01 X-42.7144 Y63.8148 
G01 X-42.6514 Y63.6625 
G01 X-42.5598 Y63.5255 
G01 X-42.4433 Y63.4090 
G01 X-42.3063 Y63.3174 
G01 X-42.1878 Y63.2683 
G01 X-42.1878 Y62.5078 
G01 X-44.4866 Y62.5078 
G01 X-44.5572 Y62.4889 
G01 X-44.6206 Y62.4523 
G01 X-44.6723 Y62.4006 
G01 X-44.7089 Y62.3372 
G01 X-44.7278 Y62.2666 
G01 X-44.7278 Y54.5734 
G01 X-44.7089 Y54.5028 
G01 X-44.6723 Y54.4394 
G01 X-44.6206 Y54.3877 
G01 X-44.5572 Y54.3511 
G01 X-44.4866 Y54.3322 
G01 X-36.7934 Y54.3322 
G01 X-36.7228 Y54.3511 
G01 X-36.6594 Y54.3877 
G01 X-36.6077 Y54.4394 
G01 X-36.5711 Y54.5028 
G01 X-36.5522 Y54.5734 
G01 X-36.5522 Y62.1149 
G01 X-35.4449 Y63.2222 
G01 X-32.1932 Y63.2222 
G01 X-32.1242 Y63.0556 
G01 X-32.0215 Y62.9019 
G01 X-31.8909 Y62.7713 
G01 X-31.7372 Y62.6686 
G01 X-31.5665 Y62.5979 
G01 X-31.3852 Y62.5618 
G01 X-29.5748 Y62.5618 
G01 X-29.3935 Y62.5979 
G01 X-29.2228 Y62.6686 
G01 X-29.0691 Y62.7713 
G01 X-28.9385 Y62.9019 
G01 X-28.8358 Y63.0556 
G01 X-28.7651 Y63.2263 
G01 X-28.7290 Y63.4076 
G01 X-28.7290 Y63.5924 
G01 X-28.7651 Y63.7737 
G01 X-28.8358 Y63.9444 
G01 X-28.9385 Y64.0981 
G01 X-29.0691 Y64.2287 
G01 X-29.2228 Y64.3314 
G01 X-29.3935 Y64.4021 
G01 X-29.5748 Y64.4382 
G01 X-31.3852 Y64.4382 
G01 X-31.5665 Y64.4021 
G01 X-31.7372 Y64.3314 
G01 X-31.8909 Y64.2287 
G01 X-32.0215 Y64.0981 
G01 X-32.1242 Y63.9444 
G01 X-32.1932 Y63.7778 
G01 X-35.5966 Y63.7778 
G01 X-35.6672 Y63.7589 
G01 X-35.7306 Y63.7223 
G00 Z2.5400  
G00 X-38.5656 Y63.8148 
G01 Z-0.1778 F500   
G01 X-38.5334 Y63.9764 F500   
G01 X-38.5334 Y65.5636 
G01 X-38.5656 Y65.7252 
G01 X-38.6286 Y65.8775 
G01 X-38.7202 Y66.0145 
G01 X-38.8367 Y66.1310 
G01 X-38.9737 Y66.2226 
G01 X-39.1260 Y66.2856 
G01 X-39.2876 Y66.3178 
G01 X-39.4524 Y66.3178 
G01 X-39.6140 Y66.2856 
G01 X-39.7663 Y66.2226 
G01 X-39.9033 Y66.1310 
G01 X-40.0198 Y66.0145 
G01 X-40.1114 Y65.8775 
G01 X-40.1744 Y65.7252 
G01 X-40.2066 Y65.5636 
G01 X-40.2066 Y63.9764 
G01 X-40.1744 Y63.8148 
G01 X-40.1114 Y63.6625 
G01 X-40.0198 Y63.5255 
G01 X-39.9033 Y63.4090 
G01 X-39.7663 Y63.3174 
G01 X-39.6478 Y63.2683 
G01 X-39.6478 Y59.2566 
G01 X-39.7165 Y59.2566 
G01 X-40.2066 Y58.7665 
G01 X-40.2066 Y58.0735 
G01 X-40.1580 Y58.0249 
G01 X-40.7551 Y57.4278 
G01 X-42.3434 Y57.4278 
G01 X-42.3434 Y57.4965 
G01 X-42.3920 Y57.5451 
G01 X-41.7394 Y58.1977 
G01 X-41.6877 Y58.2494 
G01 X-41.6511 Y58.3128 
G01 X-41.6322 Y58.3834 
G01 X-41.6322 Y58.9598 
G01 X-41.2803 Y58.9598 
G01 X-41.2342 Y58.9789 
G01 X-41.1989 Y59.0142 
G01 X-41.1798 Y59.0603 
G01 X-41.1798 Y60.3197 
G01 X-41.1989 Y60.3658 
G01 X-41.2342 Y60.4011 
G01 X-41.2803 Y60.4202 
G01 X-42.5397 Y60.4202 
G01 X-42.5858 Y60.4011 
G01 X-42.6211 Y60.3658 
G01 X-42.6402 Y60.3197 
G01 X-42.6402 Y59.0603 
G01 X-42.6211 Y59.0142 
G01 X-42.5858 Y58.9789 
G01 X-42.5397 Y58.9598 
G01 X-42.1878 Y58.9598 
G01 X-42.1878 Y58.5351 
G01 X-42.7849 Y57.9380 
G01 X-42.8335 Y57.9866 
G01 X-43.5265 Y57.9866 
G01 X-44.0166 Y57.4965 
G01 X-44.0166 Y56.8035 
G01 X-43.5265 Y56.3134 
G01 X-42.8335 Y56.3134 
G01 X-42.3434 Y56.8035 
G01 X-42.3434 Y56.8722 
G01 X-40.6034 Y56.8722 
G01 X-40.5328 Y56.8911 
G01 X-40.4694 Y56.9277 
G01 X-40.4177 Y56.9794 
G01 X-39.7651 Y57.6320 
G01 X-39.7165 Y57.5834 
G01 X-39.0235 Y57.5834 
G01 X-38.5334 Y58.0735 
G01 X-38.5334 Y58.7665 
G01 X-39.0235 Y59.2566 
G01 X-39.0922 Y59.2566 
G01 X-39.0922 Y63.2683 
G01 X-38.9737 Y63.3174 
G01 X-38.8367 Y63.4090 
G01 X-38.7202 Y63.5255 
G01 X-38.6286 Y63.6625 
G01 X-38.5656 Y63.8148 
G00 Z2.5400  
G00 X-43.6456 Y63.8148 
G01 Z-0.1778 F500   
G01 X-43.6134 Y63.9764 F500   
G01 X-43.6134 Y65.5636 
G01 X-43.6456 Y65.7252 
G01 X-43.7086 Y65.8775 
G01 X-43.8002 Y66.0145 
G01 X-43.9167 Y66.1310 
G01 X-44.0537 Y66.2226 
G01 X-44.2060 Y66.2856 
G01 X-44.3676 Y66.3178 
G01 X-44.5324 Y66.3178 
G01 X-44.6940 Y66.2856 
G01 X-44.8463 Y66.2226 
G01 X-44.9833 Y66.1310 
G01 X-45.0998 Y66.0145 
G01 X-45.1914 Y65.8775 
G01 X-45.2544 Y65.7252 
G01 X-45.2866 Y65.5636 
G01 X-45.2866 Y63.9764 
G01 X-45.2544 Y63.8148 
G01 X-45.2471 Y63.7970 
G01 X-45.9647 Y62.3617 
G01 X-45.9789 Y62.3372 
G01 X-45.9811 Y62.3291 
G01 X-45.9848 Y62.3215 
G01 X-45.9905 Y62.2938 
G01 X-45.9978 Y62.2666 
G01 X-45.9978 Y62.2581 
G01 X-45.9995 Y62.2499 
G01 X-45.9978 Y62.2217 
G01 X-45.9978 Y53.3034 
G01 X-45.9789 Y53.2328 
G01 X-45.9423 Y53.1694 
G01 X-45.8906 Y53.1177 
G01 X-45.8272 Y53.0811 
G01 X-45.7566 Y53.0622 
G01 X-27.9034 Y53.0622 
G01 X-27.8328 Y53.0811 
G01 X-27.7694 Y53.1177 
G01 X-27.7177 Y53.1694 
G01 X-27.6811 Y53.2328 
G01 X-27.6622 Y53.3034 
G01 X-27.6622 Y59.7266 
G01 X-27.6811 Y59.7972 
G01 X-27.7177 Y59.8606 
G01 X-28.7290 Y60.8719 
G01 X-28.7290 Y61.0524 
G01 X-28.7651 Y61.2337 
G01 X-28.8358 Y61.4044 
G01 X-28.9385 Y61.5581 
G01 X-29.0691 Y61.6887 
G01 X-29.2228 Y61.7914 
G01 X-29.3935 Y61.8621 
G01 X-29.5748 Y61.8982 
G01 X-31.3852 Y61.8982 
G01 X-31.5665 Y61.8621 
G01 X-31.7372 Y61.7914 
G01 X-31.8909 Y61.6887 
G01 X-32.0215 Y61.5581 
G01 X-32.1242 Y61.4044 
G01 X-32.1949 Y61.2337 
G01 X-32.2310 Y61.0524 
G01 X-32.2310 Y60.8676 
G01 X-32.1949 Y60.6863 
G01 X-32.1242 Y60.5156 
G01 X-32.0215 Y60.3619 
G01 X-31.8909 Y60.2313 
G01 X-31.7372 Y60.1286 
G01 X-31.5665 Y60.0579 
G01 X-31.3852 Y60.0218 
G01 X-29.5748 Y60.0218 
G01 X-29.3935 Y60.0579 
G01 X-29.2228 Y60.1286 
G01 X-29.0691 Y60.2313 
G01 X-28.9716 Y60.3288 
G01 X-28.2178 Y59.5749 
G01 X-28.2178 Y53.6178 
G01 X-45.4422 Y53.6178 
G01 X-45.4422 Y62.1644 
G01 X-44.8608 Y63.3271 
G01 X-44.8463 Y63.3174 
G01 X-44.6940 Y63.2544 
G01 X-44.5324 Y63.2222 
G01 X-44.3676 Y63.2222 
G01 X-44.2060 Y63.2544 
G01 X-44.0537 Y63.3174 
G01 X-43.9167 Y63.4090 
G01 X-43.8002 Y63.5255 
G01 X-43.7086 Y63.6625 
G01 X-43.6456 Y63.8148 
G00 Z2.5400  
G00 X-35.1266 Y58.7665 
G01 Z-0.1778 F500   
G01 X-35.1266 Y58.0735 F500   
G01 X-34.6365 Y57.5834 
G01 X-33.9435 Y57.5834 
G01 X-33.4534 Y58.0735 
G01 X-33.4534 Y58.1422 
G01 X-32.1932 Y58.1422 
G01 X-32.1242 Y57.9756 
G01 X-32.0215 Y57.8219 
G01 X-31.8909 Y57.6913 
G01 X-31.7372 Y57.5886 
G01 X-31.5665 Y57.5179 
G01 X-31.3852 Y57.4818 
G01 X-29.5748 Y57.4818 
G01 X-29.3935 Y57.5179 
G01 X-29.2228 Y57.5886 
G01 X-29.0691 Y57.6913 
G01 X-28.9385 Y57.8219 
G01 X-28.8358 Y57.9756 
G01 X-28.7651 Y58.1463 
G01 X-28.7290 Y58.3276 
G01 X-28.7290 Y58.5124 
G01 X-28.7651 Y58.6937 
G01 X-28.8358 Y58.8644 
G01 X-28.9385 Y59.0181 
G01 X-29.0691 Y59.1487 
G01 X-29.2228 Y59.2514 
G01 X-29.3935 Y59.3221 
G01 X-29.5748 Y59.3582 
G01 X-31.3852 Y59.3582 
G01 X-31.5665 Y59.3221 
G01 X-31.7372 Y59.2514 
G01 X-31.8909 Y59.1487 
G01 X-32.0215 Y59.0181 
G01 X-32.1242 Y58.8644 
G01 X-32.1932 Y58.6978 
G01 X-33.4534 Y58.6978 
G01 X-33.4534 Y58.7665 
G01 X-33.9435 Y59.2566 
G01 X-34.6365 Y59.2566 
G01 X-35.1266 Y58.7665 
G00 Z2.5400  
G00 X-67.8689 Y86.9542 
G01 Z-0.1778 F500   
G01 X-67.8498 Y87.0003 F500   
G01 X-67.8498 Y88.2597 
G01 X-67.8689 Y88.3058 
G01 X-67.9042 Y88.3411 
G01 X-67.9503 Y88.3602 
G01 X-68.3022 Y88.3602 
G01 X-68.3022 Y92.7017 
G01 X-68.3005 Y92.7299 
G01 X-68.3022 Y92.7381 
G01 X-68.3022 Y92.7466 
G01 X-68.3095 Y92.7738 
G01 X-68.3152 Y92.8015 
G01 X-68.3189 Y92.8091 
G01 X-68.3211 Y92.8172 
G01 X-68.3353 Y92.8417 
G01 X-68.9698 Y94.1107 
G01 X-68.9479 Y94.1635 
G01 X-68.9118 Y94.3448 
G01 X-68.9118 Y96.1552 
G01 X-68.9479 Y96.3365 
G01 X-69.0186 Y96.5072 
G01 X-69.1213 Y96.6609 
G01 X-69.2519 Y96.7915 
G01 X-69.4056 Y96.8942 
G01 X-69.5763 Y96.9649 
G01 X-69.7576 Y97.0010 
G01 X-69.9424 Y97.0010 
G01 X-70.1237 Y96.9649 
G01 X-70.2944 Y96.8942 
G01 X-70.4481 Y96.7915 
G01 X-70.5787 Y96.6609 
G01 X-70.6814 Y96.5072 
G01 X-70.7521 Y96.3365 
G01 X-70.7882 Y96.1552 
G01 X-70.7882 Y94.3448 
G01 X-70.7521 Y94.1635 
G01 X-70.6814 Y93.9928 
G01 X-70.5787 Y93.8391 
G01 X-70.4481 Y93.7085 
G01 X-70.2944 Y93.6058 
G01 X-70.1237 Y93.5351 
G01 X-69.9424 Y93.4990 
G01 X-69.7576 Y93.4990 
G01 X-69.5763 Y93.5351 
G01 X-69.4056 Y93.6058 
G01 X-69.3553 Y93.6394 
G01 X-68.8578 Y92.6444 
G01 X-68.8578 Y88.3602 
G01 X-69.2097 Y88.3602 
G01 X-69.2558 Y88.3411 
G01 X-69.2911 Y88.3058 
G01 X-69.3102 Y88.2597 
G01 X-69.3102 Y87.0003 
G01 X-69.2911 Y86.9542 
G01 X-69.2558 Y86.9189 
G01 X-69.2097 Y86.8998 
G01 X-67.9503 Y86.8998 
G01 X-67.9042 Y86.9189 
G01 X-67.8689 Y86.9542 
G00 Z2.5400  
G00 X-81.8389 Y92.0342 
G01 Z-0.1778 F500   
G01 X-81.8198 Y92.0803 F500   
G01 X-81.8198 Y93.3397 
G01 X-81.8389 Y93.3858 
G01 X-81.8742 Y93.4211 
G01 X-81.9203 Y93.4402 
G01 X-82.2722 Y93.4402 
G01 X-82.2722 Y93.5368 
G01 X-82.1056 Y93.6058 
G01 X-81.9519 Y93.7085 
G01 X-81.8213 Y93.8391 
G01 X-81.7186 Y93.9928 
G01 X-81.6479 Y94.1635 
G01 X-81.6118 Y94.3448 
G01 X-81.6118 Y96.1552 
G01 X-81.6479 Y96.3365 
G01 X-81.7186 Y96.5072 
G01 X-81.8213 Y96.6609 
G01 X-81.9519 Y96.7915 
G01 X-82.1056 Y96.8942 
G01 X-82.2763 Y96.9649 
G01 X-82.4576 Y97.0010 
G01 X-82.6424 Y97.0010 
G01 X-82.8237 Y96.9649 
G01 X-82.9944 Y96.8942 
G01 X-83.1481 Y96.7915 
G01 X-83.2787 Y96.6609 
G01 X-83.3814 Y96.5072 
G01 X-83.4521 Y96.3365 
G01 X-83.4882 Y96.1552 
G01 X-83.4882 Y94.3448 
G01 X-83.4521 Y94.1635 
G01 X-83.3814 Y93.9928 
G01 X-83.2787 Y93.8391 
G01 X-83.1481 Y93.7085 
G01 X-82.9944 Y93.6058 
G01 X-82.8278 Y93.5368 
G01 X-82.8278 Y93.4402 
G01 X-83.1797 Y93.4402 
G01 X-83.2258 Y93.4211 
G01 X-83.2611 Y93.3858 
G01 X-83.2802 Y93.3397 
G01 X-83.2802 Y92.0803 
G01 X-83.2611 Y92.0342 
G01 X-83.2258 Y91.9989 
G01 X-83.1797 Y91.9798 
G01 X-81.9203 Y91.9798 
G01 X-81.8742 Y91.9989 
G01 X-81.8389 Y92.0342 
G00 Z2.5400  
G00 X-86.8998 Y92.0697 
G01 Z-0.1778 F500   
G01 X-86.9189 Y92.1158 F500   
G01 X-86.9542 Y92.1511 
G01 X-87.0003 Y92.1702 
G01 X-87.3522 Y92.1702 
G01 X-87.3522 Y93.5368 
G01 X-87.1856 Y93.6058 
G01 X-87.0319 Y93.7085 
G01 X-86.9013 Y93.8391 
G01 X-86.7986 Y93.9928 
G01 X-86.7279 Y94.1635 
G01 X-86.6918 Y94.3448 
G01 X-86.6918 Y96.1552 
G01 X-86.7279 Y96.3365 
G01 X-86.7986 Y96.5072 
G01 X-86.9013 Y96.6609 
G01 X-87.0319 Y96.7915 
G01 X-87.1856 Y96.8942 
G01 X-87.3563 Y96.9649 
G01 X-87.5376 Y97.0010 
G01 X-87.7224 Y97.0010 
G01 X-87.9037 Y96.9649 
G01 X-88.0744 Y96.8942 
G01 X-88.2281 Y96.7915 
G01 X-88.3587 Y96.6609 
G01 X-88.4614 Y96.5072 
G01 X-88.5321 Y96.3365 
G01 X-88.5682 Y96.1552 
G01 X-88.5682 Y94.3448 
G01 X-88.5321 Y94.1635 
G01 X-88.4614 Y93.9928 
G01 X-88.3587 Y93.8391 
G01 X-88.2281 Y93.7085 
G01 X-88.0744 Y93.6058 
G01 X-87.9078 Y93.5368 
G01 X-87.9078 Y92.1702 
G01 X-88.2597 Y92.1702 
G01 X-88.3058 Y92.1511 
G01 X-88.3411 Y92.1158 
G01 X-88.3602 Y92.0697 
G01 X-88.3602 Y90.8103 
G01 X-88.3411 Y90.7642 
G01 X-88.3058 Y90.7289 
G01 X-88.2597 Y90.7098 
G01 X-87.0003 Y90.7098 
G01 X-86.9542 Y90.7289 
G01 X-86.9189 Y90.7642 
G01 X-86.8998 Y90.8103 
G01 X-86.8998 Y92.0697 
G00 Z2.5400  
G00 X-89.4942 Y90.8811 
G01 Z-0.1778 F500   
G01 X-89.5403 Y90.9002 F500   
G01 X-89.8922 Y90.9002 
G01 X-89.8922 Y93.5368 
G01 X-89.7256 Y93.6058 
G01 X-89.5719 Y93.7085 
G01 X-89.4413 Y93.8391 
G01 X-89.3386 Y93.9928 
G01 X-89.2679 Y94.1635 
G01 X-89.2318 Y94.3448 
G01 X-89.2318 Y96.1552 
G01 X-89.2679 Y96.3365 
G01 X-89.3386 Y96.5072 
G01 X-89.4413 Y96.6609 
G01 X-89.5719 Y96.7915 
G01 X-89.7256 Y96.8942 
G01 X-89.8963 Y96.9649 
G01 X-90.0776 Y97.0010 
G01 X-90.2624 Y97.0010 
G01 X-90.4437 Y96.9649 
G01 X-90.6144 Y96.8942 
G01 X-90.7681 Y96.7915 
G01 X-90.8987 Y96.6609 
G01 X-91.0014 Y96.5072 
G01 X-91.0721 Y96.3365 
G01 X-91.1082 Y96.1552 
G01 X-91.1082 Y94.3448 
G01 X-91.0721 Y94.1635 
G01 X-91.0014 Y93.9928 
G01 X-90.8987 Y93.8391 
G01 X-90.7681 Y93.7085 
G01 X-90.6144 Y93.6058 
G01 X-90.4478 Y93.5368 
G01 X-90.4478 Y90.9002 
G01 X-90.7997 Y90.9002 
G01 X-90.8458 Y90.8811 
G01 X-90.8811 Y90.8458 
G01 X-90.9002 Y90.7997 
G01 X-90.9002 Y89.5403 
G01 X-90.8811 Y89.4942 
G01 X-90.8458 Y89.4589 
G01 X-90.7997 Y89.4398 
G01 X-89.5403 Y89.4398 
G01 X-89.4942 Y89.4589 
G01 X-89.4589 Y89.4942 
G01 X-89.4398 Y89.5403 
G01 X-89.4398 Y90.7997 
G01 X-89.4589 Y90.8458 
G01 X-89.4942 Y90.8811 
G00 Z2.5400  
G00 X-42.8866 Y7.2377  
G01 Z-0.1778 F500   
G01 X-26.3766 Y23.7477 F500   
G01 X-26.2877 Y23.8366 
G01 X-26.2248 Y23.9456 
G01 X-26.1922 Y24.0671 
G01 X-26.1922 Y68.3821 
G01 X-21.2077 Y73.3666 
G01 X-21.1448 Y73.4756 
G01 X-21.1122 Y73.5971 
G01 X-21.1122 Y81.3429 
G01 X-21.1448 Y81.4644 
G01 X-21.2077 Y81.5734 
G01 X-21.2966 Y81.6623 
G01 X-37.7177 Y98.0834 
G01 X-37.8066 Y98.1723 
G01 X-37.9156 Y98.2352 
G01 X-38.0371 Y98.2678 
G01 X-58.4829 Y98.2678 
G01 X-58.6044 Y98.2352 
G01 X-58.7134 Y98.1723 
G01 X-58.8023 Y98.0834 
G01 X-59.6847 Y97.2010 
G01 X-59.7796 Y97.2010 
G01 X-59.9565 Y97.1730 
G01 X-60.1269 Y97.1176 
G01 X-60.2865 Y97.0363 
G01 X-60.4315 Y96.9310 
G01 X-60.5582 Y96.8043 
G01 X-60.6635 Y96.6593 
G01 X-60.7448 Y96.4997 
G01 X-60.8002 Y96.3293 
G01 X-60.8282 Y96.1524 
G01 X-60.8282 Y94.3476 
G01 X-60.8002 Y94.1707 
G01 X-60.7448 Y94.0003 
G01 X-60.6635 Y93.8407 
G01 X-60.5582 Y93.6957 
G01 X-60.4315 Y93.5690 
G01 X-60.2865 Y93.4637 
G01 X-60.1678 Y93.4032 
G01 X-60.1678 Y74.0212 
G01 X-60.2333 Y73.9878 
G01 X-60.3653 Y73.8919 
G01 X-60.4807 Y73.7765 
G01 X-60.5766 Y73.6445 
G01 X-60.6507 Y73.4991 
G01 X-60.7011 Y73.3439 
G01 X-60.7266 Y73.1828 
G01 X-60.7266 Y71.5972 
G01 X-60.7011 Y71.4361 
G01 X-60.6507 Y71.2809 
G01 X-60.5766 Y71.1355 
G01 X-60.4807 Y71.0035 
G01 X-60.3653 Y70.8881 
G01 X-60.2333 Y70.7922 
G01 X-60.0879 Y70.7181 
G01 X-59.9327 Y70.6677 
G01 X-59.7716 Y70.6422 
G01 X-59.6084 Y70.6422 
G01 X-59.4473 Y70.6677 
G01 X-59.2921 Y70.7181 
G01 X-59.1467 Y70.7922 
G01 X-59.0147 Y70.8881 
G01 X-58.8993 Y71.0035 
G01 X-58.8034 Y71.1355 
G01 X-58.7293 Y71.2809 
G01 X-58.6789 Y71.4361 
G01 X-58.6534 Y71.5972 
G01 X-58.6534 Y71.9122 
G01 X-58.1866 Y71.9122 
G01 X-58.1866 Y71.5972 
G01 X-58.1611 Y71.4361 
G01 X-58.1107 Y71.2809 
G01 X-58.0366 Y71.1355 
G01 X-57.9407 Y71.0035 
G01 X-57.8253 Y70.8881 
G01 X-57.6933 Y70.7922 
G01 X-57.5479 Y70.7181 
G01 X-57.3927 Y70.6677 
G01 X-57.2316 Y70.6422 
G01 X-57.0684 Y70.6422 
G01 X-56.9073 Y70.6677 
G01 X-56.7521 Y70.7181 
G01 X-56.6067 Y70.7922 
G01 X-56.4747 Y70.8881 
G01 X-56.3593 Y71.0035 
G01 X-56.2634 Y71.1355 
G01 X-56.1893 Y71.2809 
G01 X-56.1389 Y71.4361 
G01 X-56.1134 Y71.5972 
G01 X-56.1134 Y73.1828 
G01 X-56.1389 Y73.3438 
G01 X-55.4590 Y74.7035 
