(.../Documents/eagle/pcbgcode/pcb-gcode.ulp)
(Copyright 2005 - 2012 by John Johnson)
(See readme.txt for licensing terms.)
(This file generated from the board:)
(.../fablab-paderborn/laos-i2c-panel/Board4.brd)
(Current profile is .../eagle/pcbgcode/profiles/mach.pp  )
(This file generated 28.05.15 16:37)
(Settings from pcb-machine.h)
(spindle on time = 3.0000)
(spindle speed = 15000.0000)
(milling depth = -0.2540)
(tool change at 0.0000  0.0000  25.4000 )
(feed rate xy = F250   )
(feed rate z  = F127   )
(Z Axis Settings)
(  High     Up        Down     Drill)
(12.7000 	2.5400  	-0.1778 	-0.8128 )
(Settings from pcb-defaults.h)
(isolate min = 0.0254)
(isolate max = 0.2000)
(isolate step = 0.2000)
(Generated bottom outlines, bottom drill, )
(Unit of measure: mm)
(Metric Mode)
G21
(Absolute Coordinates)
G90
S15000
G00 Z12.7000 
G00 X0.0000  Y0.0000  
M03
G04 P3.000000
G00 Z2.5400  
G00 X-28.0000 Y6.0000  
G01 Z-0.2540 F127   
G01 X-108.0000 Y6.0000  F250   
G01 X-108.0000 Y103.0000 
G01 X-28.0000 Y103.0000 
G01 X-28.0000 Y6.0000  
G00 Z12.7000 
M05
M02
