(.../Documents/eagle/pcbgcode/pcb-gcode.ulp)
(Copyright 2005 - 2012 by John Johnson)
(See readme.txt for licensing terms.)
(This file generated from the board:)
(.../fablab-paderborn/laos-i2c-panel/Board3.brd)
(Current profile is .../eagle/pcbgcode/profiles/mach.pp  )
(This file generated 27.05.15 20:46)
(Settings from pcb-machine.h)
(spindle on time = 3.0000)
(spindle speed = 20000.0000)
(tool change at 0.0000  0.0000  25.4000 )
(feed rate xy = F0     )
(feed rate z  = F250   )
(Z Axis Settings)
(  High     Up        Down     Drill)
(12.7000 	2.5400  	-0.1778 	-0.8128 )
(Settings from pcb-defaults.h)
(isolate min = 0.0254)
(isolate max = 0.2000)
(isolate step = 0.2000)
(Generated bottom outlines, bottom drill, )
(Unit of measure: mm)
( Tool|       Size       |  Min Sub |  Max Sub |   Count )
( T01 | 0.600mm 0.0236in | 0.0000in | 0.0000in |       0 )
( T02 | 0.813mm 0.0320in | 0.0000in | 0.0000in |       0 )
( T03 | 0.914mm 0.0360in | 0.0000in | 0.0000in |       0 )
( T04 | 1.000mm 0.0394in | 0.0000in | 0.0000in |       0 )
( T05 | 1.016mm 0.0400in | 0.0000in | 0.0000in |       0 )
( T06 | 1.194mm 0.0470in | 0.0000in | 0.0000in |       0 )
( T07 | 1.200mm 0.0472in | 0.0000in | 0.0000in |       0 )
( T08 | 1.803mm 0.0710in | 0.0000in | 0.0000in |       0 )
(Metric Mode)
G21
(Absolute Coordinates)
G90
S20000
G00 Z12.7000 
G00 X0.0000  Y0.0000  
M03
G04 P3.000000
M05
G00 Z25.4000 
M06 T01  ; 0.6000  
G01 Z0.0000  F250   
M06 
G00 Z2.5400  
M03
G04 P3.000000
G82 X-41.9100 Y59.6900 Z-0.8128 F250   R2.5400  P1.000000
G82 X-58.4200 Y52.0700 
G82 X-69.8500 Y52.0700 
G82 X-78.7400 Y59.6900 
G82 X-80.0100 Y63.5000 
G82 X-72.3900 Y80.0100 
G82 X-73.6600 Y82.5500 
G82 X-77.4700 Y85.0900 
G82 X-82.5500 Y92.7100 
G82 X-87.6300 Y91.4400 
G82 X-90.1700 Y90.1700 
G82 X-69.8500 Y90.1700 
G82 X-68.5800 Y87.6300 
G82 X-63.5000 Y85.0900 
G82 X-64.7700 Y82.5500 
G82 X-62.2300 Y77.4700 
G82 X-58.4200 Y74.9300 
G82 X-52.0700 Y74.9300 
G82 X-41.9100 Y80.0100 
G82 X-44.4500 Y91.4400 
G82 X-46.9900 Y92.7100 
G82 X-58.4200 Y87.6300 
M05
G00 Z25.4000 
G00 X0.0000  Y0.0000  
M06 T02  ; 0.8128  
G01 Z0.0000  F250   
M06 
G00 Z2.5400  
M03
G04 P3.000000
G82 X-25.4000 Y80.3275 Z-0.8128 F250   R2.5400  P1.000000
G82 X-25.4000 Y82.2325 
G82 X-35.5600 Y85.0900 
G82 X-37.4650 Y86.3600 
G82 X-35.5600 Y87.6300 
G82 X-39.3700 Y72.3900 
G82 X-41.9100 Y72.3900 
G82 X-44.4500 Y72.3900 
G82 X-46.9900 Y72.3900 
G82 X-49.5300 Y72.3900 
G82 X-52.0700 Y72.3900 
G82 X-54.6100 Y72.3900 
G82 X-57.1500 Y72.3900 
G82 X-59.6900 Y72.3900 
G82 X-62.2300 Y72.3900 
G82 X-64.7700 Y72.3900 
G82 X-67.3100 Y72.3900 
G82 X-69.8500 Y72.3900 
G82 X-72.3900 Y72.3900 
G82 X-72.3900 Y64.7700 
G82 X-69.8500 Y64.7700 
G82 X-67.3100 Y64.7700 
G82 X-64.7700 Y64.7700 
G82 X-62.2300 Y64.7700 
G82 X-59.6900 Y64.7700 
G82 X-57.1500 Y64.7700 
G82 X-54.6100 Y64.7700 
G82 X-52.0700 Y64.7700 
G82 X-49.5300 Y64.7700 
G82 X-46.9900 Y64.7700 
G82 X-44.4500 Y64.7700 
G82 X-41.9100 Y64.7700 
G82 X-39.3700 Y64.7700 
G82 X-39.3700 Y58.4200 
G82 X-43.1800 Y57.1500 
G82 X-34.2900 Y58.4200 
G82 X-53.3400 Y57.1500 
G82 X-52.0700 Y77.4700 
G82 X-57.1500 Y77.4700 
G82 X-78.1050 Y82.5500 
G82 X-80.0100 Y81.2800 
G82 X-80.0100 Y83.8200 
M05
G00 Z25.4000 
G00 X0.0000  Y0.0000  
M06 T03  ; 0.9144  
G01 Z0.0000  F250   
M06 
G00 Z2.5400  
M03
G04 P3.000000
G82 X-87.6300 Y59.6900 Z-0.8128 F250   R2.5400  P1.000000
G82 X-87.6300 Y62.2300 
G82 X-87.6300 Y64.7700 
G82 X-90.1700 Y64.7700 
G82 X-90.1700 Y62.2300 
G82 X-90.1700 Y59.6900 
M05
G00 Z25.4000 
G00 X0.0000  Y0.0000  
M06 T04  ; 1.0000  
G01 Z0.0000  F250   
M06 
G00 Z2.5400  
M03
G04 P3.000000
G82 X-62.1600 Y31.3000 Z-0.8128 F250   R2.5400  P1.000000
G82 X-72.4600 Y31.3000 
M05
G00 Z25.4000 
G00 X0.0000  Y0.0000  
M06 T05  ; 1.0160  
G01 Z0.0000  F250   
M06 
G00 Z2.5400  
M03
G04 P3.000000
G82 X-30.4800 Y58.4200 Z-0.8128 F250   R2.5400  P1.000000
G82 X-30.4800 Y60.9600 
G82 X-30.4800 Y63.5000 
G82 X-30.4800 Y66.0400 
G82 X-30.4800 Y68.5800 
G82 X-30.4800 Y71.1200 
G82 X-30.4800 Y77.4700 
G82 X-30.4800 Y80.0100 
G82 X-30.4800 Y82.5500 
G82 X-30.4800 Y85.0900 
G82 X-57.1500 Y95.2500 
G82 X-59.6900 Y95.2500 
G82 X-62.2300 Y95.2500 
G82 X-64.7700 Y95.2500 
G82 X-67.3100 Y95.2500 
G82 X-69.8500 Y95.2500 
G82 X-72.3900 Y95.2500 
G82 X-74.9300 Y95.2500 
G82 X-77.4700 Y95.2500 
G82 X-80.0100 Y95.2500 
G82 X-82.5500 Y95.2500 
G82 X-85.0900 Y95.2500 
G82 X-87.6300 Y95.2500 
G82 X-90.1700 Y95.2500 
G82 X-92.7100 Y95.2500 
G82 X-95.2500 Y95.2500 
G82 X-90.1700 Y86.3600 
G82 X-90.1700 Y78.7400 
G82 X-86.3600 Y74.9300 
G82 X-86.3600 Y72.3900 
G82 X-80.0100 Y76.2000 
G82 X-77.4700 Y76.2000 
G82 X-63.5000 Y57.1500 
G82 X-60.9600 Y57.1500 
G82 X-58.4200 Y57.1500 
M05
G00 Z25.4000 
G00 X0.0000  Y0.0000  
M06 T06  ; 1.1938  
G01 Z0.0000  F250   
M06 
G00 Z2.5400  
M03
G04 P3.000000
G82 X-41.9608 Y12.8016 Z-0.8128 F250   R2.5400  P1.000000
G82 X-46.9392 Y12.8016 
G82 X-46.9392 Y25.2984 
G82 X-41.9608 Y25.2984 
G82 X-41.9608 Y38.2016 
G82 X-46.9392 Y38.2016 
G82 X-46.9392 Y50.6984 
G82 X-41.9608 Y50.6984 
G82 X-87.6808 Y50.6984 
G82 X-92.6592 Y50.6984 
G82 X-92.6592 Y38.2016 
G82 X-87.6808 Y38.2016 
G82 X-87.6808 Y25.2984 
G82 X-92.6592 Y25.2984 
G82 X-92.6592 Y12.8016 
G82 X-87.6808 Y12.8016 
M05
G00 Z25.4000 
G00 X0.0000  Y0.0000  
M06 T07  ; 1.2000  
G01 Z0.0000  F250   
M06 
G00 Z2.5400  
M03
G04 P3.000000
G82 X-62.1600 Y28.5000 Z-0.8128 F250   R2.5400  P1.000000
G82 X-62.1600 Y35.0000 
G82 X-72.4600 Y35.0000 
G82 X-72.4600 Y28.5000 
M05
G00 Z25.4000 
G00 X0.0000  Y0.0000  
M06 T08  ; 1.8034  
G01 Z0.0000  F250   
M06 
G00 Z2.5400  
M03
G04 P3.000000
G82 X-39.9542 Y19.0500 Z-0.8128 F250   R2.5400  P1.000000
G82 X-48.9458 Y19.0500 
G82 X-48.9458 Y44.4500 
G82 X-39.9542 Y44.4500 
G82 X-85.6742 Y44.4500 
G82 X-94.6658 Y44.4500 
G82 X-94.6658 Y19.0500 
G82 X-85.6742 Y19.0500 
T01 
G00 Z12.7000 
M05
M02
