(.../Documents/eagle/pcbgcode/pcb-gcode.ulp)
(Copyright 2005 - 2012 by John Johnson)
(See readme.txt for licensing terms.)
(This file generated from the board:)
(.../FablabPaderbornLaosDisplay/Board3.brd)
(Current profile is .../eagle/pcbgcode/profiles/mach.pp  )
(This file generated 17.05.15 17:02)
(Settings from pcb-machine.h)
(spindle on time = 3.0000)
(  Tool Size)
(0.3048  )
(spindle speed = 30000.0000)
(tool change at 0.0000  0.0000  25.4000 )
(feed rate xy = F250   )
(feed rate z  = F250   )
(Z Axis Settings)
(  High     Up        Down     Drill)
(12.7000 	2.5400  	-0.1778 	-0.8128 )
(Settings from pcb-defaults.h)
(isolate min = 0.0254)
(isolate max = 0.2000)
(isolate step = 0.2000)
(Generated top stencil, bottom outlines, bottom drill, )
(Unit of measure: mm)
(Metric Mode)
G21
(Absolute Coordinates)
G90
S30000
G00 Z12.7000 
G00 X0.0000  Y0.0000  
M03
G04 P3.000000
G00 Z2.5400  
G00 X-26.4058 Y23.9273 
G01 Z-0.1778 F250   
G01 X-26.4672 Y23.8658 F250   
G01 X-42.9772 Y7.3558  
G01 X-43.0525 Y7.3123  
G01 X-43.1365 Y7.2898  
G01 X-94.0235 Y7.2898  
G01 X-94.1075 Y7.3123  
G01 X-94.1827 Y7.3558  
G01 X-94.2442 Y7.4173  
G01 X-99.3242 Y12.4972 
G01 X-99.3677 Y12.5725 
G01 X-99.3902 Y12.6565 
G01 X-99.3902 Y95.2935 
G01 X-99.3677 Y95.3774 
G01 X-99.3242 Y95.4527 
G01 X-99.2627 Y95.5142 
G01 X-96.7227 Y98.0542 
G01 X-96.6475 Y98.0977 
G01 X-96.5635 Y98.1202 
G01 X-93.9365 Y98.1202 
G01 X-93.8525 Y98.0977 
G01 X-93.7772 Y98.0542 
G01 X-93.7158 Y97.9927 
G01 X-92.7764 Y97.0534 
G01 X-92.6124 Y97.0534 
G01 X-92.4210 Y97.0153 
G01 X-92.2408 Y96.9407 
G01 X-92.0785 Y96.8322 
G01 X-91.9406 Y96.6943 
G01 X-91.8321 Y96.5320 
G01 X-91.7575 Y96.3517 
G01 X-91.7194 Y96.1604 
G01 X-91.7194 Y94.3396 
G01 X-91.7575 Y94.1483 
G01 X-91.8321 Y93.9680 
G01 X-91.9406 Y93.8057 
G01 X-92.0785 Y93.6677 
G01 X-92.2408 Y93.5593 
G01 X-92.3798 Y93.5018 
G01 X-92.3798 Y81.4168 
G01 X-90.9603 Y79.9972 
G01 X-90.7697 Y80.1878 
G01 X-89.5703 Y80.1878 
G01 X-88.7222 Y79.3397 
G01 X-88.7222 Y78.1403 
G01 X-89.5703 Y77.2922 
G01 X-89.8398 Y77.2922 
G01 X-89.8398 Y72.7202 
G01 X-88.1082 Y72.7202 
G01 X-88.0507 Y72.8592 
G01 X-87.9422 Y73.0215 
G01 X-87.8043 Y73.1594 
G01 X-87.6420 Y73.2679 
G01 X-87.4617 Y73.3425 
G01 X-87.2704 Y73.3806 
G01 X-85.4496 Y73.3806 
G01 X-85.2583 Y73.3425 
G01 X-85.0780 Y73.2679 
G01 X-84.9157 Y73.1594 
G01 X-84.7777 Y73.0215 
G01 X-84.6693 Y72.8592 
G01 X-84.5947 Y72.6789 
G01 X-84.5566 Y72.4876 
G01 X-84.5566 Y72.2924 
G01 X-84.5947 Y72.1011 
G01 X-84.6693 Y71.9208 
G01 X-84.7777 Y71.7585 
G01 X-84.9157 Y71.6205 
G01 X-85.0780 Y71.5121 
G01 X-85.2583 Y71.4375 
G01 X-85.4496 Y71.3994 
G01 X-87.2704 Y71.3994 
G01 X-87.4617 Y71.4375 
G01 X-87.6420 Y71.5121 
G01 X-87.8043 Y71.6205 
G01 X-87.9422 Y71.7585 
G01 X-88.0507 Y71.9208 
G01 X-88.1082 Y72.0598 
G01 X-89.8398 Y72.0598 
G01 X-89.8398 Y65.7098 
G01 X-89.7807 Y65.7098 
G01 X-89.2302 Y65.1593 
G01 X-89.2302 Y64.3807 
G01 X-89.7807 Y63.8302 
G01 X-90.5593 Y63.8302 
G01 X-91.1098 Y64.3807 
G01 X-91.1098 Y65.1593 
G01 X-90.5593 Y65.7098 
G01 X-90.5002 Y65.7098 
G01 X-90.5002 Y77.2922 
G01 X-90.7697 Y77.2922 
G01 X-91.6178 Y78.1403 
G01 X-91.6178 Y79.3397 
G01 X-91.4272 Y79.5303 
G01 X-92.9742 Y81.0773 
G01 X-93.0177 Y81.1525 
G01 X-93.0402 Y81.2365 
G01 X-93.0402 Y93.5018 
G01 X-93.1792 Y93.5593 
G01 X-93.3415 Y93.6677 
G01 X-93.4794 Y93.8057 
G01 X-93.5879 Y93.9680 
G01 X-93.6625 Y94.1483 
G01 X-93.7006 Y94.3396 
G01 X-93.7006 Y96.1604 
G01 X-93.6625 Y96.3517 
G01 X-93.5879 Y96.5320 
G01 X-93.4794 Y96.6943 
G01 X-93.4153 Y96.7584 
G01 X-94.1168 Y97.4598 
G01 X-96.3832 Y97.4598 
G01 X-98.7298 Y95.1132 
G01 X-98.7298 Y12.8368 
G01 X-93.8432 Y7.9502  
G01 X-43.3168 Y7.9502  
G01 X-27.0002 Y24.2668 
G01 X-27.0002 Y67.7828 
G01 X-28.6766 Y66.1064 
G01 X-28.6766 Y65.9424 
G01 X-28.7147 Y65.7511 
G01 X-28.7893 Y65.5708 
G01 X-28.8977 Y65.4085 
G01 X-29.0357 Y65.2706 
G01 X-29.1980 Y65.1621 
G01 X-29.3783 Y65.0875 
G01 X-29.5696 Y65.0494 
G01 X-31.3904 Y65.0494 
G01 X-31.5817 Y65.0875 
G01 X-31.7620 Y65.1621 
G01 X-31.9243 Y65.2706 
G01 X-32.0622 Y65.4085 
G01 X-32.1707 Y65.5708 
G01 X-32.2453 Y65.7511 
G01 X-32.2834 Y65.9424 
G01 X-32.2834 Y66.1064 
G01 X-33.1568 Y66.9798 
G01 X-51.9332 Y66.9798 
G01 X-53.7210 Y65.1920 
G01 X-53.7210 Y64.3480 
G01 X-53.0758 Y63.7027 
G01 X-53.0323 Y63.6275 
G01 X-53.0098 Y63.5435 
G01 X-53.0098 Y58.0390 
G01 X-52.9718 Y58.0390 
G01 X-52.4510 Y57.5182 
G01 X-52.4510 Y56.7818 
G01 X-52.9718 Y56.2610 
G01 X-53.7082 Y56.2610 
G01 X-54.2290 Y56.7818 
G01 X-54.2290 Y57.5182 
G01 X-53.7082 Y58.0390 
G01 X-53.6702 Y58.0390 
G01 X-53.6702 Y63.3632 
G01 X-53.8712 Y63.5643 
G01 X-53.9195 Y63.4921 
G01 X-54.0433 Y63.3683 
G01 X-54.1889 Y63.2710 
G01 X-54.3507 Y63.2040 
G01 X-54.5224 Y63.1698 
G01 X-54.6976 Y63.1698 
G01 X-54.8693 Y63.2040 
G01 X-55.0311 Y63.2710 
G01 X-55.1767 Y63.3683 
G01 X-55.3005 Y63.4921 
G01 X-55.3978 Y63.6377 
G01 X-55.4648 Y63.7995 
G01 X-55.4990 Y63.9712 
G01 X-55.4990 Y65.5688 
G01 X-55.4648 Y65.7405 
G01 X-55.3978 Y65.9023 
G01 X-55.3005 Y66.0479 
G01 X-55.1767 Y66.1717 
G01 X-55.0311 Y66.2690 
G01 X-54.8693 Y66.3360 
G01 X-54.6976 Y66.3702 
G01 X-54.5224 Y66.3702 
G01 X-54.3507 Y66.3360 
G01 X-54.1889 Y66.2690 
G01 X-54.0433 Y66.1717 
G01 X-53.9195 Y66.0479 
G01 X-53.8712 Y65.9757 
G01 X-52.3342 Y67.5127 
G01 X-52.2727 Y67.5742 
G01 X-52.1975 Y67.6177 
G01 X-52.1135 Y67.6402 
G01 X-33.3502 Y67.6402 
G01 X-33.3502 Y74.9735 
G01 X-33.3277 Y75.0575 
G01 X-33.2842 Y75.1327 
G01 X-31.7997 Y76.6173 
G01 X-31.9243 Y76.7006 
G01 X-32.0622 Y76.8385 
G01 X-32.1707 Y77.0008 
G01 X-32.2453 Y77.1810 
G01 X-32.2834 Y77.3724 
G01 X-32.2834 Y77.5676 
G01 X-32.2453 Y77.7589 
G01 X-32.1707 Y77.9392 
G01 X-32.0622 Y78.1015 
G01 X-31.9243 Y78.2394 
G01 X-31.7620 Y78.3479 
G01 X-31.5817 Y78.4225 
G01 X-31.3904 Y78.4606 
G01 X-29.5696 Y78.4606 
G01 X-29.3783 Y78.4225 
G01 X-29.1980 Y78.3479 
G01 X-29.0357 Y78.2394 
G01 X-28.8977 Y78.1015 
G01 X-28.7893 Y77.9392 
G01 X-28.7318 Y77.8002 
G01 X-28.0768 Y77.8002 
G01 X-26.3944 Y79.4826 
G01 X-26.5323 Y79.5397 
G01 X-26.6779 Y79.6370 
G01 X-26.8017 Y79.7608 
G01 X-26.8990 Y79.9064 
G01 X-26.9660 Y80.0682 
G01 X-27.0002 Y80.2399 
G01 X-27.0002 Y80.4151 
G01 X-26.9660 Y80.5868 
G01 X-26.8990 Y80.7486 
G01 X-26.8017 Y80.8942 
G01 X-26.6779 Y81.0180 
G01 X-26.5323 Y81.1153 
G01 X-26.3705 Y81.1823 
G01 X-26.1988 Y81.2165 
G01 X-24.6012 Y81.2165 
G01 X-24.4295 Y81.1823 
G01 X-24.2677 Y81.1153 
G01 X-24.1221 Y81.0180 
G01 X-23.9983 Y80.8942 
G01 X-23.9010 Y80.7486 
G01 X-23.8340 Y80.5868 
G01 X-23.7998 Y80.4151 
G01 X-23.7998 Y80.2399 
G01 X-23.8340 Y80.0682 
G01 X-23.9010 Y79.9064 
G01 X-23.9983 Y79.7608 
G01 X-24.1221 Y79.6370 
G01 X-24.2677 Y79.5397 
G01 X-24.4295 Y79.4727 
G01 X-24.6012 Y79.4385 
G01 X-25.5045 Y79.4385 
G01 X-27.6758 Y77.2673 
G01 X-27.7372 Y77.2058 
G01 X-27.8125 Y77.1623 
G01 X-27.8965 Y77.1398 
G01 X-28.7318 Y77.1398 
G01 X-28.7893 Y77.0008 
G01 X-28.8977 Y76.8385 
G01 X-29.0357 Y76.7006 
G01 X-29.1980 Y76.5921 
G01 X-29.3783 Y76.5175 
G01 X-29.5696 Y76.4794 
G01 X-31.0036 Y76.4794 
G01 X-32.6898 Y74.7932 
G01 X-32.6898 Y67.4468 
G01 X-31.9884 Y66.7453 
G01 X-31.9243 Y66.8094 
G01 X-31.7620 Y66.9179 
G01 X-31.5817 Y66.9925 
G01 X-31.3904 Y67.0306 
G01 X-29.5696 Y67.0306 
G01 X-29.3783 Y66.9925 
G01 X-29.1980 Y66.9179 
G01 X-29.0357 Y66.8094 
G01 X-28.9716 Y66.7453 
G01 X-26.9342 Y68.7827 
G01 X-26.8727 Y68.8442 
G01 X-21.9202 Y73.7968 
G01 X-21.9202 Y81.1432 
G01 X-38.2368 Y97.4598 
G01 X-58.2832 Y97.4598 
G01 X-58.9847 Y96.7584 
G01 X-58.9205 Y96.6943 
G01 X-58.8121 Y96.5320 
G01 X-58.7375 Y96.3517 
G01 X-58.6994 Y96.1604 
G01 X-58.6994 Y94.3396 
G01 X-58.7375 Y94.1483 
G01 X-58.8121 Y93.9680 
G01 X-58.9205 Y93.8057 
G01 X-59.0585 Y93.6677 
G01 X-59.2208 Y93.5593 
G01 X-59.3598 Y93.5018 
G01 X-59.3598 Y73.9267 
G01 X-59.2689 Y73.8890 
G01 X-59.1233 Y73.7917 
G01 X-58.9995 Y73.6679 
G01 X-58.9022 Y73.5223 
G01 X-58.8352 Y73.3605 
G01 X-58.8010 Y73.1888 
G01 X-58.8010 Y72.7202 
G01 X-58.0390 Y72.7202 
G01 X-58.0390 Y73.1888 
G01 X-58.0048 Y73.3605 
G01 X-57.9378 Y73.5223 
G01 X-57.8405 Y73.6679 
G01 X-57.7167 Y73.7917 
G01 X-57.5711 Y73.8890 
G01 X-57.4093 Y73.9560 
G01 X-57.2376 Y73.9902 
G01 X-57.0624 Y73.9902 
G01 X-56.8907 Y73.9560 
G01 X-56.7627 Y73.9030 
G01 X-56.2102 Y75.0079 
G01 X-56.2102 Y76.0632 
G01 X-56.7549 Y76.6079 
G01 X-56.7818 Y76.5810 
G01 X-57.5182 Y76.5810 
G01 X-58.0390 Y77.1018 
G01 X-58.0390 Y77.8382 
G01 X-57.5182 Y78.3590 
G01 X-56.7818 Y78.3590 
G01 X-56.2610 Y77.8382 
G01 X-56.2610 Y77.1018 
G01 X-56.2879 Y77.0749 
G01 X-55.6773 Y76.4642 
G01 X-55.6158 Y76.4027 
G01 X-55.5723 Y76.3274 
G01 X-55.5498 Y76.2435 
G01 X-55.5498 Y74.9399 
G01 X-55.5478 Y74.9064 
G01 X-55.5498 Y74.8966 
G01 X-55.5498 Y74.8865 
G01 X-55.5585 Y74.8541 
G01 X-55.5652 Y74.8212 
G01 X-55.5697 Y74.8122 
G01 X-55.5723 Y74.8025 
G01 X-55.5891 Y74.7735 
G01 X-56.2953 Y73.3610 
G01 X-56.2610 Y73.1888 
G01 X-56.2610 Y71.5912 
G01 X-56.2952 Y71.4195 
G01 X-56.3622 Y71.2577 
G01 X-56.4595 Y71.1121 
G01 X-56.5833 Y70.9883 
G01 X-56.7289 Y70.8910 
G01 X-56.8907 Y70.8240 
G01 X-57.0624 Y70.7898 
G01 X-57.2376 Y70.7898 
G01 X-57.4093 Y70.8240 
G01 X-57.5711 Y70.8910 
G01 X-57.7167 Y70.9883 
G01 X-57.8405 Y71.1121 
G01 X-57.9378 Y71.2577 
G01 X-58.0048 Y71.4195 
G01 X-58.0390 Y71.5912 
G01 X-58.0390 Y72.0598 
G01 X-58.8010 Y72.0598 
G01 X-58.8010 Y71.5912 
G01 X-58.8352 Y71.4195 
G01 X-58.9022 Y71.2577 
G01 X-58.9995 Y71.1121 
G01 X-59.1233 Y70.9883 
G01 X-59.2689 Y70.8910 
G01 X-59.4307 Y70.8240 
G01 X-59.6024 Y70.7898 
G01 X-59.7776 Y70.7898 
G01 X-59.9493 Y70.8240 
G01 X-60.1111 Y70.8910 
G01 X-60.2567 Y70.9883 
G01 X-60.3805 Y71.1121 
G01 X-60.4778 Y71.2577 
G01 X-60.5448 Y71.4195 
G01 X-60.5790 Y71.5912 
G01 X-60.5790 Y73.1888 
G01 X-60.5448 Y73.3605 
G01 X-60.4778 Y73.5223 
G01 X-60.3805 Y73.6679 
G01 X-60.2567 Y73.7917 
G01 X-60.1111 Y73.8890 
G01 X-60.0202 Y73.9267 
G01 X-60.0202 Y93.5018 
G01 X-60.1592 Y93.5593 
G01 X-60.3215 Y93.6677 
G01 X-60.4594 Y93.8057 
G01 X-60.5679 Y93.9680 
G01 X-60.6425 Y94.1483 
G01 X-60.6806 Y94.3396 
G01 X-60.6806 Y96.1604 
G01 X-60.6425 Y96.3517 
G01 X-60.5679 Y96.5320 
G01 X-60.4594 Y96.6943 
G01 X-60.3215 Y96.8322 
G01 X-60.1592 Y96.9407 
G01 X-59.9789 Y97.0153 
G01 X-59.7876 Y97.0534 
G01 X-59.6236 Y97.0534 
G01 X-58.6842 Y97.9927 
G01 X-58.6227 Y98.0542 
G01 X-58.5474 Y98.0977 
G01 X-58.4635 Y98.1202 
G01 X-38.0565 Y98.1202 
G01 X-37.9725 Y98.0977 
G01 X-37.8972 Y98.0542 
G01 X-37.8358 Y97.9927 
G01 X-21.3873 Y81.5442 
G01 X-21.3258 Y81.4827 
G01 X-21.2823 Y81.4074 
G01 X-21.2598 Y81.3235 
G01 X-21.2598 Y73.6165 
G01 X-21.2823 Y73.5325 
G01 X-21.3258 Y73.4573 
G01 X-26.3398 Y68.4432 
G01 X-26.3398 Y24.0865 
G01 X-26.3623 Y24.0025 
G01 X-26.4058 Y23.9273 
G00 Z2.5400  
G00 X-40.9604 Y23.9823 
G01 Z-0.1778 F250   
G01 X-41.0375 Y23.8309 F250   
G01 X-41.1374 Y23.6935 
G01 X-41.2576 Y23.5733 
G01 X-41.3950 Y23.4734 
G01 X-41.5464 Y23.3963 
G01 X-41.7080 Y23.3438 
G01 X-41.8758 Y23.3172 
G01 X-42.0458 Y23.3172 
G01 X-42.2136 Y23.3438 
G01 X-42.2254 Y23.3476 
G01 X-42.8498 Y22.7232 
G01 X-42.8498 Y16.5879 
G01 X-41.9472 Y14.7828 
G01 X-41.8758 Y14.7828 
G01 X-41.7080 Y14.7562 
G01 X-41.5464 Y14.7037 
G01 X-41.3950 Y14.6266 
G01 X-41.2576 Y14.5267 
G01 X-41.1374 Y14.4065 
G01 X-41.0375 Y14.2691 
G01 X-40.9604 Y14.1177 
G01 X-40.9079 Y13.9561 
G01 X-40.8813 Y13.7883 
G01 X-40.8813 Y11.8149 
G01 X-40.9079 Y11.6471 
G01 X-40.9604 Y11.4855 
G01 X-41.0375 Y11.3341 
G01 X-41.1374 Y11.1967 
G01 X-41.2576 Y11.0765 
G01 X-41.3950 Y10.9766 
G01 X-41.5464 Y10.8995 
G01 X-41.7080 Y10.8470 
G01 X-41.8758 Y10.8204 
G01 X-42.0458 Y10.8204 
G01 X-42.2136 Y10.8470 
G01 X-42.3752 Y10.8995 
G01 X-42.5266 Y10.9766 
G01 X-42.6640 Y11.0765 
G01 X-42.7842 Y11.1967 
G01 X-42.8524 Y11.2906 
G01 X-45.4558 Y8.6873  
G01 X-45.5172 Y8.6258  
G01 X-45.5925 Y8.5823  
G01 X-45.6765 Y8.5598  
G01 X-94.0235 Y8.5598  
G01 X-94.1075 Y8.5823  
G01 X-94.1827 Y8.6258  
G01 X-97.9927 Y12.4358 
G01 X-98.0542 Y12.4972 
G01 X-98.0977 Y12.5725 
G01 X-98.1202 Y12.6565 
G01 X-98.1202 Y49.5735 
G01 X-98.0977 Y49.6574 
G01 X-98.0542 Y49.7327 
G01 X-94.2442 Y53.5427 
G01 X-94.1827 Y53.6042 
G01 X-94.1075 Y53.6477 
G01 X-94.0235 Y53.6702 
G01 X-83.9568 Y53.6702 
G01 X-82.8142 Y54.8127 
G01 X-82.7527 Y54.8742 
G01 X-82.6774 Y54.9177 
G01 X-82.5935 Y54.9402 
G01 X-72.7202 Y54.9402 
G01 X-72.7202 Y63.2333 
G01 X-72.8111 Y63.2710 
G01 X-72.9567 Y63.3683 
G01 X-73.0805 Y63.4921 
G01 X-73.1778 Y63.6377 
G01 X-73.2448 Y63.7995 
G01 X-73.2790 Y63.9712 
G01 X-73.2790 Y65.5688 
G01 X-73.2448 Y65.7405 
G01 X-73.1778 Y65.9023 
G01 X-73.0805 Y66.0479 
G01 X-72.9567 Y66.1717 
G01 X-72.8111 Y66.2690 
G01 X-72.6493 Y66.3360 
G01 X-72.4776 Y66.3702 
G01 X-72.3024 Y66.3702 
G01 X-72.1307 Y66.3360 
G01 X-71.9689 Y66.2690 
G01 X-71.8233 Y66.1717 
G01 X-71.6995 Y66.0479 
G01 X-71.6022 Y65.9023 
G01 X-71.5352 Y65.7405 
G01 X-71.5010 Y65.5688 
G01 X-71.5010 Y63.9712 
G01 X-71.5352 Y63.7995 
G01 X-71.6022 Y63.6377 
G01 X-71.6995 Y63.4921 
G01 X-71.8233 Y63.3683 
G01 X-71.9689 Y63.2710 
G01 X-72.0598 Y63.2333 
G01 X-72.0598 Y54.5665 
G01 X-72.0823 Y54.4825 
G01 X-72.1258 Y54.4072 
G01 X-72.1873 Y54.3458 
G01 X-72.2625 Y54.3023 
G01 X-72.3465 Y54.2798 
G01 X-82.4132 Y54.2798 
G01 X-83.6172 Y53.0758 
G01 X-86.6013 Y50.0917 
G01 X-86.6013 Y49.7117 
G01 X-86.6279 Y49.5439 
G01 X-86.6804 Y49.3823 
G01 X-86.7575 Y49.2309 
G01 X-86.8574 Y49.0935 
G01 X-86.9776 Y48.9733 
G01 X-87.1150 Y48.8734 
G01 X-87.2664 Y48.7963 
G01 X-87.2998 Y48.7854 
G01 X-87.2998 Y40.1146 
G01 X-87.2664 Y40.1037 
G01 X-87.1150 Y40.0266 
G01 X-86.9776 Y39.9267 
G01 X-86.8574 Y39.8065 
G01 X-86.7575 Y39.6691 
G01 X-86.6804 Y39.5177 
G01 X-86.6279 Y39.3561 
G01 X-86.6013 Y39.1883 
G01 X-86.6013 Y37.2149 
G01 X-86.6279 Y37.0471 
G01 X-86.6804 Y36.8855 
G01 X-86.7575 Y36.7341 
G01 X-86.8574 Y36.5967 
G01 X-86.9776 Y36.4765 
G01 X-87.1150 Y36.3766 
G01 X-87.2664 Y36.2995 
G01 X-87.4280 Y36.2470 
G01 X-87.5958 Y36.2204 
G01 X-87.7658 Y36.2204 
G01 X-87.9336 Y36.2470 
G01 X-88.0952 Y36.2995 
G01 X-88.2466 Y36.3766 
G01 X-88.3840 Y36.4765 
G01 X-88.5042 Y36.5967 
G01 X-88.5724 Y36.6906 
G01 X-92.3798 Y32.8832 
G01 X-92.3798 Y27.2444 
G01 X-92.2448 Y27.2005 
G01 X-92.0934 Y27.1234 
G01 X-91.9560 Y27.0235 
G01 X-91.8358 Y26.9033 
G01 X-91.7359 Y26.7659 
G01 X-91.6588 Y26.6145 
G01 X-91.6063 Y26.4529 
G01 X-91.5797 Y26.2851 
G01 X-91.5797 Y24.3117 
G01 X-91.6063 Y24.1439 
G01 X-91.6588 Y23.9823 
G01 X-91.7359 Y23.8309 
G01 X-91.8358 Y23.6935 
G01 X-91.9560 Y23.5733 
G01 X-92.0934 Y23.4734 
G01 X-92.2448 Y23.3963 
G01 X-92.3798 Y23.3524 
G01 X-92.3798 Y14.7476 
G01 X-92.2448 Y14.7037 
G01 X-92.0934 Y14.6266 
G01 X-91.9560 Y14.5267 
G01 X-91.8358 Y14.4065 
G01 X-91.7359 Y14.2691 
G01 X-91.6588 Y14.1177 
G01 X-91.6063 Y13.9561 
G01 X-91.5797 Y13.7883 
G01 X-91.5797 Y11.8149 
G01 X-91.6063 Y11.6471 
G01 X-91.6588 Y11.4855 
G01 X-91.7359 Y11.3341 
G01 X-91.8358 Y11.1967 
G01 X-91.9560 Y11.0765 
G01 X-92.0934 Y10.9766 
G01 X-92.2448 Y10.8995 
G01 X-92.4064 Y10.8470 
G01 X-92.5742 Y10.8204 
G01 X-92.7442 Y10.8204 
G01 X-92.9120 Y10.8470 
G01 X-93.0736 Y10.8995 
G01 X-93.2250 Y10.9766 
G01 X-93.3624 Y11.0765 
G01 X-93.4826 Y11.1967 
G01 X-93.5825 Y11.3341 
G01 X-93.6596 Y11.4855 
G01 X-93.7121 Y11.6471 
G01 X-93.7387 Y11.8149 
G01 X-93.7387 Y13.7883 
G01 X-93.7121 Y13.9561 
G01 X-93.6596 Y14.1177 
G01 X-93.5825 Y14.2691 
G01 X-93.4826 Y14.4065 
G01 X-93.3624 Y14.5267 
G01 X-93.2250 Y14.6266 
G01 X-93.0736 Y14.7037 
G01 X-93.0402 Y14.7146 
G01 X-93.0402 Y23.3854 
G01 X-93.0736 Y23.3963 
G01 X-93.2250 Y23.4734 
G01 X-93.3624 Y23.5733 
G01 X-93.4826 Y23.6935 
G01 X-93.5825 Y23.8309 
G01 X-93.6596 Y23.9823 
G01 X-93.7121 Y24.1439 
G01 X-93.7387 Y24.3117 
G01 X-93.7387 Y26.2851 
G01 X-93.7121 Y26.4529 
G01 X-93.6596 Y26.6145 
G01 X-93.5825 Y26.7659 
G01 X-93.4826 Y26.9033 
G01 X-93.3624 Y27.0235 
G01 X-93.2250 Y27.1234 
G01 X-93.0736 Y27.2005 
G01 X-93.0402 Y27.2114 
G01 X-93.0402 Y33.0635 
G01 X-93.0177 Y33.1474 
G01 X-92.9742 Y33.2227 
G01 X-88.7603 Y37.4367 
G01 X-88.7603 Y39.1883 
G01 X-88.7337 Y39.3561 
G01 X-88.6812 Y39.5177 
G01 X-88.6041 Y39.6691 
G01 X-88.5042 Y39.8065 
G01 X-88.3840 Y39.9267 
G01 X-88.2466 Y40.0266 
G01 X-88.0952 Y40.1037 
G01 X-87.9602 Y40.1476 
G01 X-87.9602 Y48.7524 
G01 X-88.0952 Y48.7963 
G01 X-88.2466 Y48.8734 
G01 X-88.3840 Y48.9733 
G01 X-88.5042 Y49.0935 
G01 X-88.6041 Y49.2309 
G01 X-88.6812 Y49.3823 
G01 X-88.7337 Y49.5439 
G01 X-88.7603 Y49.7117 
G01 X-88.7603 Y51.6851 
G01 X-88.7337 Y51.8529 
G01 X-88.6812 Y52.0145 
G01 X-88.6041 Y52.1659 
G01 X-88.5042 Y52.3033 
G01 X-88.3840 Y52.4235 
G01 X-88.2466 Y52.5234 
G01 X-88.0952 Y52.6005 
G01 X-87.9336 Y52.6530 
G01 X-87.7658 Y52.6796 
G01 X-87.5958 Y52.6796 
G01 X-87.4280 Y52.6530 
G01 X-87.2664 Y52.6005 
G01 X-87.1150 Y52.5234 
G01 X-86.9776 Y52.4235 
G01 X-86.8574 Y52.3033 
G01 X-86.7575 Y52.1659 
G01 X-86.6804 Y52.0145 
G01 X-86.6279 Y51.8529 
G01 X-86.6013 Y51.6851 
G01 X-86.6013 Y51.0257 
G01 X-84.6172 Y53.0098 
G01 X-93.8432 Y53.0098 
G01 X-97.4598 Y49.3932 
G01 X-97.4598 Y12.8368 
G01 X-93.8432 Y9.2202  
G01 X-45.8568 Y9.2202  
G01 X-43.0403 Y12.0367 
G01 X-43.0403 Y13.7883 
G01 X-43.0137 Y13.9561 
G01 X-42.9612 Y14.1177 
G01 X-42.8841 Y14.2691 
G01 X-42.7842 Y14.4065 
G01 X-42.6640 Y14.5267 
G01 X-42.5859 Y14.5835 
G01 X-43.4709 Y16.3535 
G01 X-43.4877 Y16.3825 
G01 X-43.4903 Y16.3922 
G01 X-43.4948 Y16.4012 
G01 X-43.5015 Y16.4341 
G01 X-43.5102 Y16.4665 
G01 X-43.5102 Y16.4766 
G01 X-43.5122 Y16.4864 
G01 X-43.5102 Y16.5199 
G01 X-43.5102 Y22.9035 
G01 X-43.4877 Y22.9874 
G01 X-43.4442 Y23.0627 
G01 X-43.3827 Y23.1242 
G01 X-42.7965 Y23.7104 
G01 X-42.8841 Y23.8309 
G01 X-42.9612 Y23.9823 
G01 X-43.0137 Y24.1439 
G01 X-43.0403 Y24.3117 
G01 X-43.0403 Y26.2851 
G01 X-43.0137 Y26.4529 
G01 X-42.9612 Y26.6145 
G01 X-42.8841 Y26.7659 
G01 X-42.7842 Y26.9033 
G01 X-42.6640 Y27.0235 
G01 X-42.5266 Y27.1234 
G01 X-42.3752 Y27.2005 
G01 X-42.2402 Y27.2444 
G01 X-42.2402 Y36.2556 
G01 X-42.3752 Y36.2995 
G01 X-42.5266 Y36.3766 
G01 X-42.6640 Y36.4765 
G01 X-42.7842 Y36.5967 
G01 X-42.8841 Y36.7341 
G01 X-42.9612 Y36.8855 
G01 X-43.0137 Y37.0471 
G01 X-43.0403 Y37.2149 
G01 X-43.0403 Y39.1883 
G01 X-43.0137 Y39.3561 
G01 X-42.9718 Y39.4852 
G01 X-43.4709 Y40.4835 
G01 X-43.4877 Y40.5125 
G01 X-43.4903 Y40.5222 
G01 X-43.4948 Y40.5312 
G01 X-43.5015 Y40.5641 
G01 X-43.5102 Y40.5965 
G01 X-43.5102 Y40.6066 
G01 X-43.5122 Y40.6164 
G01 X-43.5102 Y40.6499 
G01 X-43.5102 Y48.2501 
G01 X-43.5122 Y48.2836 
G01 X-43.5102 Y48.2934 
G01 X-43.5102 Y48.3035 
G01 X-43.5015 Y48.3359 
G01 X-43.4948 Y48.3688 
G01 X-43.4903 Y48.3778 
G01 X-43.4877 Y48.3875 
G01 X-43.4709 Y48.4165 
G01 X-42.9718 Y49.4148 
G01 X-43.0137 Y49.5439 
G01 X-43.0403 Y49.7117 
G01 X-43.0403 Y51.6851 
G01 X-43.0137 Y51.8529 
G01 X-42.9612 Y52.0145 
G01 X-42.8841 Y52.1659 
G01 X-42.7842 Y52.3033 
G01 X-42.6640 Y52.4235 
G01 X-42.5266 Y52.5234 
G01 X-42.3752 Y52.6005 
G01 X-42.2136 Y52.6530 
G01 X-42.0458 Y52.6796 
G01 X-41.8758 Y52.6796 
G01 X-41.7080 Y52.6530 
G01 X-41.5464 Y52.6005 
G01 X-41.3950 Y52.5234 
G01 X-41.2576 Y52.4235 
G01 X-41.1374 Y52.3033 
G01 X-41.0375 Y52.1659 
G01 X-40.9604 Y52.0145 
G01 X-40.9079 Y51.8529 
G01 X-40.8813 Y51.6851 
G01 X-40.8813 Y49.7117 
G01 X-40.9079 Y49.5439 
G01 X-40.9604 Y49.3823 
G01 X-41.0375 Y49.2309 
G01 X-41.1374 Y49.0935 
G01 X-41.2576 Y48.9733 
G01 X-41.3950 Y48.8734 
G01 X-41.5464 Y48.7963 
G01 X-41.7080 Y48.7438 
G01 X-41.8758 Y48.7172 
G01 X-42.0458 Y48.7172 
G01 X-42.2136 Y48.7438 
G01 X-42.3752 Y48.7963 
G01 X-42.5087 Y48.8643 
G01 X-42.8498 Y48.1820 
G01 X-42.8498 Y40.7180 
G01 X-42.5087 Y40.0357 
G01 X-42.3752 Y40.1037 
G01 X-42.2136 Y40.1562 
G01 X-42.0458 Y40.1828 
G01 X-41.8758 Y40.1828 
G01 X-41.7080 Y40.1562 
G01 X-41.5464 Y40.1037 
G01 X-41.3950 Y40.0266 
G01 X-41.2576 Y39.9267 
G01 X-41.1374 Y39.8065 
G01 X-41.0375 Y39.6691 
G01 X-40.9604 Y39.5177 
G01 X-40.9079 Y39.3561 
G01 X-40.8813 Y39.1883 
G01 X-40.8813 Y37.2149 
G01 X-40.9079 Y37.0471 
G01 X-40.9604 Y36.8855 
G01 X-41.0375 Y36.7341 
G01 X-41.1374 Y36.5967 
G01 X-41.2576 Y36.4765 
G01 X-41.3950 Y36.3766 
G01 X-41.5464 Y36.2995 
G01 X-41.5798 Y36.2886 
G01 X-41.5798 Y27.2114 
G01 X-41.5464 Y27.2005 
G01 X-41.3950 Y27.1234 
G01 X-41.2576 Y27.0235 
G01 X-41.1374 Y26.9033 
G01 X-41.0375 Y26.7659 
G01 X-40.9604 Y26.6145 
G01 X-40.9079 Y26.4529 
G01 X-40.8813 Y26.2851 
G01 X-40.8813 Y24.3117 
G01 X-40.9079 Y24.1439 
G01 X-40.9604 Y23.9823 
G00 Z2.5400  
G00 X-45.9388 Y23.9823 
G01 Z-0.1778 F250   
G01 X-46.0159 Y23.8309 F250   
G01 X-46.1035 Y23.7104 
G01 X-45.5172 Y23.1242 
G01 X-45.4558 Y23.0627 
G01 X-45.4123 Y22.9874 
G01 X-45.3898 Y22.9035 
G01 X-45.3898 Y16.5199 
G01 X-45.3878 Y16.4864 
G01 X-45.3898 Y16.4766 
G01 X-45.3898 Y16.4665 
G01 X-45.3985 Y16.4341 
G01 X-45.4052 Y16.4012 
G01 X-45.4097 Y16.3922 
G01 X-45.4123 Y16.3825 
G01 X-45.4291 Y16.3535 
G01 X-46.3141 Y14.5835 
G01 X-46.2360 Y14.5267 
G01 X-46.1158 Y14.4065 
G01 X-46.0159 Y14.2691 
G01 X-45.9388 Y14.1177 
G01 X-45.8863 Y13.9561 
G01 X-45.8597 Y13.7883 
G01 X-45.8597 Y11.8149 
G01 X-45.8863 Y11.6471 
G01 X-45.9388 Y11.4855 
G01 X-46.0159 Y11.3341 
G01 X-46.1158 Y11.1967 
G01 X-46.2360 Y11.0765 
G01 X-46.3734 Y10.9766 
G01 X-46.5248 Y10.8995 
G01 X-46.6864 Y10.8470 
G01 X-46.8542 Y10.8204 
G01 X-47.0242 Y10.8204 
G01 X-47.1920 Y10.8470 
G01 X-47.3536 Y10.8995 
G01 X-47.5050 Y10.9766 
G01 X-47.6424 Y11.0765 
G01 X-47.7626 Y11.1967 
G01 X-47.8625 Y11.3341 
G01 X-47.9396 Y11.4855 
G01 X-47.9921 Y11.6471 
G01 X-48.0187 Y11.8149 
G01 X-48.0187 Y13.7883 
G01 X-47.9921 Y13.9561 
G01 X-47.9396 Y14.1177 
G01 X-47.8625 Y14.2691 
G01 X-47.7626 Y14.4065 
G01 X-47.6424 Y14.5267 
G01 X-47.5050 Y14.6266 
G01 X-47.3536 Y14.7037 
G01 X-47.1920 Y14.7562 
G01 X-47.0242 Y14.7828 
G01 X-46.9528 Y14.7828 
G01 X-46.0502 Y16.5879 
G01 X-46.0502 Y22.7232 
G01 X-46.6746 Y23.3476 
G01 X-46.6864 Y23.3438 
G01 X-46.8542 Y23.3172 
G01 X-47.0242 Y23.3172 
G01 X-47.1920 Y23.3438 
G01 X-47.3536 Y23.3963 
G01 X-47.5050 Y23.4734 
G01 X-47.6424 Y23.5733 
G01 X-47.7626 Y23.6935 
G01 X-47.8625 Y23.8309 
G01 X-47.9396 Y23.9823 
G01 X-47.9921 Y24.1439 
G01 X-48.0187 Y24.3117 
G01 X-48.0187 Y25.0698 
G01 X-63.5435 Y25.0698 
G01 X-63.6275 Y25.0923 
G01 X-63.7027 Y25.1358 
G01 X-63.7642 Y25.1973 
G01 X-66.1768 Y27.6098 
G01 X-70.9386 Y27.6098 
G01 X-70.9878 Y27.5741 
G01 X-71.1396 Y27.4967 
G01 X-71.3017 Y27.4441 
G01 X-71.4700 Y27.4174 
G01 X-73.4500 Y27.4174 
G01 X-73.6183 Y27.4441 
G01 X-73.7804 Y27.4967 
G01 X-73.9322 Y27.5741 
G01 X-74.0701 Y27.6742 
G01 X-74.1906 Y27.7947 
G01 X-74.2907 Y27.9326 
G01 X-74.3681 Y28.0844 
G01 X-74.4207 Y28.2465 
G01 X-74.4474 Y28.4148 
G01 X-74.4474 Y28.5852 
G01 X-74.4207 Y28.7535 
G01 X-74.3681 Y28.9156 
G01 X-74.2907 Y29.0674 
G01 X-74.1906 Y29.2053 
G01 X-74.0701 Y29.3258 
G01 X-73.9322 Y29.4259 
G01 X-73.7804 Y29.5033 
G01 X-73.6183 Y29.5559 
G01 X-73.4500 Y29.5826 
G01 X-72.7202 Y29.5826 
G01 X-72.7202 Y30.3174 
G01 X-73.3616 Y30.3174 
G01 X-73.5514 Y30.3552 
G01 X-73.7302 Y30.4292 
G01 X-73.8912 Y30.5368 
G01 X-74.0280 Y30.6736 
G01 X-74.1356 Y30.8346 
G01 X-74.2096 Y31.0134 
G01 X-74.2474 Y31.2032 
G01 X-74.2474 Y31.3968 
G01 X-74.2096 Y31.5866 
G01 X-74.1356 Y31.7654 
G01 X-74.0280 Y31.9264 
G01 X-73.8912 Y32.0632 
G01 X-73.7302 Y32.1708 
G01 X-73.5514 Y32.2448 
G01 X-73.3616 Y32.2826 
G01 X-71.5584 Y32.2826 
G01 X-71.3686 Y32.2448 
G01 X-71.1898 Y32.1708 
G01 X-71.0288 Y32.0632 
G01 X-70.8920 Y31.9264 
G01 X-70.7844 Y31.7654 
G01 X-70.7104 Y31.5866 
G01 X-70.6726 Y31.3968 
G01 X-70.6726 Y31.2032 
G01 X-70.7104 Y31.0134 
G01 X-70.7844 Y30.8346 
G01 X-70.8920 Y30.6736 
G01 X-71.0288 Y30.5368 
G01 X-71.1898 Y30.4292 
G01 X-71.3686 Y30.3552 
G01 X-71.5584 Y30.3174 
G01 X-72.0598 Y30.3174 
G01 X-72.0598 Y29.5826 
G01 X-71.4700 Y29.5826 
G01 X-71.3017 Y29.5559 
G01 X-71.1396 Y29.5033 
G01 X-70.9878 Y29.4259 
G01 X-70.8499 Y29.3258 
G01 X-70.7294 Y29.2053 
G01 X-70.6293 Y29.0674 
G01 X-70.5519 Y28.9156 
G01 X-70.4993 Y28.7535 
G01 X-70.4726 Y28.5852 
G01 X-70.4726 Y28.4148 
G01 X-70.4955 Y28.2702 
G01 X-65.9965 Y28.2702 
G01 X-65.9125 Y28.2477 
G01 X-65.8372 Y28.2042 
G01 X-63.3632 Y25.7302 
G01 X-48.0187 Y25.7302 
G01 X-48.0187 Y25.9617 
G01 X-51.0642 Y29.0072 
G01 X-51.1077 Y29.0825 
G01 X-51.1302 Y29.1665 
G01 X-51.1302 Y50.8435 
G01 X-51.1077 Y50.9275 
G01 X-51.0642 Y51.0027 
G01 X-49.8602 Y52.2068 
G01 X-49.8602 Y63.2333 
G01 X-49.9511 Y63.2710 
G01 X-50.0967 Y63.3683 
G01 X-50.2205 Y63.4921 
G01 X-50.3178 Y63.6377 
G01 X-50.3848 Y63.7995 
G01 X-50.4190 Y63.9712 
G01 X-50.4190 Y65.5688 
G01 X-50.3848 Y65.7405 
G01 X-50.3178 Y65.9023 
G01 X-50.2205 Y66.0479 
G01 X-50.0967 Y66.1717 
G01 X-49.9511 Y66.2690 
G01 X-49.7893 Y66.3360 
G01 X-49.6176 Y66.3702 
G01 X-49.4424 Y66.3702 
G01 X-49.2707 Y66.3360 
G01 X-49.1089 Y66.2690 
G01 X-48.9633 Y66.1717 
G01 X-48.8395 Y66.0479 
G01 X-48.7422 Y65.9023 
G01 X-48.6752 Y65.7405 
G01 X-48.6410 Y65.5688 
G01 X-48.6410 Y63.9712 
G01 X-48.6752 Y63.7995 
G01 X-48.7422 Y63.6377 
G01 X-48.8395 Y63.4921 
G01 X-48.9633 Y63.3683 
G01 X-49.1089 Y63.2710 
G01 X-49.1998 Y63.2333 
G01 X-49.1998 Y52.0265 
G01 X-49.2223 Y51.9425 
G01 X-49.2658 Y51.8672 
G01 X-49.3272 Y51.8058 
G01 X-50.4698 Y50.6632 
G01 X-50.4698 Y29.3468 
G01 X-47.8714 Y26.7484 
G01 X-47.8625 Y26.7659 
G01 X-47.7626 Y26.9033 
G01 X-47.6424 Y27.0235 
G01 X-47.5050 Y27.1234 
G01 X-47.3536 Y27.2005 
G01 X-47.1920 Y27.2530 
G01 X-47.0242 Y27.2796 
G01 X-46.8542 Y27.2796 
G01 X-46.6864 Y27.2530 
G01 X-46.5248 Y27.2005 
G01 X-46.3734 Y27.1234 
G01 X-46.2360 Y27.0235 
G01 X-46.1158 Y26.9033 
G01 X-46.0159 Y26.7659 
G01 X-45.9388 Y26.6145 
G01 X-45.8863 Y26.4529 
G01 X-45.8597 Y26.2851 
G01 X-45.8597 Y24.3117 
G01 X-45.8863 Y24.1439 
G01 X-45.9388 Y23.9823 
G00 Z2.5400  
G00 X-46.1158 Y36.5967 
G01 Z-0.1778 F250   
G01 X-46.2360 Y36.4765 F250   
G01 X-46.3734 Y36.3766 
G01 X-46.5248 Y36.2995 
G01 X-46.6864 Y36.2470 
G01 X-46.8542 Y36.2204 
G01 X-47.0242 Y36.2204 
G01 X-47.1920 Y36.2470 
G01 X-47.3536 Y36.2995 
G01 X-47.5050 Y36.3766 
G01 X-47.6424 Y36.4765 
G01 X-47.7626 Y36.5967 
G01 X-47.8625 Y36.7341 
G01 X-47.9396 Y36.8855 
G01 X-47.9921 Y37.0471 
G01 X-48.0187 Y37.2149 
G01 X-48.0187 Y39.1883 
G01 X-47.9921 Y39.3561 
G01 X-47.9396 Y39.5177 
G01 X-47.8625 Y39.6691 
G01 X-47.7626 Y39.8065 
G01 X-47.6424 Y39.9267 
G01 X-47.5050 Y40.0266 
G01 X-47.3536 Y40.1037 
G01 X-47.1920 Y40.1562 
G01 X-47.0242 Y40.1828 
G01 X-46.8542 Y40.1828 
G01 X-46.6864 Y40.1562 
G01 X-46.5248 Y40.1037 
G01 X-46.3913 Y40.0357 
G01 X-46.0502 Y40.7180 
G01 X-46.0502 Y48.1820 
G01 X-46.3913 Y48.8643 
G01 X-46.5248 Y48.7963 
G01 X-46.6864 Y48.7438 
G01 X-46.8542 Y48.7172 
G01 X-47.0242 Y48.7172 
G01 X-47.1920 Y48.7438 
G01 X-47.3536 Y48.7963 
G01 X-47.5050 Y48.8734 
G01 X-47.6424 Y48.9733 
G01 X-47.7626 Y49.0935 
G01 X-47.8625 Y49.2309 
G01 X-47.9396 Y49.3823 
G01 X-47.9921 Y49.5439 
G01 X-48.0187 Y49.7117 
G01 X-48.0187 Y51.6851 
G01 X-47.9921 Y51.8529 
G01 X-47.9396 Y52.0145 
G01 X-47.8625 Y52.1659 
G01 X-47.7626 Y52.3033 
G01 X-47.6424 Y52.4235 
G01 X-47.5050 Y52.5234 
G01 X-47.3536 Y52.6005 
G01 X-47.3202 Y52.6114 
G01 X-47.3202 Y63.2333 
G01 X-47.4111 Y63.2710 
G01 X-47.5567 Y63.3683 
G01 X-47.6805 Y63.4921 
G01 X-47.7778 Y63.6377 
G01 X-47.8448 Y63.7995 
G01 X-47.8790 Y63.9712 
G01 X-47.8790 Y65.5688 
G01 X-47.8448 Y65.7405 
G01 X-47.7778 Y65.9023 
G01 X-47.6805 Y66.0479 
G01 X-47.5567 Y66.1717 
G01 X-47.4111 Y66.2690 
G01 X-47.2493 Y66.3360 
G01 X-47.0776 Y66.3702 
G01 X-46.9024 Y66.3702 
G01 X-46.7307 Y66.3360 
G01 X-46.5689 Y66.2690 
G01 X-46.4233 Y66.1717 
G01 X-46.2995 Y66.0479 
G01 X-46.2022 Y65.9023 
G01 X-46.1352 Y65.7405 
G01 X-46.1010 Y65.5688 
G01 X-46.1010 Y63.9712 
G01 X-46.1352 Y63.7995 
G01 X-46.2022 Y63.6377 
G01 X-46.2995 Y63.4921 
G01 X-46.4233 Y63.3683 
G01 X-46.5689 Y63.2710 
G01 X-46.6598 Y63.2333 
G01 X-46.6598 Y52.6444 
G01 X-46.5248 Y52.6005 
G01 X-46.3734 Y52.5234 
G01 X-46.2360 Y52.4235 
G01 X-46.1158 Y52.3033 
G01 X-46.0159 Y52.1659 
G01 X-45.9388 Y52.0145 
G01 X-45.8863 Y51.8529 
G01 X-45.8597 Y51.6851 
G01 X-45.8597 Y49.7117 
G01 X-45.8863 Y49.5439 
G01 X-45.9282 Y49.4148 
G01 X-45.4291 Y48.4165 
G01 X-45.4123 Y48.3875 
G01 X-45.4097 Y48.3778 
G01 X-45.4052 Y48.3688 
G01 X-45.3985 Y48.3359 
G01 X-45.3898 Y48.3035 
G01 X-45.3898 Y48.2934 
G01 X-45.3878 Y48.2836 
G01 X-45.3898 Y48.2501 
G01 X-45.3898 Y40.6499 
G01 X-45.3878 Y40.6164 
G01 X-45.3898 Y40.6066 
G01 X-45.3898 Y40.5965 
G01 X-45.3985 Y40.5641 
G01 X-45.4052 Y40.5312 
G01 X-45.4097 Y40.5222 
G01 X-45.4123 Y40.5125 
G01 X-45.4291 Y40.4835 
G01 X-45.9282 Y39.4852 
G01 X-45.8863 Y39.3561 
G01 X-45.8597 Y39.1883 
G01 X-45.8597 Y37.2149 
G01 X-45.8863 Y37.0471 
G01 X-45.9388 Y36.8855 
G01 X-46.0159 Y36.7341 
G01 X-46.1158 Y36.5967 
G00 Z2.5400  
G00 X-53.0098 Y34.2999 
G01 Z-0.1778 F250   
G01 X-53.0078 Y34.2664 F250   
G01 X-53.0098 Y34.2566 
G01 X-53.0098 Y34.2465 
G01 X-53.0185 Y34.2141 
G01 X-53.0252 Y34.1812 
G01 X-53.0297 Y34.1722 
G01 X-53.0323 Y34.1625 
G01 X-53.0491 Y34.1335 
G01 X-56.8397 Y26.5522 
G01 X-56.8423 Y26.5425 
G01 X-56.8591 Y26.5135 
G01 X-56.8741 Y26.4834 
G01 X-56.8808 Y26.4759 
G01 X-56.8858 Y26.4672 
G01 X-56.9095 Y26.4435 
G01 X-56.9318 Y26.4184 
G01 X-56.9402 Y26.4129 
G01 X-56.9472 Y26.4058 
G01 X-56.9763 Y26.3890 
G01 X-57.0043 Y26.3705 
G01 X-57.0139 Y26.3673 
G01 X-57.0225 Y26.3623 
G01 X-57.0549 Y26.3536 
G01 X-57.0868 Y26.3430 
G01 X-57.0968 Y26.3424 
G01 X-57.1065 Y26.3398 
G01 X-57.1401 Y26.3398 
G01 X-57.1736 Y26.3378 
G01 X-57.1834 Y26.3398 
G01 X-63.5435 Y26.3398 
G01 X-63.6275 Y26.3623 
G01 X-63.7027 Y26.4058 
G01 X-71.2559 Y33.9589 
G01 X-71.3017 Y33.9441 
G01 X-71.4700 Y33.9174 
G01 X-73.4500 Y33.9174 
G01 X-73.6183 Y33.9441 
G01 X-73.7804 Y33.9967 
G01 X-73.9322 Y34.0741 
G01 X-74.0701 Y34.1742 
G01 X-74.1906 Y34.2947 
G01 X-74.2907 Y34.4326 
G01 X-74.3681 Y34.5844 
G01 X-74.4207 Y34.7465 
G01 X-74.4474 Y34.9148 
G01 X-74.4474 Y35.0852 
G01 X-74.4207 Y35.2535 
G01 X-74.3681 Y35.4156 
G01 X-74.2907 Y35.5674 
G01 X-74.1906 Y35.7053 
G01 X-74.0701 Y35.8258 
G01 X-73.9322 Y35.9259 
G01 X-73.7804 Y36.0033 
G01 X-73.6183 Y36.0559 
G01 X-73.4500 Y36.0826 
G01 X-71.4700 Y36.0826 
G01 X-71.3017 Y36.0559 
G01 X-71.1396 Y36.0033 
G01 X-70.9878 Y35.9259 
G01 X-70.8499 Y35.8258 
G01 X-70.7294 Y35.7053 
G01 X-70.6293 Y35.5674 
G01 X-70.5519 Y35.4156 
G01 X-70.4993 Y35.2535 
G01 X-70.4726 Y35.0852 
G01 X-70.4726 Y34.9148 
G01 X-70.4993 Y34.7465 
G01 X-70.5519 Y34.5844 
G01 X-70.6293 Y34.4326 
G01 X-70.6993 Y34.3362 
G01 X-63.3632 Y27.0002 
G01 X-57.3541 Y27.0002 
G01 X-53.6702 Y34.3680 
G01 X-53.6702 Y52.1135 
G01 X-53.6477 Y52.1975 
G01 X-53.6042 Y52.2727 
G01 X-52.4002 Y53.4768 
G01 X-52.4002 Y63.2333 
G01 X-52.4911 Y63.2710 
G01 X-52.6367 Y63.3683 
G01 X-52.7605 Y63.4921 
G01 X-52.8578 Y63.6377 
G01 X-52.9248 Y63.7995 
G01 X-52.9590 Y63.9712 
G01 X-52.9590 Y65.5688 
G01 X-52.9248 Y65.7405 
G01 X-52.8578 Y65.9023 
G01 X-52.7605 Y66.0479 
G01 X-52.6367 Y66.1717 
G01 X-52.4911 Y66.2690 
G01 X-52.3293 Y66.3360 
G01 X-52.1576 Y66.3702 
G01 X-51.9824 Y66.3702 
G01 X-51.8107 Y66.3360 
G01 X-51.6489 Y66.2690 
G01 X-51.5033 Y66.1717 
G01 X-51.3795 Y66.0479 
G01 X-51.2822 Y65.9023 
G01 X-51.2152 Y65.7405 
G01 X-51.1810 Y65.5688 
G01 X-51.1810 Y63.9712 
G01 X-51.2152 Y63.7995 
G01 X-51.2822 Y63.6377 
G01 X-51.3795 Y63.4921 
G01 X-51.5033 Y63.3683 
G01 X-51.6489 Y63.2710 
G01 X-51.7398 Y63.2333 
G01 X-51.7398 Y53.2965 
G01 X-51.7623 Y53.2125 
G01 X-51.8058 Y53.1373 
G01 X-51.8672 Y53.0758 
G01 X-53.0098 Y51.9332 
G01 X-53.0098 Y34.2999 
G00 Z2.5400  
G00 X-60.4294 Y34.2947 
G01 Z-0.1778 F250   
G01 X-60.5499 Y34.1742 F250   
G01 X-60.6878 Y34.0741 
G01 X-60.8396 Y33.9967 
G01 X-61.0017 Y33.9441 
G01 X-61.1700 Y33.9174 
G01 X-63.1500 Y33.9174 
G01 X-63.3183 Y33.9441 
G01 X-63.4804 Y33.9967 
G01 X-63.6322 Y34.0741 
G01 X-63.7701 Y34.1742 
G01 X-63.8906 Y34.2947 
G01 X-63.9907 Y34.4326 
G01 X-64.0681 Y34.5844 
G01 X-64.1207 Y34.7465 
G01 X-64.1474 Y34.9148 
G01 X-64.1474 Y35.0852 
G01 X-64.1207 Y35.2535 
G01 X-64.0681 Y35.4156 
G01 X-63.9907 Y35.5674 
G01 X-63.8906 Y35.7053 
G01 X-63.7701 Y35.8258 
G01 X-63.6322 Y35.9259 
G01 X-63.4804 Y36.0033 
G01 X-63.3183 Y36.0559 
G01 X-63.2101 Y36.0731 
G01 X-66.2427 Y39.1058 
G01 X-66.3042 Y39.1673 
G01 X-66.3477 Y39.2425 
G01 X-66.3702 Y39.3265 
G01 X-66.3702 Y46.1928 
G01 X-86.6013 Y25.9617 
G01 X-86.6013 Y24.3117 
G01 X-86.6279 Y24.1439 
G01 X-86.6804 Y23.9823 
G01 X-86.7575 Y23.8309 
G01 X-86.8574 Y23.6935 
G01 X-86.9776 Y23.5733 
G01 X-87.1150 Y23.4734 
G01 X-87.2664 Y23.3963 
G01 X-87.2998 Y23.3854 
G01 X-87.2998 Y14.7146 
G01 X-87.2664 Y14.7037 
G01 X-87.1150 Y14.6266 
G01 X-86.9776 Y14.5267 
G01 X-86.8574 Y14.4065 
G01 X-86.7575 Y14.2691 
G01 X-86.6804 Y14.1177 
G01 X-86.6279 Y13.9561 
G01 X-86.6013 Y13.7883 
G01 X-86.6013 Y11.8149 
G01 X-86.6279 Y11.6471 
G01 X-86.6804 Y11.4855 
G01 X-86.7575 Y11.3341 
G01 X-86.8574 Y11.1967 
G01 X-86.9776 Y11.0765 
G01 X-87.1150 Y10.9766 
G01 X-87.2664 Y10.8995 
G01 X-87.4280 Y10.8470 
G01 X-87.5958 Y10.8204 
G01 X-87.7658 Y10.8204 
G01 X-87.9336 Y10.8470 
G01 X-88.0952 Y10.8995 
G01 X-88.2466 Y10.9766 
G01 X-88.3840 Y11.0765 
G01 X-88.5042 Y11.1967 
G01 X-88.6041 Y11.3341 
G01 X-88.6812 Y11.4855 
G01 X-88.7337 Y11.6471 
G01 X-88.7603 Y11.8149 
G01 X-88.7603 Y13.7883 
G01 X-88.7337 Y13.9561 
G01 X-88.6812 Y14.1177 
G01 X-88.6041 Y14.2691 
G01 X-88.5042 Y14.4065 
G01 X-88.3840 Y14.5267 
G01 X-88.2466 Y14.6266 
G01 X-88.0952 Y14.7037 
G01 X-87.9602 Y14.7476 
G01 X-87.9602 Y23.3524 
G01 X-88.0952 Y23.3963 
G01 X-88.2466 Y23.4734 
G01 X-88.3840 Y23.5733 
G01 X-88.5042 Y23.6935 
G01 X-88.6041 Y23.8309 
G01 X-88.6812 Y23.9823 
G01 X-88.7337 Y24.1439 
G01 X-88.7603 Y24.3117 
G01 X-88.7603 Y26.2851 
G01 X-88.7337 Y26.4529 
G01 X-88.6812 Y26.6145 
G01 X-88.6041 Y26.7659 
G01 X-88.5042 Y26.9033 
G01 X-88.3840 Y27.0235 
G01 X-88.2466 Y27.1234 
G01 X-88.0952 Y27.2005 
G01 X-87.9336 Y27.2530 
G01 X-87.7658 Y27.2796 
G01 X-87.5958 Y27.2796 
G01 X-87.4280 Y27.2530 
G01 X-87.2664 Y27.2005 
G01 X-87.1150 Y27.1234 
G01 X-86.9776 Y27.0235 
G01 X-86.8574 Y26.9033 
G01 X-86.7575 Y26.7659 
G01 X-86.7486 Y26.7484 
G01 X-66.3702 Y47.1268 
G01 X-66.3702 Y59.7335 
G01 X-66.3477 Y59.8175 
G01 X-66.3042 Y59.8927 
G01 X-65.1002 Y61.0968 
G01 X-65.1002 Y63.2333 
G01 X-65.1911 Y63.2710 
G01 X-65.3367 Y63.3683 
G01 X-65.4605 Y63.4921 
G01 X-65.5578 Y63.6377 
G01 X-65.6248 Y63.7995 
G01 X-65.6590 Y63.9712 
G01 X-65.6590 Y65.5688 
G01 X-65.6248 Y65.7405 
G01 X-65.5578 Y65.9023 
G01 X-65.4605 Y66.0479 
G01 X-65.3367 Y66.1717 
G01 X-65.1911 Y66.2690 
G01 X-65.0293 Y66.3360 
G01 X-64.8576 Y66.3702 
G01 X-64.6824 Y66.3702 
G01 X-64.5107 Y66.3360 
G01 X-64.3489 Y66.2690 
G01 X-64.2033 Y66.1717 
G01 X-64.0795 Y66.0479 
G01 X-63.9822 Y65.9023 
G01 X-63.9152 Y65.7405 
G01 X-63.8810 Y65.5688 
G01 X-63.8810 Y63.9712 
G01 X-63.9152 Y63.7995 
G01 X-63.9822 Y63.6377 
G01 X-64.0795 Y63.4921 
G01 X-64.2033 Y63.3683 
G01 X-64.3489 Y63.2710 
G01 X-64.4398 Y63.2333 
G01 X-64.4398 Y60.9165 
G01 X-64.4623 Y60.8325 
G01 X-64.5058 Y60.7572 
G01 X-65.7098 Y59.5532 
G01 X-65.7098 Y39.5068 
G01 X-62.2856 Y36.0826 
G01 X-61.1700 Y36.0826 
G01 X-61.0017 Y36.0559 
G01 X-60.8396 Y36.0033 
G01 X-60.6878 Y35.9259 
G01 X-60.5499 Y35.8258 
G01 X-60.4294 Y35.7053 
G01 X-60.3293 Y35.5674 
G01 X-60.2519 Y35.4156 
G01 X-60.1993 Y35.2535 
G01 X-60.1726 Y35.0852 
G01 X-60.1726 Y34.9148 
G01 X-60.1993 Y34.7465 
G01 X-60.2519 Y34.5844 
G01 X-60.3293 Y34.4326 
G01 X-60.4294 Y34.2947 
G00 Z2.5400  
G00 X-60.7288 Y32.0632 
G01 Z-0.1778 F250   
G01 X-60.5920 Y31.9264 F250   
G01 X-60.4844 Y31.7654 
G01 X-60.4104 Y31.5866 
G01 X-60.3726 Y31.3968 
G01 X-60.3726 Y31.2032 
G01 X-60.4104 Y31.0134 
G01 X-60.4844 Y30.8346 
G01 X-60.5920 Y30.6736 
G01 X-60.7288 Y30.5368 
G01 X-60.8898 Y30.4292 
G01 X-61.0686 Y30.3552 
G01 X-61.2584 Y30.3174 
G01 X-63.0616 Y30.3174 
G01 X-63.2514 Y30.3552 
G01 X-63.4302 Y30.4292 
G01 X-63.5912 Y30.5368 
G01 X-63.7280 Y30.6736 
G01 X-63.8356 Y30.8346 
G01 X-63.9096 Y31.0134 
G01 X-63.9474 Y31.2032 
G01 X-63.9474 Y31.3968 
G01 X-63.9428 Y31.4198 
G01 X-66.0835 Y31.4198 
G01 X-66.1675 Y31.4423 
G01 X-66.2427 Y31.4858 
G01 X-71.2568 Y36.4998 
G01 X-73.5232 Y36.4998 
G01 X-84.6230 Y25.4000 
G01 X-83.5558 Y24.3327 
G01 X-83.5123 Y24.2574 
G01 X-83.4898 Y24.1735 
G01 X-83.4898 Y12.6565 
G01 X-83.5123 Y12.5725 
G01 X-83.5558 Y12.4972 
G01 X-86.0958 Y9.9573  
G01 X-86.1573 Y9.8958  
G01 X-86.2325 Y9.8523  
G01 X-86.3165 Y9.8298  
G01 X-94.0235 Y9.8298  
G01 X-94.1075 Y9.8523  
G01 X-94.1827 Y9.8958  
G01 X-96.7227 Y12.4358 
G01 X-96.7842 Y12.4972 
G01 X-96.8277 Y12.5725 
G01 X-96.8502 Y12.6565 
G01 X-96.8502 Y34.3335 
G01 X-96.8277 Y34.4175 
G01 X-96.7842 Y34.4927 
G01 X-93.7387 Y37.5383 
G01 X-93.7387 Y39.1883 
G01 X-93.7121 Y39.3561 
G01 X-93.6596 Y39.5177 
G01 X-93.5825 Y39.6691 
G01 X-93.4826 Y39.8065 
G01 X-93.3624 Y39.9267 
G01 X-93.2250 Y40.0266 
G01 X-93.0736 Y40.1037 
G01 X-93.0402 Y40.1146 
G01 X-93.0402 Y48.7854 
G01 X-93.0736 Y48.7963 
G01 X-93.2250 Y48.8734 
G01 X-93.3624 Y48.9733 
G01 X-93.4826 Y49.0935 
G01 X-93.5825 Y49.2309 
G01 X-93.6596 Y49.3823 
G01 X-93.7121 Y49.5439 
G01 X-93.7387 Y49.7117 
G01 X-93.7387 Y51.6851 
G01 X-93.7121 Y51.8529 
G01 X-93.6596 Y52.0145 
G01 X-93.5825 Y52.1659 
G01 X-93.4826 Y52.3033 
G01 X-93.3624 Y52.4235 
G01 X-93.2250 Y52.5234 
G01 X-93.0736 Y52.6005 
G01 X-92.9120 Y52.6530 
G01 X-92.7442 Y52.6796 
G01 X-92.5742 Y52.6796 
G01 X-92.4064 Y52.6530 
G01 X-92.2448 Y52.6005 
G01 X-92.0934 Y52.5234 
G01 X-91.9560 Y52.4235 
G01 X-91.8358 Y52.3033 
G01 X-91.7359 Y52.1659 
G01 X-91.6588 Y52.0145 
G01 X-91.6063 Y51.8529 
G01 X-91.5797 Y51.6851 
G01 X-91.5797 Y49.7117 
G01 X-91.6063 Y49.5439 
G01 X-91.6588 Y49.3823 
G01 X-91.7359 Y49.2309 
G01 X-91.8358 Y49.0935 
G01 X-91.9560 Y48.9733 
G01 X-92.0934 Y48.8734 
G01 X-92.2448 Y48.7963 
G01 X-92.3798 Y48.7524 
G01 X-92.3798 Y40.1476 
G01 X-92.2448 Y40.1037 
G01 X-92.0934 Y40.0266 
G01 X-91.9560 Y39.9267 
G01 X-91.8358 Y39.8065 
G01 X-91.7359 Y39.6691 
G01 X-91.6588 Y39.5177 
G01 X-91.6063 Y39.3561 
G01 X-91.5797 Y39.1883 
G01 X-91.5797 Y37.2149 
G01 X-91.6063 Y37.0471 
G01 X-91.6588 Y36.8855 
G01 X-91.7359 Y36.7341 
G01 X-91.8358 Y36.5967 
G01 X-91.9560 Y36.4765 
G01 X-92.0934 Y36.3766 
G01 X-92.2448 Y36.2995 
G01 X-92.4064 Y36.2470 
G01 X-92.5742 Y36.2204 
G01 X-92.7442 Y36.2204 
G01 X-92.9120 Y36.2470 
G01 X-93.0736 Y36.2995 
G01 X-93.2250 Y36.3766 
G01 X-93.3624 Y36.4765 
G01 X-93.4826 Y36.5967 
G01 X-93.5825 Y36.7341 
G01 X-93.5914 Y36.7516 
G01 X-96.1898 Y34.1532 
G01 X-96.1898 Y12.8368 
G01 X-93.8432 Y10.4902 
G01 X-91.5768 Y10.4902 
G01 X-90.5002 Y11.5668 
G01 X-90.5002 Y26.7135 
G01 X-90.4777 Y26.7975 
G01 X-90.4342 Y26.8727 
G01 X-90.3727 Y26.9342 
G01 X-68.7827 Y48.5242 
G01 X-68.7074 Y48.5677 
G01 X-68.6235 Y48.5902 
G01 X-67.6402 Y48.5902 
G01 X-67.6402 Y63.2333 
G01 X-67.7311 Y63.2710 
G01 X-67.8767 Y63.3683 
G01 X-68.0005 Y63.4921 
G01 X-68.0978 Y63.6377 
G01 X-68.1648 Y63.7995 
G01 X-68.1990 Y63.9712 
G01 X-68.1990 Y65.5688 
G01 X-68.1648 Y65.7405 
G01 X-68.0978 Y65.9023 
G01 X-68.0005 Y66.0479 
G01 X-67.8767 Y66.1717 
G01 X-67.7311 Y66.2690 
G01 X-67.5693 Y66.3360 
G01 X-67.3976 Y66.3702 
G01 X-67.2224 Y66.3702 
G01 X-67.0507 Y66.3360 
G01 X-66.8889 Y66.2690 
G01 X-66.7433 Y66.1717 
G01 X-66.6195 Y66.0479 
G01 X-66.5222 Y65.9023 
G01 X-66.4552 Y65.7405 
G01 X-66.4210 Y65.5688 
G01 X-66.4210 Y63.9712 
G01 X-66.4552 Y63.7995 
G01 X-66.5222 Y63.6377 
G01 X-66.6195 Y63.4921 
G01 X-66.7433 Y63.3683 
G01 X-66.8889 Y63.2710 
G01 X-66.9798 Y63.2333 
G01 X-66.9798 Y48.2165 
G01 X-67.0023 Y48.1325 
G01 X-67.0458 Y48.0573 
G01 X-67.1072 Y47.9958 
G01 X-67.1825 Y47.9523 
G01 X-67.2665 Y47.9298 
G01 X-68.4432 Y47.9298 
G01 X-89.8398 Y26.5332 
G01 X-89.8398 Y11.3865 
G01 X-89.8623 Y11.3025 
G01 X-89.9058 Y11.2272 
G01 X-90.6428 Y10.4902 
G01 X-86.4968 Y10.4902 
G01 X-84.1502 Y12.8368 
G01 X-84.1502 Y23.9932 
G01 X-85.3542 Y25.1973 
G01 X-85.3977 Y25.2725 
G01 X-85.4202 Y25.3565 
G01 X-85.4202 Y25.4435 
G01 X-85.3977 Y25.5275 
G01 X-85.3542 Y25.6027 
G01 X-85.2927 Y25.6642 
G01 X-73.8627 Y37.0942 
G01 X-73.7875 Y37.1377 
G01 X-73.7035 Y37.1602 
G01 X-71.0765 Y37.1602 
G01 X-70.9925 Y37.1377 
G01 X-70.9172 Y37.0942 
G01 X-65.9032 Y32.0802 
G01 X-63.5658 Y32.0802 
G01 X-63.4302 Y32.1708 
G01 X-63.2514 Y32.2448 
G01 X-63.0616 Y32.2826 
G01 X-61.2584 Y32.2826 
G01 X-61.0686 Y32.2448 
G01 X-60.8898 Y32.1708 
G01 X-60.7288 Y32.0632 
G00 Z2.5400  
G00 X-60.8396 Y29.5033 
G01 Z-0.1778 F250   
G01 X-60.6878 Y29.4259 F250   
G01 X-60.5499 Y29.3258 
G01 X-60.4294 Y29.2053 
G01 X-60.3293 Y29.0674 
G01 X-60.2519 Y28.9156 
G01 X-60.2242 Y28.8302 
G01 X-58.7502 Y28.8302 
G01 X-58.7502 Y51.2874 
G01 X-59.0602 Y51.2874 
G01 X-59.1255 Y51.3145 
G01 X-59.1755 Y51.3645 
G01 X-59.2026 Y51.4298 
G01 X-59.2026 Y52.7102 
G01 X-59.1755 Y52.7755 
G01 X-59.1255 Y52.8255 
G01 X-59.0602 Y52.8526 
G01 X-57.7798 Y52.8526 
G01 X-57.7145 Y52.8255 
G01 X-57.6645 Y52.7755 
G01 X-57.6374 Y52.7102 
G01 X-57.6374 Y51.4298 
G01 X-57.6645 Y51.3645 
G01 X-57.7145 Y51.3145 
G01 X-57.7798 Y51.2874 
G01 X-58.0898 Y51.2874 
G01 X-58.0898 Y28.4565 
G01 X-58.1123 Y28.3725 
G01 X-58.1558 Y28.2972 
G01 X-58.2172 Y28.2358 
G01 X-58.2925 Y28.1923 
G01 X-58.3765 Y28.1698 
G01 X-60.2242 Y28.1698 
G01 X-60.2519 Y28.0844 
G01 X-60.3293 Y27.9326 
G01 X-60.4294 Y27.7947 
G01 X-60.5499 Y27.6742 
G01 X-60.6878 Y27.5741 
G01 X-60.8396 Y27.4967 
G01 X-61.0017 Y27.4441 
G01 X-61.1700 Y27.4174 
G01 X-63.1500 Y27.4174 
G01 X-63.3183 Y27.4441 
G01 X-63.4804 Y27.4967 
G01 X-63.6322 Y27.5741 
G01 X-63.7701 Y27.6742 
G01 X-63.8906 Y27.7947 
G01 X-63.9907 Y27.9326 
G01 X-64.0681 Y28.0844 
G01 X-64.1207 Y28.2465 
G01 X-64.1474 Y28.4148 
G01 X-64.1474 Y28.5852 
G01 X-64.1207 Y28.7535 
G01 X-64.0681 Y28.9156 
G01 X-63.9907 Y29.0674 
G01 X-63.8906 Y29.2053 
G01 X-63.7701 Y29.3258 
G01 X-63.6322 Y29.4259 
G01 X-63.4804 Y29.5033 
G01 X-63.3183 Y29.5559 
G01 X-63.1500 Y29.5826 
G01 X-61.1700 Y29.5826 
G01 X-61.0017 Y29.5559 
G01 X-60.8396 Y29.5033 
G00 Z2.5400  
G00 X-60.8624 Y55.3466 
G01 Z-0.1778 F250   
G01 X-61.0576 Y55.3466 F250   
G01 X-61.2489 Y55.3847 
G01 X-61.4292 Y55.4593 
G01 X-61.5915 Y55.5677 
G01 X-61.7294 Y55.7057 
G01 X-61.8379 Y55.8680 
G01 X-61.9125 Y56.0483 
G01 X-61.9506 Y56.2396 
G01 X-61.9506 Y58.0604 
G01 X-61.9125 Y58.2517 
G01 X-61.8379 Y58.4320 
G01 X-61.7294 Y58.5943 
G01 X-61.5915 Y58.7322 
G01 X-61.4292 Y58.8407 
G01 X-61.2489 Y58.9153 
G01 X-61.0576 Y58.9534 
G01 X-60.8936 Y58.9534 
G01 X-57.4802 Y62.3668 
G01 X-57.4802 Y63.2333 
G01 X-57.5711 Y63.2710 
G01 X-57.7167 Y63.3683 
G01 X-57.8405 Y63.4921 
G01 X-57.9378 Y63.6377 
G01 X-58.0048 Y63.7995 
G01 X-58.0390 Y63.9712 
G01 X-58.0390 Y65.5688 
G01 X-58.0048 Y65.7405 
G01 X-57.9378 Y65.9023 
G01 X-57.8405 Y66.0479 
G01 X-57.7167 Y66.1717 
G01 X-57.5711 Y66.2690 
G01 X-57.4093 Y66.3360 
G01 X-57.2376 Y66.3702 
G01 X-57.0624 Y66.3702 
G01 X-56.8907 Y66.3360 
G01 X-56.7289 Y66.2690 
G01 X-56.5833 Y66.1717 
G01 X-56.4595 Y66.0479 
G01 X-56.4112 Y65.9757 
G01 X-54.1372 Y68.2498 
G01 X-72.2532 Y68.2498 
G01 X-74.5998 Y65.9032 
G01 X-74.5998 Y57.1065 
G01 X-74.6223 Y57.0225 
G01 X-74.6658 Y56.9472 
G01 X-74.7272 Y56.8858 
G01 X-74.8025 Y56.8423 
G01 X-74.8865 Y56.8198 
G01 X-88.8666 Y56.8198 
G01 X-88.8764 Y56.8178 
G01 X-88.9099 Y56.8198 
G01 X-88.9435 Y56.8198 
G01 X-88.9532 Y56.8224 
G01 X-88.9632 Y56.8230 
G01 X-88.9951 Y56.8336 
G01 X-89.0275 Y56.8423 
G01 X-89.0361 Y56.8473 
G01 X-89.0457 Y56.8505 
G01 X-89.0737 Y56.8690 
G01 X-89.1027 Y56.8858 
G01 X-89.1098 Y56.8929 
G01 X-89.1182 Y56.8984 
G01 X-89.1405 Y56.9235 
G01 X-89.1642 Y56.9472 
G01 X-89.1692 Y56.9559 
G01 X-89.1759 Y56.9634 
G01 X-89.1909 Y56.9935 
G01 X-89.2077 Y57.0225 
G01 X-89.2103 Y57.0322 
G01 X-90.0693 Y58.7502 
G01 X-90.5593 Y58.7502 
G01 X-91.1098 Y59.3007 
G01 X-91.1098 Y60.0793 
G01 X-91.0680 Y60.1210 
G01 X-94.1827 Y63.2358 
G01 X-94.2442 Y63.2972 
G01 X-95.4527 Y64.5058 
G01 X-95.5142 Y64.5673 
G01 X-95.5577 Y64.6425 
G01 X-95.5802 Y64.7265 
G01 X-95.5802 Y93.5018 
G01 X-95.7192 Y93.5593 
G01 X-95.8815 Y93.6677 
G01 X-96.0194 Y93.8057 
G01 X-96.1279 Y93.9680 
G01 X-96.2025 Y94.1483 
G01 X-96.2406 Y94.3396 
G01 X-96.2406 Y96.1604 
G01 X-96.2025 Y96.3517 
G01 X-96.1279 Y96.5320 
G01 X-96.0194 Y96.6943 
G01 X-95.8815 Y96.8322 
G01 X-95.7192 Y96.9407 
G01 X-95.5389 Y97.0153 
G01 X-95.3476 Y97.0534 
G01 X-95.1524 Y97.0534 
G01 X-94.9611 Y97.0153 
G01 X-94.7808 Y96.9407 
G01 X-94.6185 Y96.8322 
G01 X-94.4805 Y96.6943 
G01 X-94.3721 Y96.5320 
G01 X-94.2975 Y96.3517 
G01 X-94.2594 Y96.1604 
G01 X-94.2594 Y94.3396 
G01 X-94.2975 Y94.1483 
G01 X-94.3721 Y93.9680 
G01 X-94.4805 Y93.8057 
G01 X-94.6185 Y93.6677 
G01 X-94.7808 Y93.5593 
G01 X-94.9198 Y93.5018 
G01 X-94.9198 Y64.9068 
G01 X-93.8432 Y63.8302 
G01 X-89.2302 Y63.8302 
G01 X-89.2302 Y66.0835 
G01 X-89.2077 Y66.1675 
G01 X-89.1642 Y66.2427 
G01 X-89.1027 Y66.3042 
G01 X-80.7153 Y74.6916 
G01 X-80.7794 Y74.7557 
G01 X-80.8879 Y74.9180 
G01 X-80.9625 Y75.0982 
G01 X-81.0006 Y75.2896 
G01 X-81.0006 Y77.1104 
G01 X-80.9625 Y77.3017 
G01 X-80.8879 Y77.4820 
G01 X-80.7794 Y77.6443 
G01 X-80.6415 Y77.7822 
G01 X-80.4792 Y77.8907 
G01 X-80.2989 Y77.9653 
G01 X-80.1076 Y78.0034 
G01 X-79.9124 Y78.0034 
G01 X-79.7211 Y77.9653 
G01 X-79.5408 Y77.8907 
G01 X-79.3785 Y77.7822 
G01 X-79.2405 Y77.6443 
G01 X-79.1321 Y77.4820 
G01 X-79.0575 Y77.3017 
G01 X-79.0194 Y77.1104 
G01 X-79.0194 Y75.2896 
G01 X-79.0575 Y75.0982 
G01 X-79.1321 Y74.9180 
G01 X-79.2405 Y74.7557 
G01 X-79.3047 Y74.6916 
G01 X-78.6032 Y73.9902 
G01 X-76.3368 Y73.9902 
G01 X-75.2602 Y75.0668 
G01 X-75.2602 Y93.5018 
G01 X-75.3992 Y93.5593 
G01 X-75.5615 Y93.6677 
G01 X-75.6994 Y93.8057 
G01 X-75.8079 Y93.9680 
G01 X-75.8825 Y94.1483 
G01 X-75.9206 Y94.3396 
G01 X-75.9206 Y94.9198 
G01 X-76.4794 Y94.9198 
G01 X-76.4794 Y94.3396 
G01 X-76.5175 Y94.1483 
G01 X-76.5921 Y93.9680 
G01 X-76.7006 Y93.8057 
G01 X-76.8385 Y93.6677 
G01 X-77.0008 Y93.5593 
G01 X-77.1810 Y93.4847 
G01 X-77.3724 Y93.4466 
G01 X-77.5676 Y93.4466 
G01 X-77.7589 Y93.4847 
G01 X-77.9392 Y93.5593 
G01 X-78.1015 Y93.6677 
G01 X-78.2394 Y93.8057 
G01 X-78.3479 Y93.9680 
G01 X-78.4225 Y94.1483 
G01 X-78.4606 Y94.3396 
G01 X-78.4606 Y94.9198 
G01 X-79.0194 Y94.9198 
G01 X-79.0194 Y94.3396 
G01 X-79.0575 Y94.1483 
G01 X-79.1321 Y93.9680 
G01 X-79.2405 Y93.8057 
G01 X-79.3785 Y93.6677 
G01 X-79.5408 Y93.5593 
G01 X-79.6798 Y93.5018 
G01 X-79.6798 Y84.7090 
G01 X-79.6418 Y84.7090 
G01 X-79.1210 Y84.1882 
G01 X-79.1210 Y83.4518 
G01 X-79.6418 Y82.9310 
G01 X-80.3782 Y82.9310 
G01 X-80.8990 Y83.4518 
G01 X-80.8990 Y84.1882 
G01 X-80.3782 Y84.7090 
G01 X-80.3402 Y84.7090 
G01 X-80.3402 Y88.5698 
G01 X-85.1335 Y88.5698 
G01 X-85.2174 Y88.5923 
G01 X-85.2927 Y88.6358 
G01 X-85.3542 Y88.6972 
G01 X-85.3977 Y88.7725 
G01 X-85.4202 Y88.8565 
G01 X-85.4202 Y93.5018 
G01 X-85.5592 Y93.5593 
G01 X-85.7215 Y93.6677 
G01 X-85.8594 Y93.8057 
G01 X-85.9679 Y93.9680 
G01 X-86.0425 Y94.1483 
G01 X-86.0806 Y94.3396 
G01 X-86.0806 Y96.1604 
G01 X-86.0425 Y96.3517 
G01 X-85.9679 Y96.5320 
G01 X-85.8594 Y96.6943 
G01 X-85.7215 Y96.8322 
G01 X-85.5592 Y96.9407 
G01 X-85.3789 Y97.0153 
G01 X-85.1876 Y97.0534 
G01 X-84.9924 Y97.0534 
G01 X-84.8011 Y97.0153 
G01 X-84.6208 Y96.9407 
G01 X-84.4585 Y96.8322 
G01 X-84.3205 Y96.6943 
G01 X-84.2121 Y96.5320 
G01 X-84.1375 Y96.3517 
G01 X-84.0994 Y96.1604 
G01 X-84.0994 Y94.3396 
G01 X-84.1375 Y94.1483 
G01 X-84.2121 Y93.9680 
G01 X-84.3205 Y93.8057 
G01 X-84.4585 Y93.6677 
G01 X-84.6208 Y93.5593 
G01 X-84.7598 Y93.5018 
G01 X-84.7598 Y89.2302 
G01 X-80.3402 Y89.2302 
G01 X-80.3402 Y93.5018 
G01 X-80.4792 Y93.5593 
G01 X-80.6415 Y93.6677 
G01 X-80.7794 Y93.8057 
G01 X-80.8879 Y93.9680 
G01 X-80.9625 Y94.1483 
G01 X-81.0006 Y94.3396 
G01 X-81.0006 Y96.1604 
G01 X-80.9625 Y96.3517 
G01 X-80.8879 Y96.5320 
G01 X-80.7794 Y96.6943 
G01 X-80.6415 Y96.8322 
G01 X-80.4792 Y96.9407 
G01 X-80.2989 Y97.0153 
G01 X-80.1076 Y97.0534 
G01 X-79.9124 Y97.0534 
G01 X-79.7211 Y97.0153 
G01 X-79.5408 Y96.9407 
G01 X-79.3785 Y96.8322 
G01 X-79.2405 Y96.6943 
G01 X-79.1321 Y96.5320 
G01 X-79.0575 Y96.3517 
G01 X-79.0194 Y96.1604 
G01 X-79.0194 Y95.5802 
G01 X-78.4606 Y95.5802 
G01 X-78.4606 Y96.1604 
G01 X-78.4225 Y96.3517 
G01 X-78.3479 Y96.5320 
G01 X-78.2394 Y96.6943 
G01 X-78.1015 Y96.8322 
G01 X-77.9392 Y96.9407 
G01 X-77.7589 Y97.0153 
G01 X-77.5676 Y97.0534 
G01 X-77.3724 Y97.0534 
G01 X-77.1810 Y97.0153 
G01 X-77.0008 Y96.9407 
G01 X-76.8385 Y96.8322 
G01 X-76.7006 Y96.6943 
G01 X-76.5921 Y96.5320 
G01 X-76.5175 Y96.3517 
G01 X-76.4794 Y96.1604 
G01 X-76.4794 Y95.5802 
G01 X-75.9206 Y95.5802 
G01 X-75.9206 Y96.1604 
G01 X-75.8825 Y96.3517 
G01 X-75.8079 Y96.5320 
G01 X-75.6994 Y96.6943 
G01 X-75.5615 Y96.8322 
G01 X-75.3992 Y96.9407 
G01 X-75.2189 Y97.0153 
G01 X-75.0276 Y97.0534 
G01 X-74.8324 Y97.0534 
G01 X-74.6411 Y97.0153 
G01 X-74.4608 Y96.9407 
G01 X-74.2985 Y96.8322 
G01 X-74.1606 Y96.6943 
G01 X-74.0521 Y96.5320 
G01 X-73.9775 Y96.3517 
G01 X-73.9394 Y96.1604 
G01 X-73.9394 Y95.5802 
G01 X-73.3806 Y95.5802 
G01 X-73.3806 Y96.1604 
G01 X-73.3425 Y96.3517 
G01 X-73.2679 Y96.5320 
G01 X-73.1594 Y96.6943 
G01 X-73.0215 Y96.8322 
G01 X-72.8592 Y96.9407 
G01 X-72.6789 Y97.0153 
G01 X-72.4876 Y97.0534 
G01 X-72.2924 Y97.0534 
G01 X-72.1011 Y97.0153 
G01 X-71.9208 Y96.9407 
G01 X-71.7585 Y96.8322 
G01 X-71.6205 Y96.6943 
G01 X-71.5121 Y96.5320 
G01 X-71.4375 Y96.3517 
G01 X-71.3994 Y96.1604 
G01 X-71.3994 Y94.3396 
G01 X-71.4375 Y94.1483 
G01 X-71.5121 Y93.9680 
G01 X-71.6205 Y93.8057 
G01 X-71.7585 Y93.6677 
G01 X-71.9208 Y93.5593 
G01 X-72.1011 Y93.4847 
G01 X-72.2924 Y93.4466 
G01 X-72.4876 Y93.4466 
G01 X-72.6789 Y93.4847 
G01 X-72.8592 Y93.5593 
G01 X-73.0215 Y93.6677 
G01 X-73.1594 Y93.8057 
G01 X-73.2679 Y93.9680 
G01 X-73.3425 Y94.1483 
G01 X-73.3806 Y94.3396 
G01 X-73.3806 Y94.9198 
G01 X-73.9394 Y94.9198 
G01 X-73.9394 Y94.3396 
G01 X-73.9775 Y94.1483 
G01 X-74.0521 Y93.9680 
G01 X-74.1606 Y93.8057 
G01 X-74.2985 Y93.6677 
G01 X-74.4608 Y93.5593 
G01 X-74.5998 Y93.5018 
G01 X-74.5998 Y74.8865 
G01 X-74.6223 Y74.8025 
G01 X-74.6658 Y74.7272 
G01 X-74.7272 Y74.6658 
G01 X-75.9972 Y73.3958 
G01 X-76.0725 Y73.3523 
G01 X-76.1565 Y73.3298 
G01 X-78.7835 Y73.3298 
G01 X-78.8675 Y73.3523 
G01 X-78.9427 Y73.3958 
G01 X-79.0042 Y73.4573 
G01 X-79.9436 Y74.3966 
G01 X-80.0764 Y74.3966 
G01 X-88.5698 Y65.9032 
G01 X-88.5698 Y63.4565 
G01 X-88.5923 Y63.3725 
G01 X-88.6358 Y63.2972 
G01 X-88.6972 Y63.2358 
G01 X-88.7725 Y63.1923 
G01 X-88.8565 Y63.1698 
G01 X-93.1828 Y63.1698 
G01 X-90.6011 Y60.5880 
G01 X-90.5593 Y60.6298 
G01 X-89.7807 Y60.6298 
G01 X-89.2302 Y60.0793 
G01 X-89.2302 Y59.3007 
G01 X-89.4809 Y59.0501 
G01 X-88.6959 Y57.4802 
G01 X-75.2602 Y57.4802 
G01 X-75.2602 Y66.0835 
G01 X-75.2377 Y66.1675 
G01 X-75.1942 Y66.2427 
G01 X-75.1327 Y66.3042 
G01 X-72.6542 Y68.7827 
G01 X-72.5927 Y68.8442 
G01 X-72.5174 Y68.8877 
G01 X-72.4335 Y68.9102 
G01 X-48.5902 Y68.9102 
G01 X-48.5902 Y77.1398 
G01 X-51.1810 Y77.1398 
G01 X-51.1810 Y77.1018 
G01 X-51.7018 Y76.5810 
G01 X-52.4382 Y76.5810 
G01 X-52.4651 Y76.6079 
G01 X-53.0758 Y75.9972 
G01 X-53.1373 Y75.9358 
G01 X-53.2125 Y75.8923 
G01 X-53.2965 Y75.8698 
G01 X-54.2798 Y75.8698 
G01 X-54.2798 Y73.9267 
G01 X-54.1889 Y73.8890 
G01 X-54.0433 Y73.7917 
G01 X-53.9195 Y73.6679 
G01 X-53.8222 Y73.5223 
G01 X-53.7552 Y73.3605 
G01 X-53.7210 Y73.1888 
G01 X-53.7210 Y71.5912 
G01 X-53.7552 Y71.4195 
G01 X-53.8222 Y71.2577 
G01 X-53.9195 Y71.1121 
G01 X-54.0433 Y70.9883 
G01 X-54.1889 Y70.8910 
G01 X-54.3507 Y70.8240 
G01 X-54.5224 Y70.7898 
G01 X-54.6976 Y70.7898 
G01 X-54.8693 Y70.8240 
G01 X-55.0311 Y70.8910 
G01 X-55.1767 Y70.9883 
G01 X-55.3005 Y71.1121 
G01 X-55.3978 Y71.2577 
G01 X-55.4648 Y71.4195 
G01 X-55.4990 Y71.5912 
G01 X-55.4990 Y73.1888 
G01 X-55.4648 Y73.3605 
G01 X-55.3978 Y73.5223 
G01 X-55.3005 Y73.6679 
G01 X-55.1767 Y73.7917 
G01 X-55.0311 Y73.8890 
G01 X-54.9402 Y73.9267 
G01 X-54.9402 Y76.2435 
G01 X-54.9177 Y76.3274 
G01 X-54.8742 Y76.4027 
G01 X-54.8127 Y76.4642 
G01 X-54.7375 Y76.5077 
G01 X-54.6535 Y76.5302 
G01 X-53.4768 Y76.5302 
G01 X-52.9321 Y77.0749 
G01 X-52.9590 Y77.1018 
G01 X-52.9590 Y77.8382 
G01 X-52.4382 Y78.3590 
G01 X-51.7018 Y78.3590 
G01 X-51.1810 Y77.8382 
G01 X-51.1810 Y77.8002 
G01 X-48.2165 Y77.8002 
G01 X-48.1325 Y77.7777 
G01 X-48.0573 Y77.7342 
G01 X-47.9958 Y77.6727 
G01 X-47.9523 Y77.5974 
G01 X-47.9298 Y77.5135 
G01 X-47.9298 Y70.1802 
G01 X-43.5102 Y70.1802 
G01 X-43.5102 Y77.5135 
G01 X-43.4877 Y77.5974 
G01 X-43.4442 Y77.6727 
G01 X-43.3827 Y77.7342 
G01 X-43.3075 Y77.7777 
G01 X-43.2235 Y77.8002 
G01 X-39.7002 Y77.8002 
G01 X-39.7002 Y81.3235 
G01 X-39.6777 Y81.4074 
G01 X-39.6342 Y81.4827 
G01 X-39.5727 Y81.5442 
G01 X-36.4221 Y84.6949 
G01 X-36.4490 Y84.7218 
G01 X-36.4490 Y85.4582 
G01 X-35.9282 Y85.9790 
G01 X-35.1918 Y85.9790 
G01 X-34.6710 Y85.4582 
G01 X-34.6710 Y85.4202 
G01 X-32.2282 Y85.4202 
G01 X-32.1707 Y85.5592 
G01 X-32.0622 Y85.7215 
G01 X-31.9243 Y85.8594 
G01 X-31.7620 Y85.9679 
G01 X-31.5817 Y86.0425 
G01 X-31.3904 Y86.0806 
G01 X-29.5696 Y86.0806 
G01 X-29.3783 Y86.0425 
G01 X-29.1980 Y85.9679 
G01 X-29.0357 Y85.8594 
G01 X-28.8977 Y85.7215 
G01 X-28.7893 Y85.5592 
G01 X-28.7318 Y85.4202 
G01 X-27.8965 Y85.4202 
G01 X-27.8125 Y85.3977 
G01 X-27.7372 Y85.3542 
G01 X-27.6758 Y85.2927 
G01 X-25.5045 Y83.1215 
G01 X-24.6012 Y83.1215 
G01 X-24.4295 Y83.0873 
G01 X-24.2677 Y83.0203 
G01 X-24.1221 Y82.9230 
G01 X-24.0766 Y82.8775 
G01 X-24.0025 Y82.8577 
G01 X-23.9273 Y82.8142 
G01 X-23.8658 Y82.7527 
G01 X-22.5958 Y81.4827 
G01 X-22.5523 Y81.4074 
G01 X-22.5298 Y81.3235 
G01 X-22.5298 Y78.6965 
G01 X-22.5523 Y78.6125 
G01 X-22.5958 Y78.5373 
G01 X-22.6573 Y78.4758 
G01 X-29.1603 Y71.9727 
G01 X-29.0357 Y71.8894 
G01 X-28.8977 Y71.7515 
G01 X-28.7893 Y71.5892 
G01 X-28.7147 Y71.4089 
G01 X-28.6766 Y71.2176 
G01 X-28.6766 Y71.0224 
G01 X-28.7147 Y70.8311 
G01 X-28.7893 Y70.6508 
G01 X-28.8977 Y70.4885 
G01 X-29.0357 Y70.3505 
G01 X-29.1980 Y70.2421 
G01 X-29.3783 Y70.1675 
G01 X-29.5696 Y70.1294 
G01 X-30.1498 Y70.1294 
G01 X-30.1498 Y69.5706 
G01 X-29.5696 Y69.5706 
G01 X-29.3783 Y69.5325 
G01 X-29.1980 Y69.4579 
G01 X-29.0357 Y69.3494 
G01 X-28.8977 Y69.2115 
G01 X-28.7893 Y69.0492 
G01 X-28.7147 Y68.8689 
G01 X-28.6766 Y68.6776 
G01 X-28.6766 Y68.4824 
G01 X-28.7147 Y68.2910 
G01 X-28.7893 Y68.1108 
G01 X-28.8977 Y67.9485 
G01 X-29.0357 Y67.8106 
G01 X-29.1980 Y67.7021 
G01 X-29.3783 Y67.6275 
G01 X-29.5696 Y67.5894 
G01 X-31.3904 Y67.5894 
G01 X-31.5817 Y67.6275 
G01 X-31.7620 Y67.7021 
G01 X-31.9243 Y67.8106 
G01 X-32.0622 Y67.9485 
G01 X-32.1707 Y68.1108 
G01 X-32.2453 Y68.2910 
G01 X-32.2834 Y68.4824 
G01 X-32.2834 Y68.6776 
G01 X-32.2453 Y68.8689 
G01 X-32.1707 Y69.0492 
G01 X-32.0622 Y69.2115 
G01 X-31.9243 Y69.3494 
G01 X-31.7620 Y69.4579 
G01 X-31.5817 Y69.5325 
G01 X-31.3904 Y69.5706 
G01 X-30.8102 Y69.5706 
G01 X-30.8102 Y70.1294 
G01 X-31.3904 Y70.1294 
G01 X-31.5817 Y70.1675 
G01 X-31.7620 Y70.2421 
G01 X-31.9243 Y70.3505 
G01 X-32.0622 Y70.4885 
G01 X-32.1707 Y70.6508 
G01 X-32.2453 Y70.8311 
G01 X-32.2834 Y71.0224 
G01 X-32.2834 Y71.2176 
G01 X-32.2453 Y71.4089 
G01 X-32.1707 Y71.5892 
G01 X-32.0622 Y71.7515 
G01 X-31.9243 Y71.8894 
G01 X-31.7620 Y71.9979 
G01 X-31.5817 Y72.0725 
G01 X-31.3904 Y72.1106 
G01 X-29.9564 Y72.1106 
G01 X-23.1902 Y78.8768 
G01 X-23.1902 Y81.1432 
G01 X-23.8885 Y81.8415 
G01 X-23.9010 Y81.8114 
G01 X-23.9983 Y81.6658 
G01 X-24.1221 Y81.5420 
G01 X-24.2677 Y81.4447 
G01 X-24.4295 Y81.3777 
G01 X-24.6012 Y81.3435 
G01 X-26.1988 Y81.3435 
G01 X-26.3705 Y81.3777 
G01 X-26.5323 Y81.4447 
G01 X-26.6779 Y81.5420 
G01 X-26.8017 Y81.6658 
G01 X-26.8990 Y81.8114 
G01 X-26.9660 Y81.9732 
G01 X-27.0002 Y82.1449 
G01 X-27.0002 Y82.3201 
G01 X-26.9660 Y82.4918 
G01 X-26.8990 Y82.6536 
G01 X-26.8017 Y82.7992 
G01 X-26.6779 Y82.9230 
G01 X-26.5323 Y83.0203 
G01 X-26.3944 Y83.0774 
G01 X-28.0768 Y84.7598 
G01 X-28.7318 Y84.7598 
G01 X-28.7893 Y84.6208 
G01 X-28.8977 Y84.4585 
G01 X-29.0357 Y84.3205 
G01 X-29.1980 Y84.2121 
G01 X-29.3783 Y84.1375 
G01 X-29.5696 Y84.0994 
G01 X-31.3904 Y84.0994 
G01 X-31.5817 Y84.1375 
G01 X-31.7620 Y84.2121 
G01 X-31.9243 Y84.3205 
G01 X-32.0622 Y84.4585 
G01 X-32.1707 Y84.6208 
G01 X-32.2282 Y84.7598 
G01 X-34.6710 Y84.7598 
G01 X-34.6710 Y84.7218 
G01 X-35.1918 Y84.2010 
G01 X-35.9282 Y84.2010 
G01 X-35.9551 Y84.2279 
G01 X-39.0398 Y81.1432 
G01 X-39.0398 Y77.4265 
G01 X-39.0623 Y77.3425 
G01 X-39.1058 Y77.2673 
G01 X-39.1673 Y77.2058 
G01 X-39.2425 Y77.1623 
G01 X-39.3265 Y77.1398 
G01 X-42.8498 Y77.1398 
G01 X-42.8498 Y69.8065 
G01 X-42.8723 Y69.7225 
G01 X-42.9158 Y69.6472 
G01 X-42.9772 Y69.5858 
G01 X-43.0525 Y69.5423 
G01 X-43.1365 Y69.5198 
G01 X-47.9298 Y69.5198 
G01 X-47.9298 Y68.5365 
G01 X-47.9523 Y68.4525 
G01 X-47.9958 Y68.3773 
G01 X-48.0573 Y68.3158 
G01 X-48.1325 Y68.2723 
G01 X-48.2165 Y68.2498 
G01 X-53.2032 Y68.2498 
G01 X-56.2610 Y65.1920 
G01 X-56.2610 Y63.9712 
G01 X-56.2952 Y63.7995 
G01 X-56.3622 Y63.6377 
G01 X-56.4595 Y63.4921 
G01 X-56.5833 Y63.3683 
G01 X-56.7289 Y63.2710 
G01 X-56.8198 Y63.2333 
G01 X-56.8198 Y62.1865 
G01 X-56.8423 Y62.1025 
G01 X-56.8858 Y62.0273 
G01 X-60.2547 Y58.6584 
G01 X-60.1906 Y58.5943 
G01 X-60.0821 Y58.4320 
G01 X-60.0075 Y58.2517 
G01 X-59.9694 Y58.0604 
G01 X-59.9694 Y56.2396 
G01 X-60.0075 Y56.0483 
G01 X-60.0821 Y55.8680 
G01 X-60.1906 Y55.7057 
G01 X-60.3285 Y55.5677 
G01 X-60.4908 Y55.4593 
G01 X-60.6711 Y55.3847 
G01 X-60.8624 Y55.3466 
G00 Z2.5400  
G00 X-59.8268 Y54.9402 
G01 Z-0.1778 F250   
G01 X-59.1253 Y55.6416 F250   
G01 X-59.1894 Y55.7057 
G01 X-59.2979 Y55.8680 
G01 X-59.3725 Y56.0483 
G01 X-59.4106 Y56.2396 
G01 X-59.4106 Y58.0604 
G01 X-59.3725 Y58.2517 
G01 X-59.2979 Y58.4320 
G01 X-59.1894 Y58.5943 
G01 X-59.0515 Y58.7322 
G01 X-58.8892 Y58.8407 
G01 X-58.7089 Y58.9153 
G01 X-58.5176 Y58.9534 
G01 X-58.3224 Y58.9534 
G01 X-58.1311 Y58.9153 
G01 X-57.9508 Y58.8407 
G01 X-57.7885 Y58.7322 
G01 X-57.6506 Y58.5943 
G01 X-57.5421 Y58.4320 
G01 X-57.4675 Y58.2517 
G01 X-57.4294 Y58.0604 
G01 X-57.4294 Y56.2396 
G01 X-57.4675 Y56.0483 
G01 X-57.5421 Y55.8680 
G01 X-57.6506 Y55.7057 
G01 X-57.7885 Y55.5677 
G01 X-57.9508 Y55.4593 
G01 X-58.1311 Y55.3847 
G01 X-58.3224 Y55.3466 
G01 X-58.4864 Y55.3466 
G01 X-59.4873 Y54.3458 
G01 X-59.5625 Y54.3023 
G01 X-59.6465 Y54.2798 
G01 X-64.8135 Y54.2798 
G01 X-64.8975 Y54.3023 
G01 X-64.9727 Y54.3458 
G01 X-65.0342 Y54.4072 
G01 X-65.0777 Y54.4825 
G01 X-65.1002 Y54.5665 
G01 X-65.1002 Y59.7335 
G01 X-65.0777 Y59.8175 
G01 X-65.0342 Y59.8927 
G01 X-64.9727 Y59.9542 
G01 X-60.5790 Y64.3480 
G01 X-60.5790 Y65.5688 
G01 X-60.5448 Y65.7405 
G01 X-60.4778 Y65.9023 
G01 X-60.3805 Y66.0479 
G01 X-60.2567 Y66.1717 
G01 X-60.1111 Y66.2690 
G01 X-59.9493 Y66.3360 
G01 X-59.7776 Y66.3702 
G01 X-59.6024 Y66.3702 
G01 X-59.4307 Y66.3360 
G01 X-59.2689 Y66.2690 
G01 X-59.1233 Y66.1717 
G01 X-58.9995 Y66.0479 
G01 X-58.9022 Y65.9023 
G01 X-58.8352 Y65.7405 
G01 X-58.8010 Y65.5688 
G01 X-58.8010 Y63.9712 
G01 X-58.8352 Y63.7995 
G01 X-58.9022 Y63.6377 
G01 X-58.9995 Y63.4921 
G01 X-59.1233 Y63.3683 
G01 X-59.2689 Y63.2710 
G01 X-59.4307 Y63.2040 
G01 X-59.6024 Y63.1698 
G01 X-59.7776 Y63.1698 
G01 X-59.9493 Y63.2040 
G01 X-60.1111 Y63.2710 
G01 X-60.2567 Y63.3683 
G01 X-60.3805 Y63.4921 
G01 X-60.4288 Y63.5643 
G01 X-64.4398 Y59.5532 
G01 X-64.4398 Y58.2825 
G01 X-64.3779 Y58.4320 
G01 X-64.2694 Y58.5943 
G01 X-64.1315 Y58.7322 
G01 X-63.9692 Y58.8407 
G01 X-63.7889 Y58.9153 
G01 X-63.5976 Y58.9534 
G01 X-63.4336 Y58.9534 
G01 X-58.7502 Y63.6368 
G01 X-58.7502 Y65.9032 
G01 X-59.6900 Y66.8430 
G01 X-61.3410 Y65.1920 
G01 X-61.3410 Y63.9712 
G01 X-61.3752 Y63.7995 
G01 X-61.4422 Y63.6377 
G01 X-61.5395 Y63.4921 
G01 X-61.6633 Y63.3683 
G01 X-61.8089 Y63.2710 
G01 X-61.9707 Y63.2040 
G01 X-62.1424 Y63.1698 
G01 X-62.3176 Y63.1698 
G01 X-62.4893 Y63.2040 
G01 X-62.6511 Y63.2710 
G01 X-62.7967 Y63.3683 
G01 X-62.9205 Y63.4921 
G01 X-63.0178 Y63.6377 
G01 X-63.0848 Y63.7995 
G01 X-63.1190 Y63.9712 
G01 X-63.1190 Y65.5688 
G01 X-63.0848 Y65.7405 
G01 X-63.0178 Y65.9023 
G01 X-62.9205 Y66.0479 
G01 X-62.7967 Y66.1717 
G01 X-62.6511 Y66.2690 
G01 X-62.4893 Y66.3360 
G01 X-62.3176 Y66.3702 
G01 X-62.1424 Y66.3702 
G01 X-61.9707 Y66.3360 
G01 X-61.8089 Y66.2690 
G01 X-61.6633 Y66.1717 
G01 X-61.5395 Y66.0479 
G01 X-61.4912 Y65.9757 
G01 X-59.9542 Y67.5127 
G01 X-59.8927 Y67.5742 
G01 X-59.8175 Y67.6177 
G01 X-59.7335 Y67.6402 
G01 X-59.6465 Y67.6402 
G01 X-59.5625 Y67.6177 
G01 X-59.4873 Y67.5742 
G01 X-58.2172 Y66.3042 
G01 X-58.1558 Y66.2427 
G01 X-58.1123 Y66.1675 
G01 X-58.0898 Y66.0835 
G01 X-58.0898 Y63.4565 
G01 X-58.1123 Y63.3725 
G01 X-58.1558 Y63.2972 
G01 X-62.7947 Y58.6584 
G01 X-62.7306 Y58.5943 
G01 X-62.6221 Y58.4320 
G01 X-62.5475 Y58.2517 
G01 X-62.5094 Y58.0604 
G01 X-62.5094 Y56.2396 
G01 X-62.5475 Y56.0483 
G01 X-62.6221 Y55.8680 
G01 X-62.7306 Y55.7057 
G01 X-62.8685 Y55.5677 
G01 X-63.0308 Y55.4593 
G01 X-63.2111 Y55.3847 
G01 X-63.4024 Y55.3466 
G01 X-63.5976 Y55.3466 
G01 X-63.7889 Y55.3847 
G01 X-63.9692 Y55.4593 
G01 X-64.1315 Y55.5677 
G01 X-64.2694 Y55.7057 
G01 X-64.3779 Y55.8680 
G01 X-64.4398 Y56.0175 
G01 X-64.4398 Y54.9402 
G01 X-59.8268 Y54.9402 
G00 Z2.5400  
G00 X-69.1445 Y52.8255 
G01 Z-0.1778 F250   
G01 X-69.0945 Y52.7755 F250   
G01 X-69.0674 Y52.7102 
G01 X-69.0674 Y51.4298 
G01 X-69.0945 Y51.3645 
G01 X-69.1445 Y51.3145 
G01 X-69.2098 Y51.2874 
G01 X-70.4902 Y51.2874 
G01 X-70.5555 Y51.3145 
G01 X-70.6055 Y51.3645 
G01 X-70.6326 Y51.4298 
G01 X-70.6326 Y52.7102 
G01 X-70.6055 Y52.7755 
G01 X-70.5555 Y52.8255 
G01 X-70.4902 Y52.8526 
G01 X-70.1802 Y52.8526 
G01 X-70.1802 Y63.2333 
G01 X-70.2711 Y63.2710 
G01 X-70.4167 Y63.3683 
G01 X-70.5405 Y63.4921 
G01 X-70.6378 Y63.6377 
G01 X-70.7048 Y63.7995 
G01 X-70.7390 Y63.9712 
G01 X-70.7390 Y65.5688 
G01 X-70.7048 Y65.7405 
G01 X-70.6378 Y65.9023 
G01 X-70.5405 Y66.0479 
G01 X-70.4167 Y66.1717 
G01 X-70.2711 Y66.2690 
G01 X-70.1093 Y66.3360 
G01 X-69.9376 Y66.3702 
G01 X-69.7624 Y66.3702 
G01 X-69.5907 Y66.3360 
G01 X-69.4289 Y66.2690 
G01 X-69.2833 Y66.1717 
G01 X-69.1595 Y66.0479 
G01 X-69.0622 Y65.9023 
G01 X-68.9952 Y65.7405 
G01 X-68.9610 Y65.5688 
G01 X-68.9610 Y63.9712 
G01 X-68.9952 Y63.7995 
G01 X-69.0622 Y63.6377 
G01 X-69.1595 Y63.4921 
G01 X-69.2833 Y63.3683 
G01 X-69.4289 Y63.2710 
G01 X-69.5198 Y63.2333 
G01 X-69.5198 Y52.8526 
G01 X-69.2098 Y52.8526 
G01 X-69.1445 Y52.8255 
G00 Z2.5400  
G00 X-77.9845 Y58.9845 
G01 Z-0.1778 F250   
G01 X-78.0345 Y58.9345 F250   
G01 X-78.0998 Y58.9074 
G01 X-79.3802 Y58.9074 
G01 X-79.4455 Y58.9345 
G01 X-79.4955 Y58.9845 
G01 X-79.5226 Y59.0498 
G01 X-79.5226 Y59.3598 
G01 X-86.6902 Y59.3598 
G01 X-86.6902 Y59.3007 
G01 X-87.2407 Y58.7502 
G01 X-88.0193 Y58.7502 
G01 X-88.5698 Y59.3007 
G01 X-88.5698 Y60.0793 
G01 X-88.0193 Y60.6298 
G01 X-87.2407 Y60.6298 
G01 X-86.6902 Y60.0793 
G01 X-86.6902 Y60.0202 
G01 X-79.5226 Y60.0202 
G01 X-79.5226 Y60.3302 
G01 X-79.4955 Y60.3955 
G01 X-79.4455 Y60.4455 
G01 X-79.3802 Y60.4726 
G01 X-78.0998 Y60.4726 
G01 X-78.0345 Y60.4455 
G01 X-77.9845 Y60.3955 
G01 X-77.9574 Y60.3302 
G01 X-77.9574 Y59.0498 
G01 X-77.9845 Y58.9845 
G00 Z2.5400  
G00 X-77.4265 Y60.6298 
G01 Z-0.1778 F250   
G01 X-88.9435 Y60.6298 F250   
G01 X-89.0275 Y60.6523 
G01 X-89.1027 Y60.6958 
G01 X-89.7389 Y61.3320 
G01 X-89.7807 Y61.2902 
G01 X-90.5593 Y61.2902 
G01 X-91.1098 Y61.8407 
G01 X-91.1098 Y62.6193 
G01 X-90.5593 Y63.1698 
G01 X-89.7807 Y63.1698 
G01 X-89.2302 Y62.6193 
G01 X-89.2302 Y61.8407 
G01 X-89.2720 Y61.7989 
G01 X-88.7632 Y61.2902 
G01 X-77.8002 Y61.2902 
G01 X-77.8002 Y66.0835 
G01 X-77.7777 Y66.1675 
G01 X-77.7342 Y66.2427 
G01 X-73.8627 Y70.1142 
G01 X-73.7875 Y70.1577 
G01 X-73.7035 Y70.1802 
G01 X-69.9868 Y70.1802 
G01 X-68.1990 Y71.9680 
G01 X-68.1990 Y73.1888 
G01 X-68.1648 Y73.3605 
G01 X-68.0978 Y73.5223 
G01 X-68.0005 Y73.6679 
G01 X-67.8767 Y73.7917 
G01 X-67.7311 Y73.8890 
G01 X-67.6402 Y73.9267 
G01 X-67.6402 Y93.5018 
G01 X-67.7792 Y93.5593 
G01 X-67.9415 Y93.6677 
G01 X-68.0794 Y93.8057 
G01 X-68.1879 Y93.9680 
G01 X-68.2625 Y94.1483 
G01 X-68.3006 Y94.3396 
G01 X-68.3006 Y96.1604 
G01 X-68.2625 Y96.3517 
G01 X-68.1879 Y96.5320 
G01 X-68.0794 Y96.6943 
G01 X-67.9415 Y96.8322 
G01 X-67.7792 Y96.9407 
G01 X-67.5989 Y97.0153 
G01 X-67.4076 Y97.0534 
G01 X-67.2124 Y97.0534 
G01 X-67.0211 Y97.0153 
G01 X-66.8408 Y96.9407 
G01 X-66.6785 Y96.8322 
G01 X-66.5405 Y96.6943 
G01 X-66.4321 Y96.5320 
G01 X-66.3575 Y96.3517 
G01 X-66.3194 Y96.1604 
G01 X-66.3194 Y94.3396 
G01 X-66.3575 Y94.1483 
G01 X-66.4321 Y93.9680 
G01 X-66.5405 Y93.8057 
G01 X-66.6785 Y93.6677 
G01 X-66.8408 Y93.5593 
G01 X-66.9798 Y93.5018 
G01 X-66.9798 Y73.9267 
G01 X-66.8889 Y73.8890 
G01 X-66.7433 Y73.7917 
G01 X-66.6195 Y73.6679 
G01 X-66.5222 Y73.5223 
G01 X-66.4552 Y73.3605 
G01 X-66.4210 Y73.1888 
G01 X-66.4210 Y71.5912 
G01 X-66.4552 Y71.4195 
G01 X-66.5222 Y71.2577 
G01 X-66.6195 Y71.1121 
G01 X-66.7433 Y70.9883 
G01 X-66.8889 Y70.8910 
G01 X-67.0507 Y70.8240 
G01 X-67.2224 Y70.7898 
G01 X-67.3976 Y70.7898 
G01 X-67.5693 Y70.8240 
G01 X-67.7311 Y70.8910 
G01 X-67.8767 Y70.9883 
G01 X-68.0005 Y71.1121 
G01 X-68.0488 Y71.1843 
G01 X-69.5858 Y69.6472 
G01 X-69.6472 Y69.5858 
G01 X-69.7225 Y69.5423 
G01 X-69.8065 Y69.5198 
G01 X-73.5232 Y69.5198 
G01 X-77.1398 Y65.9032 
G01 X-77.1398 Y60.9165 
G01 X-77.1623 Y60.8325 
G01 X-77.2058 Y60.7572 
G01 X-77.2673 Y60.6958 
G01 X-77.3425 Y60.6523 
G01 X-77.4265 Y60.6298 
G00 Z2.5400  
G00 X-79.2545 Y62.7945 
G01 Z-0.1778 F250   
G01 X-79.3045 Y62.7445 F250   
G01 X-79.3698 Y62.7174 
G01 X-80.3256 Y62.7174 
G01 X-81.0773 Y61.9658 
G01 X-81.1525 Y61.9223 
G01 X-81.2365 Y61.8998 
G01 X-86.6902 Y61.8998 
G01 X-86.6902 Y61.8407 
G01 X-87.2407 Y61.2902 
G01 X-88.0193 Y61.2902 
G01 X-88.5698 Y61.8407 
G01 X-88.5698 Y62.6193 
G01 X-88.0193 Y63.1698 
G01 X-87.2407 Y63.1698 
G01 X-86.6902 Y62.6193 
G01 X-86.6902 Y62.5602 
G01 X-81.4168 Y62.5602 
G01 X-80.7926 Y63.1844 
G01 X-80.7926 Y64.1402 
G01 X-80.7655 Y64.2055 
G01 X-80.7155 Y64.2555 
G01 X-80.6502 Y64.2826 
G01 X-79.3698 Y64.2826 
G01 X-79.3045 Y64.2555 
G01 X-79.2545 Y64.2055 
G01 X-79.2274 Y64.1402 
G01 X-79.2274 Y62.8598 
G01 X-79.2545 Y62.7945 
G00 Z2.5400  
G00 X-82.3473 Y64.5058 
G01 Z-0.1778 F250   
G01 X-82.4225 Y64.4623 F250   
G01 X-82.5065 Y64.4398 
G01 X-86.6902 Y64.4398 
G01 X-86.6902 Y64.3807 
G01 X-87.2407 Y63.8302 
G01 X-88.0193 Y63.8302 
G01 X-88.5698 Y64.3807 
G01 X-88.5698 Y65.1593 
G01 X-88.0193 Y65.7098 
G01 X-87.2407 Y65.7098 
G01 X-86.6902 Y65.1593 
G01 X-86.6902 Y65.1002 
G01 X-82.6868 Y65.1002 
G01 X-73.9902 Y73.7968 
G01 X-73.9902 Y81.7674 
G01 X-74.3002 Y81.7674 
G01 X-74.3655 Y81.7945 
G01 X-74.4155 Y81.8445 
G01 X-74.4426 Y81.9098 
G01 X-74.4426 Y83.1902 
G01 X-74.4155 Y83.2555 
G01 X-74.3655 Y83.3055 
G01 X-74.3002 Y83.3326 
G01 X-73.0198 Y83.3326 
G01 X-72.9545 Y83.3055 
G01 X-72.9045 Y83.2555 
G01 X-72.8774 Y83.1902 
G01 X-72.8774 Y81.9098 
G01 X-72.9045 Y81.8445 
G01 X-72.9545 Y81.7945 
G01 X-73.0198 Y81.7674 
G01 X-73.3298 Y81.7674 
G01 X-73.3298 Y73.6165 
G01 X-73.3523 Y73.5325 
G01 X-73.3958 Y73.4573 
G01 X-73.4573 Y73.3958 
G01 X-82.3473 Y64.5058 
G00 Z2.5400  
G00 X-84.7777 Y74.2985 
G01 Z-0.1778 F250   
G01 X-84.9157 Y74.1606 F250   
G01 X-85.0780 Y74.0521 
G01 X-85.2583 Y73.9775 
G01 X-85.4496 Y73.9394 
G01 X-87.2704 Y73.9394 
G01 X-87.4617 Y73.9775 
G01 X-87.6420 Y74.0521 
G01 X-87.8043 Y74.1606 
G01 X-87.9422 Y74.2985 
G01 X-88.0507 Y74.4608 
G01 X-88.1253 Y74.6411 
G01 X-88.1634 Y74.8324 
G01 X-88.1634 Y75.0276 
G01 X-88.1253 Y75.2189 
G01 X-88.0507 Y75.3992 
G01 X-87.9422 Y75.5615 
G01 X-87.8043 Y75.6994 
G01 X-87.6420 Y75.8079 
G01 X-87.4617 Y75.8825 
G01 X-87.2704 Y75.9206 
G01 X-85.8364 Y75.9206 
G01 X-83.0170 Y78.7400 
G01 X-89.3797 Y85.1028 
G01 X-89.5703 Y84.9122 
G01 X-90.7697 Y84.9122 
G01 X-91.6178 Y85.7603 
G01 X-91.6178 Y86.9597 
G01 X-90.7697 Y87.8078 
G01 X-89.5703 Y87.8078 
G01 X-88.7222 Y86.9597 
G01 X-88.7222 Y85.7603 
G01 X-88.9128 Y85.5697 
G01 X-82.5500 Y79.2070 
G01 X-80.8721 Y80.8849 
G01 X-80.8990 Y80.9118 
G01 X-80.8990 Y81.6482 
G01 X-80.3782 Y82.1690 
G01 X-79.6418 Y82.1690 
G01 X-79.1210 Y81.6482 
G01 X-79.1210 Y80.9118 
G01 X-79.6418 Y80.3910 
G01 X-80.3782 Y80.3910 
G01 X-80.4051 Y80.4179 
G01 X-82.2858 Y78.5373 
G01 X-82.3473 Y78.4758 
G01 X-85.0403 Y75.7827 
G01 X-84.9157 Y75.6994 
G01 X-84.7777 Y75.5615 
G01 X-84.6693 Y75.3992 
G01 X-84.5947 Y75.2189 
G01 X-84.5566 Y75.0276 
G01 X-84.5566 Y74.8324 
G01 X-84.5947 Y74.6411 
G01 X-84.6693 Y74.4608 
G01 X-84.7777 Y74.2985 
G00 Z2.5400  
G00 X-78.1015 Y74.6178 
G01 Z-0.1778 F250   
G01 X-78.2394 Y74.7557 F250   
G01 X-78.3479 Y74.9180 
G01 X-78.4225 Y75.0982 
G01 X-78.4606 Y75.2896 
G01 X-78.4606 Y77.1104 
G01 X-78.4225 Y77.3017 
G01 X-78.3479 Y77.4820 
G01 X-78.2394 Y77.6443 
G01 X-78.1015 Y77.7822 
G01 X-77.9392 Y77.8907 
G01 X-77.8002 Y77.9482 
G01 X-77.8002 Y81.6610 
G01 X-78.4732 Y81.6610 
G01 X-78.9940 Y82.1818 
G01 X-78.9940 Y82.9182 
G01 X-78.4732 Y83.4390 
G01 X-77.8002 Y83.4390 
G01 X-77.8002 Y84.3074 
G01 X-78.1102 Y84.3074 
G01 X-78.1755 Y84.3345 
G01 X-78.2255 Y84.3845 
G01 X-78.2526 Y84.4498 
G01 X-78.2526 Y85.7302 
G01 X-78.2255 Y85.7955 
G01 X-78.1755 Y85.8455 
G01 X-78.1102 Y85.8726 
G01 X-76.8298 Y85.8726 
G01 X-76.7645 Y85.8455 
G01 X-76.7145 Y85.7955 
G01 X-76.6874 Y85.7302 
G01 X-76.6874 Y84.4498 
G01 X-76.7145 Y84.3845 
G01 X-76.7645 Y84.3345 
G01 X-76.8298 Y84.3074 
G01 X-77.1398 Y84.3074 
G01 X-77.1398 Y77.9482 
G01 X-77.0008 Y77.8907 
G01 X-76.8385 Y77.7822 
G01 X-76.7006 Y77.6443 
G01 X-76.5921 Y77.4820 
G01 X-76.5175 Y77.3017 
G01 X-76.4794 Y77.1104 
G01 X-76.4794 Y75.2896 
G01 X-76.5175 Y75.0982 
G01 X-76.5921 Y74.9180 
G01 X-76.7006 Y74.7557 
G01 X-76.8385 Y74.6178 
G01 X-77.0008 Y74.5093 
G01 X-77.1810 Y74.4347 
G01 X-77.3724 Y74.3966 
G01 X-77.5676 Y74.3966 
G01 X-77.7589 Y74.4347 
G01 X-77.9392 Y74.5093 
G01 X-78.1015 Y74.6178 
G00 Z2.5400  
G00 X-73.0805 Y73.6679 
G01 Z-0.1778 F250   
G01 X-72.9567 Y73.7917 F250   
G01 X-72.8111 Y73.8890 
G01 X-72.7202 Y73.9267 
G01 X-72.7202 Y79.2274 
G01 X-73.0302 Y79.2274 
G01 X-73.0955 Y79.2545 
G01 X-73.1455 Y79.3045 
G01 X-73.1726 Y79.3698 
G01 X-73.1726 Y80.6502 
G01 X-73.1455 Y80.7155 
G01 X-73.0955 Y80.7655 
G01 X-73.0302 Y80.7926 
G01 X-71.7498 Y80.7926 
G01 X-71.6845 Y80.7655 
G01 X-71.6345 Y80.7155 
G01 X-71.6074 Y80.6502 
G01 X-71.6074 Y79.3698 
G01 X-71.6345 Y79.3045 
G01 X-71.6845 Y79.2545 
G01 X-71.7498 Y79.2274 
G01 X-72.0598 Y79.2274 
G01 X-72.0598 Y73.9267 
G01 X-71.9689 Y73.8890 
G01 X-71.8233 Y73.7917 
G01 X-71.6995 Y73.6679 
G01 X-71.6022 Y73.5223 
G01 X-71.5352 Y73.3605 
G01 X-71.5010 Y73.1888 
G01 X-71.5010 Y71.5912 
G01 X-71.5352 Y71.4195 
G01 X-71.6022 Y71.2577 
G01 X-71.6995 Y71.1121 
G01 X-71.8233 Y70.9883 
G01 X-71.9689 Y70.8910 
G01 X-72.1307 Y70.8240 
G01 X-72.3024 Y70.7898 
G01 X-72.4776 Y70.7898 
G01 X-72.6493 Y70.8240 
G01 X-72.8111 Y70.8910 
G01 X-72.9567 Y70.9883 
G01 X-73.0805 Y71.1121 
G01 X-73.1778 Y71.2577 
G01 X-73.2448 Y71.4195 
G01 X-73.2790 Y71.5912 
G01 X-73.2790 Y73.1888 
G01 X-73.2448 Y73.3605 
G01 X-73.1778 Y73.5223 
G01 X-73.0805 Y73.6679 
G00 Z2.5400  
G00 X-70.5405 Y73.6679 
G01 Z-0.1778 F250   
G01 X-70.4167 Y73.7917 F250   
G01 X-70.2711 Y73.8890 
G01 X-70.1802 Y73.9267 
G01 X-70.1802 Y89.3874 
G01 X-70.4902 Y89.3874 
G01 X-70.5555 Y89.4145 
G01 X-70.6055 Y89.4645 
G01 X-70.6326 Y89.5298 
G01 X-70.6326 Y90.8102 
G01 X-70.6055 Y90.8755 
G01 X-70.5555 Y90.9255 
G01 X-70.4902 Y90.9526 
G01 X-69.2098 Y90.9526 
G01 X-69.1445 Y90.9255 
G01 X-69.0945 Y90.8755 
G01 X-69.0674 Y90.8102 
G01 X-69.0674 Y89.5298 
G01 X-69.0945 Y89.4645 
G01 X-69.1445 Y89.4145 
G01 X-69.2098 Y89.3874 
G01 X-69.5198 Y89.3874 
G01 X-69.5198 Y73.9267 
G01 X-69.4289 Y73.8890 
G01 X-69.2833 Y73.7917 
G01 X-69.1595 Y73.6679 
G01 X-69.0622 Y73.5223 
G01 X-68.9952 Y73.3605 
G01 X-68.9610 Y73.1888 
G01 X-68.9610 Y71.5912 
G01 X-68.9952 Y71.4195 
G01 X-69.0622 Y71.2577 
G01 X-69.1595 Y71.1121 
G01 X-69.2833 Y70.9883 
G01 X-69.4289 Y70.8910 
G01 X-69.5907 Y70.8240 
G01 X-69.7624 Y70.7898 
G01 X-69.9376 Y70.7898 
G01 X-70.1093 Y70.8240 
G01 X-70.2711 Y70.8910 
G01 X-70.4167 Y70.9883 
G01 X-70.5405 Y71.1121 
G01 X-70.6378 Y71.2577 
G01 X-70.7048 Y71.4195 
G01 X-70.7390 Y71.5912 
G01 X-70.7390 Y73.1888 
G01 X-70.7048 Y73.3605 
G01 X-70.6378 Y73.5223 
G01 X-70.5405 Y73.6679 
G00 Z2.5400  
G00 X-65.4605 Y73.6679 
G01 Z-0.1778 F250   
G01 X-65.3367 Y73.7917 F250   
G01 X-65.1911 Y73.8890 
G01 X-65.1002 Y73.9267 
G01 X-65.1002 Y81.7674 
G01 X-65.4102 Y81.7674 
G01 X-65.4755 Y81.7945 
G01 X-65.5255 Y81.8445 
G01 X-65.5526 Y81.9098 
G01 X-65.5526 Y83.1902 
G01 X-65.5255 Y83.2555 
G01 X-65.4755 Y83.3055 
G01 X-65.4102 Y83.3326 
G01 X-65.1002 Y83.3326 
G01 X-65.1002 Y93.5018 
G01 X-65.2392 Y93.5593 
G01 X-65.4015 Y93.6677 
G01 X-65.5394 Y93.8057 
G01 X-65.6479 Y93.9680 
G01 X-65.7225 Y94.1483 
G01 X-65.7606 Y94.3396 
G01 X-65.7606 Y96.1604 
G01 X-65.7225 Y96.3517 
G01 X-65.6479 Y96.5320 
G01 X-65.5394 Y96.6943 
G01 X-65.4015 Y96.8322 
G01 X-65.2392 Y96.9407 
G01 X-65.0589 Y97.0153 
G01 X-64.8676 Y97.0534 
G01 X-64.6724 Y97.0534 
G01 X-64.4810 Y97.0153 
G01 X-64.3008 Y96.9407 
G01 X-64.1385 Y96.8322 
G01 X-64.0006 Y96.6943 
G01 X-63.8921 Y96.5320 
G01 X-63.8175 Y96.3517 
G01 X-63.7794 Y96.1604 
G01 X-63.7794 Y94.3396 
G01 X-63.8175 Y94.1483 
G01 X-63.8921 Y93.9680 
G01 X-64.0006 Y93.8057 
G01 X-64.1385 Y93.6677 
G01 X-64.3008 Y93.5593 
G01 X-64.4398 Y93.5018 
G01 X-64.4398 Y83.3326 
G01 X-64.1298 Y83.3326 
G01 X-64.0645 Y83.3055 
G01 X-64.0145 Y83.2555 
G01 X-63.9874 Y83.1902 
G01 X-63.9874 Y81.9098 
G01 X-64.0145 Y81.8445 
G01 X-64.0645 Y81.7945 
G01 X-64.1298 Y81.7674 
G01 X-64.4398 Y81.7674 
G01 X-64.4398 Y73.9267 
G01 X-64.3489 Y73.8890 
G01 X-64.2033 Y73.7917 
G01 X-64.0795 Y73.6679 
G01 X-63.9822 Y73.5223 
G01 X-63.9152 Y73.3605 
G01 X-63.8810 Y73.1888 
G01 X-63.8810 Y71.5912 
G01 X-63.9152 Y71.4195 
G01 X-63.9822 Y71.2577 
G01 X-64.0795 Y71.1121 
G01 X-64.2033 Y70.9883 
G01 X-64.3489 Y70.8910 
G01 X-64.5107 Y70.8240 
G01 X-64.6824 Y70.7898 
G01 X-64.8576 Y70.7898 
G01 X-65.0293 Y70.8240 
G01 X-65.1911 Y70.8910 
G01 X-65.3367 Y70.9883 
G01 X-65.4605 Y71.1121 
G01 X-65.5578 Y71.2577 
G01 X-65.6248 Y71.4195 
G01 X-65.6590 Y71.5912 
G01 X-65.6590 Y73.1888 
G01 X-65.6248 Y73.3605 
G01 X-65.5578 Y73.5223 
G01 X-65.4605 Y73.6679 
G00 Z2.5400  
G00 X-62.9205 Y73.6679 
G01 Z-0.1778 F250   
G01 X-62.7967 Y73.7917 F250   
G01 X-62.6511 Y73.8890 
G01 X-62.5602 Y73.9267 
G01 X-62.5602 Y76.6874 
G01 X-62.8702 Y76.6874 
G01 X-62.9355 Y76.7145 
G01 X-62.9855 Y76.7645 
G01 X-63.0126 Y76.8298 
G01 X-63.0126 Y78.1102 
G01 X-62.9855 Y78.1755 
G01 X-62.9355 Y78.2255 
G01 X-62.8702 Y78.2526 
G01 X-62.5602 Y78.2526 
G01 X-62.5602 Y93.5018 
G01 X-62.6992 Y93.5593 
G01 X-62.8615 Y93.6677 
G01 X-62.9994 Y93.8057 
G01 X-63.1079 Y93.9680 
G01 X-63.1825 Y94.1483 
G01 X-63.2206 Y94.3396 
G01 X-63.2206 Y96.1604 
G01 X-63.1825 Y96.3517 
G01 X-63.1079 Y96.5320 
G01 X-62.9994 Y96.6943 
G01 X-62.8615 Y96.8322 
G01 X-62.6992 Y96.9407 
G01 X-62.5189 Y97.0153 
G01 X-62.3276 Y97.0534 
G01 X-62.1324 Y97.0534 
G01 X-61.9410 Y97.0153 
G01 X-61.7608 Y96.9407 
G01 X-61.5985 Y96.8322 
G01 X-61.4605 Y96.6943 
G01 X-61.3521 Y96.5320 
G01 X-61.2775 Y96.3517 
G01 X-61.2394 Y96.1604 
G01 X-61.2394 Y94.3396 
G01 X-61.2775 Y94.1483 
G01 X-61.3521 Y93.9680 
G01 X-61.4605 Y93.8057 
G01 X-61.5985 Y93.6677 
G01 X-61.7608 Y93.5593 
G01 X-61.8998 Y93.5018 
G01 X-61.8998 Y78.2526 
G01 X-61.5898 Y78.2526 
G01 X-61.5245 Y78.2255 
G01 X-61.4745 Y78.1755 
G01 X-61.4474 Y78.1102 
G01 X-61.4474 Y76.8298 
G01 X-61.4745 Y76.7645 
G01 X-61.5245 Y76.7145 
G01 X-61.5898 Y76.6874 
G01 X-61.8998 Y76.6874 
G01 X-61.8998 Y73.9267 
G01 X-61.8089 Y73.8890 
G01 X-61.6633 Y73.7917 
G01 X-61.5395 Y73.6679 
G01 X-61.4422 Y73.5223 
G01 X-61.3752 Y73.3605 
G01 X-61.3410 Y73.1888 
G01 X-61.3410 Y71.5912 
G01 X-61.3752 Y71.4195 
G01 X-61.4422 Y71.2577 
G01 X-61.5395 Y71.1121 
G01 X-61.6633 Y70.9883 
G01 X-61.8089 Y70.8910 
G01 X-61.9707 Y70.8240 
G01 X-62.1424 Y70.7898 
G01 X-62.3176 Y70.7898 
G01 X-62.4893 Y70.8240 
G01 X-62.6511 Y70.8910 
G01 X-62.7967 Y70.9883 
G01 X-62.9205 Y71.1121 
G01 X-63.0178 Y71.2577 
G01 X-63.0848 Y71.4195 
G01 X-63.1190 Y71.5912 
G01 X-63.1190 Y73.1888 
G01 X-63.0848 Y73.3605 
G01 X-63.0178 Y73.5223 
G01 X-62.9205 Y73.6679 
G00 Z2.5400  
G00 X-63.1698 Y71.2568 
G01 Z-0.1778 F250   
G01 X-62.0932 Y70.1802 F250   
G01 X-49.8602 Y70.1802 
G01 X-49.8602 Y70.8533 
G01 X-49.9511 Y70.8910 
G01 X-50.0967 Y70.9883 
G01 X-50.2205 Y71.1121 
G01 X-50.3178 Y71.2577 
G01 X-50.3848 Y71.4195 
G01 X-50.4190 Y71.5912 
G01 X-50.4190 Y73.1888 
G01 X-50.3848 Y73.3605 
G01 X-50.3178 Y73.5223 
G01 X-50.2205 Y73.6679 
G01 X-50.0967 Y73.7917 
G01 X-49.9511 Y73.8890 
G01 X-49.7893 Y73.9560 
G01 X-49.6176 Y73.9902 
G01 X-49.4424 Y73.9902 
G01 X-49.2707 Y73.9560 
G01 X-49.1089 Y73.8890 
G01 X-48.9633 Y73.7917 
G01 X-48.8395 Y73.6679 
G01 X-48.7422 Y73.5223 
G01 X-48.6752 Y73.3605 
G01 X-48.6410 Y73.1888 
G01 X-48.6410 Y71.5912 
G01 X-48.6752 Y71.4195 
G01 X-48.7422 Y71.2577 
G01 X-48.8395 Y71.1121 
G01 X-48.9633 Y70.9883 
G01 X-49.1089 Y70.8910 
G01 X-49.1998 Y70.8533 
G01 X-49.1998 Y69.8065 
G01 X-49.2223 Y69.7225 
G01 X-49.2658 Y69.6472 
G01 X-49.3272 Y69.5858 
G01 X-49.4025 Y69.5423 
G01 X-49.4865 Y69.5198 
G01 X-62.2735 Y69.5198 
G01 X-62.3575 Y69.5423 
G01 X-62.4327 Y69.5858 
G01 X-63.7027 Y70.8558 
G01 X-63.7642 Y70.9172 
G01 X-63.8077 Y70.9925 
G01 X-63.8302 Y71.0765 
G01 X-63.8302 Y84.3074 
G01 X-64.1402 Y84.3074 
G01 X-64.2055 Y84.3345 
G01 X-64.2555 Y84.3845 
G01 X-64.2826 Y84.4498 
G01 X-64.2826 Y85.7302 
G01 X-64.2555 Y85.7955 
G01 X-64.2055 Y85.8455 
G01 X-64.1402 Y85.8726 
G01 X-62.8598 Y85.8726 
G01 X-62.7945 Y85.8455 
G01 X-62.7445 Y85.7955 
G01 X-62.7174 Y85.7302 
G01 X-62.7174 Y84.4498 
G01 X-62.7445 Y84.3845 
G01 X-62.7945 Y84.3345 
G01 X-62.8598 Y84.3074 
G01 X-63.1698 Y84.3074 
G01 X-63.1698 Y71.2568 
G00 Z2.5400  
G00 X-59.1255 Y74.1745 
G01 Z-0.1778 F250   
G01 X-59.1755 Y74.2245 F250   
G01 X-59.2026 Y74.2898 
G01 X-59.2026 Y75.5702 
G01 X-59.1755 Y75.6355 
G01 X-59.1255 Y75.6855 
G01 X-59.0602 Y75.7126 
G01 X-58.7502 Y75.7126 
G01 X-58.7502 Y86.8474 
G01 X-59.0602 Y86.8474 
G01 X-59.1255 Y86.8745 
G01 X-59.1755 Y86.9245 
G01 X-59.2026 Y86.9898 
G01 X-59.2026 Y88.2702 
G01 X-59.1755 Y88.3355 
G01 X-59.1255 Y88.3855 
G01 X-59.0602 Y88.4126 
G01 X-57.7798 Y88.4126 
G01 X-57.7145 Y88.3855 
G01 X-57.6645 Y88.3355 
G01 X-57.6374 Y88.2702 
G01 X-57.6374 Y86.9898 
G01 X-57.6645 Y86.9245 
G01 X-57.7145 Y86.8745 
G01 X-57.7798 Y86.8474 
G01 X-58.0898 Y86.8474 
G01 X-58.0898 Y75.7126 
G01 X-57.7798 Y75.7126 
G01 X-57.7145 Y75.6855 
G01 X-57.6645 Y75.6355 
G01 X-57.6374 Y75.5702 
G01 X-57.6374 Y74.2898 
G01 X-57.6645 Y74.2245 
G01 X-57.7145 Y74.1745 
G01 X-57.7798 Y74.1474 
G01 X-59.0602 Y74.1474 
G01 X-59.1255 Y74.1745 
G00 Z2.5400  
G00 X-52.7755 Y74.1745 
G01 Z-0.1778 F250   
G01 X-52.8255 Y74.2245 F250   
G01 X-52.8526 Y74.2898 
G01 X-52.8526 Y75.5702 
G01 X-52.8255 Y75.6355 
G01 X-52.7755 Y75.6855 
G01 X-52.7102 Y75.7126 
G01 X-51.4298 Y75.7126 
G01 X-51.3645 Y75.6855 
G01 X-51.3145 Y75.6355 
G01 X-51.2874 Y75.5702 
G01 X-51.2874 Y74.2898 
G01 X-51.3145 Y74.2245 
G01 X-51.3645 Y74.1745 
G01 X-51.4298 Y74.1474 
G01 X-51.7398 Y74.1474 
G01 X-51.7398 Y73.9267 
G01 X-51.6489 Y73.8890 
G01 X-51.5033 Y73.7917 
G01 X-51.3795 Y73.6679 
G01 X-51.2822 Y73.5223 
G01 X-51.2152 Y73.3605 
G01 X-51.1810 Y73.1888 
G01 X-51.1810 Y71.5912 
G01 X-51.2152 Y71.4195 
G01 X-51.2822 Y71.2577 
G01 X-51.3795 Y71.1121 
G01 X-51.5033 Y70.9883 
G01 X-51.6489 Y70.8910 
G01 X-51.8107 Y70.8240 
G01 X-51.9824 Y70.7898 
G01 X-52.1576 Y70.7898 
G01 X-52.3293 Y70.8240 
G01 X-52.4911 Y70.8910 
G01 X-52.6367 Y70.9883 
G01 X-52.7605 Y71.1121 
G01 X-52.8578 Y71.2577 
G01 X-52.9248 Y71.4195 
G01 X-52.9590 Y71.5912 
G01 X-52.9590 Y73.1888 
G01 X-52.9248 Y73.3605 
G01 X-52.8578 Y73.5223 
G01 X-52.7605 Y73.6679 
G01 X-52.6367 Y73.7917 
G01 X-52.4911 Y73.8890 
G01 X-52.4002 Y73.9267 
G01 X-52.4002 Y74.1474 
G01 X-52.7102 Y74.1474 
G01 X-52.7755 Y74.1745 
G00 Z2.5400  
G00 X-47.6805 Y73.6679 
G01 Z-0.1778 F250   
G01 X-47.5567 Y73.7917 F250   
G01 X-47.4111 Y73.8890 
G01 X-47.3202 Y73.9267 
G01 X-47.3202 Y91.9274 
G01 X-47.6302 Y91.9274 
G01 X-47.6955 Y91.9545 
G01 X-47.7455 Y92.0045 
G01 X-47.7726 Y92.0698 
G01 X-47.7726 Y93.3502 
G01 X-47.7455 Y93.4155 
G01 X-47.6955 Y93.4655 
G01 X-47.6302 Y93.4926 
G01 X-46.3498 Y93.4926 
G01 X-46.2845 Y93.4655 
G01 X-46.2345 Y93.4155 
G01 X-46.2074 Y93.3502 
G01 X-46.2074 Y92.0698 
G01 X-46.2345 Y92.0045 
G01 X-46.2845 Y91.9545 
G01 X-46.3498 Y91.9274 
G01 X-46.6598 Y91.9274 
G01 X-46.6598 Y73.9267 
G01 X-46.5689 Y73.8890 
G01 X-46.4233 Y73.7917 
G01 X-46.2995 Y73.6679 
G01 X-46.2022 Y73.5223 
G01 X-46.1352 Y73.3605 
G01 X-46.1010 Y73.1888 
G01 X-46.1010 Y71.5912 
G01 X-46.1352 Y71.4195 
G01 X-46.2022 Y71.2577 
G01 X-46.2995 Y71.1121 
G01 X-46.4233 Y70.9883 
G01 X-46.5689 Y70.8910 
G01 X-46.7307 Y70.8240 
G01 X-46.9024 Y70.7898 
G01 X-47.0776 Y70.7898 
G01 X-47.2493 Y70.8240 
G01 X-47.4111 Y70.8910 
G01 X-47.5567 Y70.9883 
G01 X-47.6805 Y71.1121 
G01 X-47.7778 Y71.2577 
G01 X-47.8448 Y71.4195 
G01 X-47.8790 Y71.5912 
G01 X-47.8790 Y73.1888 
G01 X-47.8448 Y73.3605 
G01 X-47.7778 Y73.5223 
G01 X-47.6805 Y73.6679 
G00 Z2.5400  
G00 X-45.1405 Y73.6679 
G01 Z-0.1778 F250   
G01 X-45.0167 Y73.7917 F250   
G01 X-44.8711 Y73.8890 
G01 X-44.7802 Y73.9267 
G01 X-44.7802 Y90.6574 
G01 X-45.0902 Y90.6574 
G01 X-45.1555 Y90.6845 
G01 X-45.2055 Y90.7345 
G01 X-45.2326 Y90.7998 
G01 X-45.2326 Y92.0802 
G01 X-45.2055 Y92.1455 
G01 X-45.1555 Y92.1955 
G01 X-45.0902 Y92.2226 
G01 X-43.8098 Y92.2226 
G01 X-43.7445 Y92.1955 
G01 X-43.6945 Y92.1455 
G01 X-43.6674 Y92.0802 
G01 X-43.6674 Y90.7998 
G01 X-43.6945 Y90.7345 
G01 X-43.7445 Y90.6845 
G01 X-43.8098 Y90.6574 
G01 X-44.1198 Y90.6574 
G01 X-44.1198 Y73.9267 
G01 X-44.0289 Y73.8890 
G01 X-43.8833 Y73.7917 
G01 X-43.7595 Y73.6679 
G01 X-43.6622 Y73.5223 
G01 X-43.5952 Y73.3605 
G01 X-43.5610 Y73.1888 
G01 X-43.5610 Y71.5912 
G01 X-43.5952 Y71.4195 
G01 X-43.6622 Y71.2577 
G01 X-43.7595 Y71.1121 
G01 X-43.8833 Y70.9883 
G01 X-44.0289 Y70.8910 
G01 X-44.1907 Y70.8240 
G01 X-44.3624 Y70.7898 
G01 X-44.5376 Y70.7898 
G01 X-44.7093 Y70.8240 
G01 X-44.8711 Y70.8910 
G01 X-45.0167 Y70.9883 
G01 X-45.1405 Y71.1121 
G01 X-45.2378 Y71.2577 
G01 X-45.3048 Y71.4195 
G01 X-45.3390 Y71.5912 
G01 X-45.3390 Y73.1888 
G01 X-45.3048 Y73.3605 
G01 X-45.2378 Y73.5223 
G01 X-45.1405 Y73.6679 
G00 Z2.5400  
G00 X-42.6005 Y73.6679 
G01 Z-0.1778 F250   
G01 X-42.4767 Y73.7917 F250   
G01 X-42.3311 Y73.8890 
G01 X-42.1693 Y73.9560 
G01 X-41.9976 Y73.9902 
G01 X-41.8224 Y73.9902 
G01 X-41.6507 Y73.9560 
G01 X-41.4889 Y73.8890 
G01 X-41.3433 Y73.7917 
G01 X-41.2195 Y73.6679 
G01 X-41.1712 Y73.5957 
G01 X-32.2834 Y82.4836 
G01 X-32.2834 Y82.6476 
G01 X-32.2453 Y82.8389 
G01 X-32.1707 Y83.0192 
G01 X-32.0622 Y83.1815 
G01 X-31.9243 Y83.3194 
G01 X-31.7620 Y83.4279 
G01 X-31.5817 Y83.5025 
G01 X-31.3904 Y83.5406 
G01 X-29.5696 Y83.5406 
G01 X-29.3783 Y83.5025 
G01 X-29.1980 Y83.4279 
G01 X-29.0357 Y83.3194 
G01 X-28.8977 Y83.1815 
G01 X-28.7893 Y83.0192 
G01 X-28.7147 Y82.8389 
G01 X-28.6766 Y82.6476 
G01 X-28.6766 Y82.4524 
G01 X-28.7147 Y82.2610 
G01 X-28.7893 Y82.0808 
G01 X-28.8977 Y81.9185 
G01 X-29.0357 Y81.7806 
G01 X-29.1980 Y81.6721 
G01 X-29.3783 Y81.5975 
G01 X-29.5696 Y81.5594 
G01 X-31.3904 Y81.5594 
G01 X-31.5817 Y81.5975 
G01 X-31.7620 Y81.6721 
G01 X-31.9243 Y81.7806 
G01 X-31.9884 Y81.8447 
G01 X-41.0210 Y72.8120 
G01 X-41.0210 Y71.5912 
G01 X-41.0552 Y71.4195 
G01 X-41.1222 Y71.2577 
G01 X-41.2195 Y71.1121 
G01 X-41.3433 Y70.9883 
G01 X-41.4889 Y70.8910 
G01 X-41.6507 Y70.8240 
G01 X-41.8224 Y70.7898 
G01 X-41.9976 Y70.7898 
G01 X-42.1693 Y70.8240 
G01 X-42.3311 Y70.8910 
G01 X-42.4767 Y70.9883 
G01 X-42.6005 Y71.1121 
G01 X-42.6978 Y71.2577 
G01 X-42.7648 Y71.4195 
G01 X-42.7990 Y71.5912 
G01 X-42.7990 Y73.1888 
G01 X-42.7648 Y73.3605 
G01 X-42.6978 Y73.5223 
G01 X-42.6005 Y73.6679 
G00 Z2.5400  
G00 X-40.0605 Y73.6679 
G01 Z-0.1778 F250   
G01 X-39.9367 Y73.7917 F250   
G01 X-39.7911 Y73.8890 
G01 X-39.6293 Y73.9560 
G01 X-39.4576 Y73.9902 
G01 X-39.2824 Y73.9902 
G01 X-39.1107 Y73.9560 
G01 X-38.9489 Y73.8890 
G01 X-38.8033 Y73.7917 
G01 X-38.6795 Y73.6679 
G01 X-38.6312 Y73.5957 
G01 X-32.2834 Y79.9436 
G01 X-32.2834 Y80.1076 
G01 X-32.2453 Y80.2989 
G01 X-32.1707 Y80.4792 
G01 X-32.0622 Y80.6415 
G01 X-31.9243 Y80.7794 
G01 X-31.7620 Y80.8879 
G01 X-31.5817 Y80.9625 
G01 X-31.3904 Y81.0006 
G01 X-29.5696 Y81.0006 
G01 X-29.3783 Y80.9625 
G01 X-29.1980 Y80.8879 
G01 X-29.0357 Y80.7794 
G01 X-28.8977 Y80.6415 
G01 X-28.7893 Y80.4792 
G01 X-28.7147 Y80.2989 
G01 X-28.6766 Y80.1076 
G01 X-28.6766 Y79.9124 
G01 X-28.7147 Y79.7211 
G01 X-28.7893 Y79.5408 
G01 X-28.8977 Y79.3785 
G01 X-29.0357 Y79.2405 
G01 X-29.1980 Y79.1321 
G01 X-29.3783 Y79.0575 
G01 X-29.5696 Y79.0194 
G01 X-31.3904 Y79.0194 
G01 X-31.5817 Y79.0575 
G01 X-31.7620 Y79.1321 
G01 X-31.9243 Y79.2405 
G01 X-31.9884 Y79.3047 
G01 X-38.4810 Y72.8120 
G01 X-38.4810 Y71.5912 
G01 X-38.5152 Y71.4195 
G01 X-38.5822 Y71.2577 
G01 X-38.6795 Y71.1121 
G01 X-38.8033 Y70.9883 
G01 X-38.9489 Y70.8910 
G01 X-39.1107 Y70.8240 
G01 X-39.2824 Y70.7898 
G01 X-39.4576 Y70.7898 
G01 X-39.6293 Y70.8240 
G01 X-39.7911 Y70.8910 
G01 X-39.9367 Y70.9883 
G01 X-40.0605 Y71.1121 
G01 X-40.1578 Y71.2577 
G01 X-40.2248 Y71.4195 
G01 X-40.2590 Y71.5912 
G01 X-40.2590 Y73.1888 
G01 X-40.2248 Y73.3605 
G01 X-40.1578 Y73.5223 
G01 X-40.0605 Y73.6679 
G00 Z2.5400  
G00 X-41.1545 Y79.3045 
G01 Z-0.1778 F250   
G01 X-41.2045 Y79.2545 F250   
G01 X-41.2698 Y79.2274 
G01 X-42.5502 Y79.2274 
G01 X-42.6155 Y79.2545 
G01 X-42.6655 Y79.3045 
G01 X-42.6926 Y79.3698 
G01 X-42.6926 Y80.6502 
G01 X-42.6655 Y80.7155 
G01 X-42.6155 Y80.7655 
G01 X-42.5502 Y80.7926 
G01 X-42.2402 Y80.7926 
G01 X-42.2402 Y86.4035 
G01 X-42.2177 Y86.4874 
G01 X-42.1742 Y86.5627 
G01 X-42.1127 Y86.6242 
G01 X-42.0374 Y86.6677 
G01 X-41.9535 Y86.6902 
G01 X-38.3540 Y86.6902 
G01 X-38.3540 Y86.7282 
G01 X-37.8332 Y87.2490 
G01 X-37.0968 Y87.2490 
G01 X-36.5760 Y86.7282 
G01 X-36.5760 Y85.9918 
G01 X-37.0968 Y85.4710 
G01 X-37.8332 Y85.4710 
G01 X-38.3540 Y85.9918 
G01 X-38.3540 Y86.0298 
G01 X-41.5798 Y86.0298 
G01 X-41.5798 Y80.7926 
G01 X-41.2698 Y80.7926 
G01 X-41.2045 Y80.7655 
G01 X-41.1545 Y80.7155 
G01 X-41.1274 Y80.6502 
G01 X-41.1274 Y79.3698 
G01 X-41.1545 Y79.3045 
G00 Z2.5400  
G00 X-35.9282 Y86.7410 
G01 Z-0.1778 F250   
G01 X-36.4490 Y87.2618 F250   
G01 X-36.4490 Y87.9982 
G01 X-36.4221 Y88.0251 
G01 X-43.3168 Y94.9198 
G01 X-56.1594 Y94.9198 
G01 X-56.1594 Y94.3396 
G01 X-56.1975 Y94.1483 
G01 X-56.2721 Y93.9680 
G01 X-56.3805 Y93.8057 
G01 X-56.5185 Y93.6677 
G01 X-56.6808 Y93.5593 
G01 X-56.8610 Y93.4847 
G01 X-57.0524 Y93.4466 
G01 X-57.2476 Y93.4466 
G01 X-57.4389 Y93.4847 
G01 X-57.6192 Y93.5593 
G01 X-57.7815 Y93.6677 
G01 X-57.9194 Y93.8057 
G01 X-58.0279 Y93.9680 
G01 X-58.1025 Y94.1483 
G01 X-58.1406 Y94.3396 
G01 X-58.1406 Y96.1604 
G01 X-58.1025 Y96.3517 
G01 X-58.0279 Y96.5320 
G01 X-57.9194 Y96.6943 
G01 X-57.7815 Y96.8322 
G01 X-57.6192 Y96.9407 
G01 X-57.4389 Y97.0153 
G01 X-57.2476 Y97.0534 
G01 X-57.0524 Y97.0534 
G01 X-56.8610 Y97.0153 
G01 X-56.6808 Y96.9407 
G01 X-56.5185 Y96.8322 
G01 X-56.3805 Y96.6943 
G01 X-56.2721 Y96.5320 
G01 X-56.1975 Y96.3517 
G01 X-56.1594 Y96.1604 
G01 X-56.1594 Y95.5802 
G01 X-43.1365 Y95.5802 
G01 X-43.0525 Y95.5577 
G01 X-42.9772 Y95.5142 
G01 X-42.9158 Y95.4527 
G01 X-35.9551 Y88.4921 
G01 X-35.9282 Y88.5190 
G01 X-35.1918 Y88.5190 
G01 X-34.6710 Y87.9982 
G01 X-34.6710 Y87.2618 
G01 X-35.1918 Y86.7410 
G01 X-35.9282 Y86.7410 
G00 Z2.5400  
G00 X-35.7627 Y63.7642 
G01 Z-0.1778 F250   
G01 X-35.6874 Y63.8077 F250   
G01 X-35.6035 Y63.8302 
G01 X-32.2282 Y63.8302 
G01 X-32.1707 Y63.9692 
G01 X-32.0622 Y64.1315 
G01 X-31.9243 Y64.2694 
G01 X-31.7620 Y64.3779 
G01 X-31.5817 Y64.4525 
G01 X-31.3904 Y64.4906 
G01 X-29.5696 Y64.4906 
G01 X-29.3783 Y64.4525 
G01 X-29.1980 Y64.3779 
G01 X-29.0357 Y64.2694 
G01 X-28.8977 Y64.1315 
G01 X-28.7893 Y63.9692 
G01 X-28.7147 Y63.7889 
G01 X-28.6766 Y63.5976 
G01 X-28.6766 Y63.4024 
G01 X-28.7147 Y63.2111 
G01 X-28.7893 Y63.0308 
G01 X-28.8977 Y62.8685 
G01 X-29.0357 Y62.7306 
G01 X-29.1980 Y62.6221 
G01 X-29.3783 Y62.5475 
G01 X-29.5696 Y62.5094 
G01 X-31.3904 Y62.5094 
G01 X-31.5817 Y62.5475 
G01 X-31.7620 Y62.6221 
G01 X-31.9243 Y62.7306 
G01 X-32.0622 Y62.8685 
G01 X-32.1707 Y63.0308 
G01 X-32.2282 Y63.1698 
G01 X-35.4232 Y63.1698 
G01 X-36.4998 Y62.0932 
G01 X-36.4998 Y54.5665 
G01 X-36.5223 Y54.4825 
G01 X-36.5658 Y54.4072 
G01 X-36.6272 Y54.3458 
G01 X-36.7025 Y54.3023 
G01 X-36.7865 Y54.2798 
G01 X-44.4935 Y54.2798 
G01 X-44.5774 Y54.3023 
G01 X-44.6527 Y54.3458 
G01 X-44.7142 Y54.4072 
G01 X-44.7577 Y54.4825 
G01 X-44.7802 Y54.5665 
G01 X-44.7802 Y62.2735 
G01 X-44.7577 Y62.3575 
G01 X-44.7142 Y62.4327 
G01 X-44.6527 Y62.4942 
G01 X-44.5774 Y62.5377 
G01 X-44.4935 Y62.5602 
G01 X-42.2402 Y62.5602 
G01 X-42.2402 Y63.2333 
G01 X-42.3311 Y63.2710 
G01 X-42.4767 Y63.3683 
G01 X-42.6005 Y63.4921 
G01 X-42.6978 Y63.6377 
G01 X-42.7648 Y63.7995 
G01 X-42.7990 Y63.9712 
G01 X-42.7990 Y65.5688 
G01 X-42.7648 Y65.7405 
G01 X-42.6978 Y65.9023 
G01 X-42.6005 Y66.0479 
G01 X-42.4767 Y66.1717 
G01 X-42.3311 Y66.2690 
G01 X-42.1693 Y66.3360 
G01 X-41.9976 Y66.3702 
G01 X-41.8224 Y66.3702 
G01 X-41.6507 Y66.3360 
G01 X-41.4889 Y66.2690 
G01 X-41.3433 Y66.1717 
G01 X-41.2195 Y66.0479 
G01 X-41.1222 Y65.9023 
G01 X-41.0552 Y65.7405 
G01 X-41.0210 Y65.5688 
G01 X-41.0210 Y63.9712 
G01 X-41.0552 Y63.7995 
G01 X-41.1222 Y63.6377 
G01 X-41.2195 Y63.4921 
G01 X-41.3433 Y63.3683 
G01 X-41.4889 Y63.2710 
G01 X-41.5798 Y63.2333 
G01 X-41.5798 Y62.1865 
G01 X-41.6023 Y62.1025 
G01 X-41.6458 Y62.0273 
G01 X-41.7073 Y61.9658 
G01 X-41.7825 Y61.9223 
G01 X-41.8665 Y61.8998 
G01 X-44.1198 Y61.8998 
G01 X-44.1198 Y54.9402 
G01 X-37.1602 Y54.9402 
G01 X-37.1602 Y62.2735 
G01 X-37.1377 Y62.3575 
G01 X-37.0942 Y62.4327 
G01 X-37.0327 Y62.4942 
G01 X-35.7627 Y63.7642 
G00 Z2.5400  
G00 X-38.5152 Y63.7995 
G01 Z-0.1778 F250   
G01 X-38.5822 Y63.6377 F250   
G01 X-38.6795 Y63.4921 
G01 X-38.8033 Y63.3683 
G01 X-38.9489 Y63.2710 
G01 X-39.0398 Y63.2333 
G01 X-39.0398 Y59.3090 
G01 X-39.0018 Y59.3090 
G01 X-38.4810 Y58.7882 
G01 X-38.4810 Y58.0518 
G01 X-39.0018 Y57.5310 
G01 X-39.7382 Y57.5310 
G01 X-39.7651 Y57.5579 
G01 X-40.3758 Y56.9472 
G01 X-40.4372 Y56.8858 
G01 X-40.5125 Y56.8423 
G01 X-40.5965 Y56.8198 
G01 X-42.2910 Y56.8198 
G01 X-42.2910 Y56.7818 
G01 X-42.8118 Y56.2610 
G01 X-43.5482 Y56.2610 
G01 X-44.0690 Y56.7818 
G01 X-44.0690 Y57.5182 
G01 X-43.5482 Y58.0390 
G01 X-42.8118 Y58.0390 
G01 X-42.7849 Y58.0121 
G01 X-42.2402 Y58.5568 
G01 X-42.2402 Y58.9074 
G01 X-42.5502 Y58.9074 
G01 X-42.6155 Y58.9345 
G01 X-42.6655 Y58.9845 
G01 X-42.6926 Y59.0498 
G01 X-42.6926 Y60.3302 
G01 X-42.6655 Y60.3955 
G01 X-42.6155 Y60.4455 
G01 X-42.5502 Y60.4726 
G01 X-41.2698 Y60.4726 
G01 X-41.2045 Y60.4455 
G01 X-41.1545 Y60.3955 
G01 X-41.1274 Y60.3302 
G01 X-41.1274 Y59.0498 
G01 X-41.1545 Y58.9845 
G01 X-41.2045 Y58.9345 
G01 X-41.2698 Y58.9074 
G01 X-41.5798 Y58.9074 
G01 X-41.5798 Y58.3765 
G01 X-41.6023 Y58.2925 
G01 X-41.6458 Y58.2172 
G01 X-41.7073 Y58.1558 
G01 X-42.3179 Y57.5451 
G01 X-42.2910 Y57.5182 
G01 X-42.2910 Y57.4802 
G01 X-40.7768 Y57.4802 
G01 X-40.2321 Y58.0249 
G01 X-40.2590 Y58.0518 
G01 X-40.2590 Y58.7882 
G01 X-39.7382 Y59.3090 
G01 X-39.7002 Y59.3090 
G01 X-39.7002 Y63.2333 
G01 X-39.7911 Y63.2710 
G01 X-39.9367 Y63.3683 
G01 X-40.0605 Y63.4921 
G01 X-40.1578 Y63.6377 
G01 X-40.2248 Y63.7995 
G01 X-40.2590 Y63.9712 
G01 X-40.2590 Y65.5688 
G01 X-40.2248 Y65.7405 
G01 X-40.1578 Y65.9023 
G01 X-40.0605 Y66.0479 
G01 X-39.9367 Y66.1717 
G01 X-39.7911 Y66.2690 
G01 X-39.6293 Y66.3360 
G01 X-39.4576 Y66.3702 
G01 X-39.2824 Y66.3702 
G01 X-39.1107 Y66.3360 
G01 X-38.9489 Y66.2690 
G01 X-38.8033 Y66.1717 
G01 X-38.6795 Y66.0479 
G01 X-38.5822 Y65.9023 
G01 X-38.5152 Y65.7405 
G01 X-38.4810 Y65.5688 
G01 X-38.4810 Y63.9712 
G01 X-38.5152 Y63.7995 
G00 Z2.5400  
G00 X-43.5952 Y63.7995 
G01 Z-0.1778 F250   
G01 X-43.6622 Y63.6377 F250   
G01 X-43.7595 Y63.4921 
G01 X-43.8833 Y63.3683 
G01 X-44.0289 Y63.2710 
G01 X-44.1907 Y63.2040 
G01 X-44.3624 Y63.1698 
G01 X-44.5376 Y63.1698 
G01 X-44.7093 Y63.2040 
G01 X-44.8373 Y63.2570 
G01 X-45.3898 Y62.1520 
G01 X-45.3898 Y53.6702 
G01 X-28.2702 Y53.6702 
G01 X-28.2702 Y59.5532 
G01 X-28.9716 Y60.2547 
G01 X-29.0357 Y60.1906 
G01 X-29.1980 Y60.0821 
G01 X-29.3783 Y60.0075 
G01 X-29.5696 Y59.9694 
G01 X-31.3904 Y59.9694 
G01 X-31.5817 Y60.0075 
G01 X-31.7620 Y60.0821 
G01 X-31.9243 Y60.1906 
G01 X-32.0622 Y60.3285 
G01 X-32.1707 Y60.4908 
G01 X-32.2453 Y60.6711 
G01 X-32.2834 Y60.8624 
G01 X-32.2834 Y61.0576 
G01 X-32.2453 Y61.2489 
G01 X-32.1707 Y61.4292 
G01 X-32.0622 Y61.5915 
G01 X-31.9243 Y61.7294 
G01 X-31.7620 Y61.8379 
G01 X-31.5817 Y61.9125 
G01 X-31.3904 Y61.9506 
G01 X-29.5696 Y61.9506 
G01 X-29.3783 Y61.9125 
G01 X-29.1980 Y61.8379 
G01 X-29.0357 Y61.7294 
G01 X-28.8977 Y61.5915 
G01 X-28.7893 Y61.4292 
G01 X-28.7147 Y61.2489 
G01 X-28.6766 Y61.0576 
G01 X-28.6766 Y60.8936 
G01 X-27.6758 Y59.8927 
G01 X-27.6323 Y59.8175 
G01 X-27.6098 Y59.7335 
G01 X-27.6098 Y53.2965 
G01 X-27.6323 Y53.2125 
G01 X-27.6758 Y53.1373 
G01 X-27.7372 Y53.0758 
G01 X-27.8125 Y53.0323 
G01 X-27.8965 Y53.0098 
G01 X-45.7635 Y53.0098 
G01 X-45.8475 Y53.0323 
G01 X-45.9227 Y53.0758 
G01 X-45.9842 Y53.1373 
G01 X-46.0277 Y53.2125 
G01 X-46.0502 Y53.2965 
G01 X-46.0502 Y62.2201 
G01 X-46.0522 Y62.2536 
G01 X-46.0502 Y62.2634 
G01 X-46.0502 Y62.2735 
G01 X-46.0415 Y62.3059 
G01 X-46.0348 Y62.3388 
G01 X-46.0303 Y62.3478 
G01 X-46.0277 Y62.3575 
G01 X-46.0109 Y62.3865 
G01 X-45.3047 Y63.7990 
G01 X-45.3390 Y63.9712 
G01 X-45.3390 Y65.5688 
G01 X-45.3048 Y65.7405 
G01 X-45.2378 Y65.9023 
G01 X-45.1405 Y66.0479 
G01 X-45.0167 Y66.1717 
G01 X-44.8711 Y66.2690 
G01 X-44.7093 Y66.3360 
G01 X-44.5376 Y66.3702 
G01 X-44.3624 Y66.3702 
G01 X-44.1907 Y66.3360 
G01 X-44.0289 Y66.2690 
G01 X-43.8833 Y66.1717 
G01 X-43.7595 Y66.0479 
G01 X-43.6622 Y65.9023 
G01 X-43.5952 Y65.7405 
G01 X-43.5610 Y65.5688 
G01 X-43.5610 Y63.9712 
G01 X-43.5952 Y63.7995 
G00 Z2.5400  
G00 X-35.1790 Y58.7882 
G01 Z-0.1778 F250   
G01 X-34.6582 Y59.3090 F250   
G01 X-33.9218 Y59.3090 
G01 X-33.4010 Y58.7882 
G01 X-33.4010 Y58.7502 
G01 X-32.2282 Y58.7502 
G01 X-32.1707 Y58.8892 
G01 X-32.0622 Y59.0515 
G01 X-31.9243 Y59.1894 
G01 X-31.7620 Y59.2979 
G01 X-31.5817 Y59.3725 
G01 X-31.3904 Y59.4106 
G01 X-29.5696 Y59.4106 
G01 X-29.3783 Y59.3725 
G01 X-29.1980 Y59.2979 
G01 X-29.0357 Y59.1894 
G01 X-28.8977 Y59.0515 
G01 X-28.7893 Y58.8892 
G01 X-28.7147 Y58.7089 
G01 X-28.6766 Y58.5176 
G01 X-28.6766 Y58.3224 
G01 X-28.7147 Y58.1311 
G01 X-28.7893 Y57.9508 
G01 X-28.8977 Y57.7885 
G01 X-29.0357 Y57.6506 
G01 X-29.1980 Y57.5421 
G01 X-29.3783 Y57.4675 
G01 X-29.5696 Y57.4294 
G01 X-31.3904 Y57.4294 
G01 X-31.5817 Y57.4675 
G01 X-31.7620 Y57.5421 
G01 X-31.9243 Y57.6506 
G01 X-32.0622 Y57.7885 
G01 X-32.1707 Y57.9508 
G01 X-32.2282 Y58.0898 
G01 X-33.4010 Y58.0898 
G01 X-33.4010 Y58.0518 
G01 X-33.9218 Y57.5310 
G01 X-34.6582 Y57.5310 
G01 X-35.1790 Y58.0518 
G01 X-35.1790 Y58.7882 
G00 Z2.5400  
G00 X-67.8245 Y86.9245 
G01 Z-0.1778 F250   
G01 X-67.8745 Y86.8745 F250   
G01 X-67.9398 Y86.8474 
G01 X-69.2202 Y86.8474 
G01 X-69.2855 Y86.8745 
G01 X-69.3355 Y86.9245 
G01 X-69.3626 Y86.9898 
G01 X-69.3626 Y88.2702 
G01 X-69.3355 Y88.3355 
G01 X-69.2855 Y88.3855 
G01 X-69.2202 Y88.4126 
G01 X-68.9102 Y88.4126 
G01 X-68.9102 Y92.6320 
G01 X-69.3756 Y93.5628 
G01 X-69.3808 Y93.5593 
G01 X-69.5610 Y93.4847 
G01 X-69.7524 Y93.4466 
G01 X-69.9476 Y93.4466 
G01 X-70.1389 Y93.4847 
G01 X-70.3192 Y93.5593 
G01 X-70.4815 Y93.6677 
G01 X-70.6194 Y93.8057 
G01 X-70.7279 Y93.9680 
G01 X-70.8025 Y94.1483 
G01 X-70.8406 Y94.3396 
G01 X-70.8406 Y96.1604 
G01 X-70.8025 Y96.3517 
G01 X-70.7279 Y96.5320 
G01 X-70.6194 Y96.6943 
G01 X-70.4815 Y96.8322 
G01 X-70.3192 Y96.9407 
G01 X-70.1389 Y97.0153 
G01 X-69.9476 Y97.0534 
G01 X-69.7524 Y97.0534 
G01 X-69.5610 Y97.0153 
G01 X-69.3808 Y96.9407 
G01 X-69.2185 Y96.8322 
G01 X-69.0806 Y96.6943 
G01 X-68.9721 Y96.5320 
G01 X-68.8975 Y96.3517 
G01 X-68.8594 Y96.1604 
G01 X-68.8594 Y94.3396 
G01 X-68.8975 Y94.1483 
G01 X-68.9122 Y94.1127 
G01 X-68.2891 Y92.8665 
G01 X-68.2723 Y92.8375 
G01 X-68.2697 Y92.8278 
G01 X-68.2652 Y92.8188 
G01 X-68.2585 Y92.7859 
G01 X-68.2498 Y92.7535 
G01 X-68.2498 Y92.7434 
G01 X-68.2478 Y92.7336 
G01 X-68.2498 Y92.7001 
G01 X-68.2498 Y88.4126 
G01 X-67.9398 Y88.4126 
G01 X-67.8745 Y88.3855 
G01 X-67.8245 Y88.3355 
G01 X-67.7974 Y88.2702 
G01 X-67.7974 Y86.9898 
G01 X-67.8245 Y86.9245 
G00 Z2.5400  
G00 X-81.7945 Y92.0045 
G01 Z-0.1778 F250   
G01 X-81.8445 Y91.9545 F250   
G01 X-81.9098 Y91.9274 
G01 X-83.1902 Y91.9274 
G01 X-83.2555 Y91.9545 
G01 X-83.3055 Y92.0045 
G01 X-83.3326 Y92.0698 
G01 X-83.3326 Y93.3502 
G01 X-83.3055 Y93.4155 
G01 X-83.2555 Y93.4655 
G01 X-83.1902 Y93.4926 
G01 X-82.8802 Y93.4926 
G01 X-82.8802 Y93.5018 
G01 X-83.0192 Y93.5593 
G01 X-83.1815 Y93.6677 
G01 X-83.3194 Y93.8057 
G01 X-83.4279 Y93.9680 
G01 X-83.5025 Y94.1483 
G01 X-83.5406 Y94.3396 
G01 X-83.5406 Y96.1604 
G01 X-83.5025 Y96.3517 
G01 X-83.4279 Y96.5320 
G01 X-83.3194 Y96.6943 
G01 X-83.1815 Y96.8322 
G01 X-83.0192 Y96.9407 
G01 X-82.8389 Y97.0153 
G01 X-82.6476 Y97.0534 
G01 X-82.4524 Y97.0534 
G01 X-82.2610 Y97.0153 
G01 X-82.0808 Y96.9407 
G01 X-81.9185 Y96.8322 
G01 X-81.7806 Y96.6943 
G01 X-81.6721 Y96.5320 
G01 X-81.5975 Y96.3517 
G01 X-81.5594 Y96.1604 
G01 X-81.5594 Y94.3396 
G01 X-81.5975 Y94.1483 
G01 X-81.6721 Y93.9680 
G01 X-81.7806 Y93.8057 
G01 X-81.9185 Y93.6677 
G01 X-82.0808 Y93.5593 
G01 X-82.2198 Y93.5018 
G01 X-82.2198 Y93.4926 
G01 X-81.9098 Y93.4926 
G01 X-81.8445 Y93.4655 
G01 X-81.7945 Y93.4155 
G01 X-81.7674 Y93.3502 
G01 X-81.7674 Y92.0698 
G01 X-81.7945 Y92.0045 
G00 Z2.5400  
G00 X-86.8474 Y92.0802 
G01 Z-0.1778 F250   
G01 X-86.8474 Y90.7998 F250   
G01 X-86.8745 Y90.7345 
G01 X-86.9245 Y90.6845 
G01 X-86.9898 Y90.6574 
G01 X-88.2702 Y90.6574 
G01 X-88.3355 Y90.6845 
G01 X-88.3855 Y90.7345 
G01 X-88.4126 Y90.7998 
G01 X-88.4126 Y92.0802 
G01 X-88.3855 Y92.1455 
G01 X-88.3355 Y92.1955 
G01 X-88.2702 Y92.2226 
G01 X-87.9602 Y92.2226 
G01 X-87.9602 Y93.5018 
G01 X-88.0992 Y93.5593 
G01 X-88.2615 Y93.6677 
G01 X-88.3994 Y93.8057 
G01 X-88.5079 Y93.9680 
G01 X-88.5825 Y94.1483 
G01 X-88.6206 Y94.3396 
G01 X-88.6206 Y96.1604 
G01 X-88.5825 Y96.3517 
G01 X-88.5079 Y96.5320 
G01 X-88.3994 Y96.6943 
G01 X-88.2615 Y96.8322 
G01 X-88.0992 Y96.9407 
G01 X-87.9189 Y97.0153 
G01 X-87.7276 Y97.0534 
G01 X-87.5324 Y97.0534 
G01 X-87.3410 Y97.0153 
G01 X-87.1608 Y96.9407 
G01 X-86.9985 Y96.8322 
G01 X-86.8606 Y96.6943 
G01 X-86.7521 Y96.5320 
G01 X-86.6775 Y96.3517 
G01 X-86.6394 Y96.1604 
G01 X-86.6394 Y94.3396 
G01 X-86.6775 Y94.1483 
G01 X-86.7521 Y93.9680 
G01 X-86.8606 Y93.8057 
G01 X-86.9985 Y93.6677 
G01 X-87.1608 Y93.5593 
G01 X-87.2998 Y93.5018 
G01 X-87.2998 Y92.2226 
G01 X-86.9898 Y92.2226 
G01 X-86.9245 Y92.1955 
G01 X-86.8745 Y92.1455 
G01 X-86.8474 Y92.0802 
G00 Z2.5400  
G00 X-89.4645 Y90.9255 
G01 Z-0.1778 F250   
G01 X-89.4145 Y90.8755 F250   
G01 X-89.3874 Y90.8102 
G01 X-89.3874 Y89.5298 
G01 X-89.4145 Y89.4645 
G01 X-89.4645 Y89.4145 
G01 X-89.5298 Y89.3874 
G01 X-90.8102 Y89.3874 
G01 X-90.8755 Y89.4145 
G01 X-90.9255 Y89.4645 
G01 X-90.9526 Y89.5298 
G01 X-90.9526 Y90.8102 
G01 X-90.9255 Y90.8755 
G01 X-90.8755 Y90.9255 
G01 X-90.8102 Y90.9526 
G01 X-90.5002 Y90.9526 
G01 X-90.5002 Y93.5018 
G01 X-90.6392 Y93.5593 
G01 X-90.8015 Y93.6677 
G01 X-90.9394 Y93.8057 
G01 X-91.0479 Y93.9680 
G01 X-91.1225 Y94.1483 
G01 X-91.1606 Y94.3396 
G01 X-91.1606 Y96.1604 
G01 X-91.1225 Y96.3517 
G01 X-91.0479 Y96.5320 
G01 X-90.9394 Y96.6943 
G01 X-90.8015 Y96.8322 
G01 X-90.6392 Y96.9407 
G01 X-90.4589 Y97.0153 
G01 X-90.2676 Y97.0534 
G01 X-90.0724 Y97.0534 
G01 X-89.8811 Y97.0153 
G01 X-89.7008 Y96.9407 
G01 X-89.5385 Y96.8322 
