(.../Documents/eagle/pcbgcode/pcb-gcode.ulp)
(Copyright 2005 - 2012 by John Johnson)
(See readme.txt for licensing terms.)
(This file generated from the board:)
(.../fablab-paderborn/laos-i2c-panel/Board4.brd)
(Current profile is .../eagle/pcbgcode/profiles/mach.pp  )
(This file generated 28.05.15 15:26)
(Settings from pcb-machine.h)
(spindle on time = 3.0000)
(spindle speed = 20000.0000)
(tool change at 0.0000  0.0000  25.4000 )
(feed rate xy = F0     )
(feed rate z  = F250   )
(Z Axis Settings)
(  High     Up        Down     Drill)
(12.7000 	2.5400  	-0.1778 	-0.8128 )
(Settings from pcb-defaults.h)
(isolate min = 0.0254)
(isolate max = 0.2000)
(isolate step = 0.2000)
(Generated bottom outlines, bottom drill, )
(Unit of measure: mm)
( Tool|       Size       |  Min Sub |  Max Sub |   Count )
( T01 | 0.600mm 0.0236in | 0.0000in | 0.0000in |       0 )
( T02 | 0.813mm 0.0320in | 0.0000in | 0.0000in |       0 )
( T03 | 0.914mm 0.0360in | 0.0000in | 0.0000in |       0 )
( T04 | 1.000mm 0.0394in | 0.0000in | 0.0000in |       0 )
( T05 | 1.016mm 0.0400in | 0.0000in | 0.0000in |       0 )
( T06 | 1.194mm 0.0470in | 0.0000in | 0.0000in |       0 )
( T07 | 1.200mm 0.0472in | 0.0000in | 0.0000in |       0 )
( T08 | 1.803mm 0.0710in | 0.0000in | 0.0000in |       0 )
(Metric Mode)
G21
(Absolute Coordinates)
G90
S20000
G00 Z12.7000 
G00 X0.0000  Y0.0000  
M03
G04 P3.000000
M05
G00 Z25.4000 
M06 T01  ; 0.6000  
G01 Z0.0000  F250   
M06 
G00 Z2.5400  
M03
G04 P3.000000
G82 X-29.8450 Y89.5350 Z-0.8128 F250   R2.5400  P1.000000
G82 X-33.0200 Y81.2800 
G82 X-41.9100 Y89.5350 
G82 X-46.9900 Y83.1850 
G82 X-60.9600 Y80.9625 
G82 X-62.8650 Y79.3750 
G82 X-64.7700 Y79.3750 
G82 X-66.6750 Y79.3750 
G82 X-69.8500 Y76.2000 
G82 X-71.7550 Y83.5025 
G82 X-71.7550 Y91.4400 
G82 X-66.6750 Y90.4875 
G82 X-64.7700 Y90.4875 
G82 X-62.8650 Y91.4400 
G82 X-60.9600 Y91.4400 
G82 X-77.4700 Y92.0750 
G82 X-77.4700 Y89.2175 
G82 X-82.2325 Y89.2175 
G82 X-91.4400 Y92.0750 
G82 X-85.0900 Y76.2000 
G82 X-85.0900 Y69.8500 
G82 X-85.0900 Y67.3100 
G82 X-85.0900 Y64.7700 
G82 X-78.7400 Y64.7700 
G82 X-78.7400 Y67.3100 
G82 X-78.7400 Y69.8500 
G82 X-74.9300 Y60.9600 
G82 X-77.4700 Y58.4200 
G82 X-69.8500 Y58.4200 
G82 X-69.8500 Y60.9600 
G82 X-43.1800 Y54.6100 
G82 X-41.9100 Y60.9600 
G82 X-31.7500 Y60.9600 
G82 X-82.5500 Y33.0200 
G82 X-99.0600 Y33.0200 
G82 X-96.5200 Y52.7050 
G82 X-96.5200 Y72.3900 
G82 X-101.6000 Y72.3900 
M05
G00 Z25.4000 
G00 X0.0000  Y0.0000  
M06 T02  ; 0.8128  
G01 Z0.0000  F250   
M06 
G00 Z2.5400  
M03
G04 P3.000000
G82 X-34.2900 Y58.4200 Z-0.8128 F250   R2.5400  P1.000000
G82 X-39.3700 Y58.4200 
G82 X-43.1800 Y57.1500 
G82 X-41.9100 Y64.7700 
G82 X-39.3700 Y64.7700 
G82 X-44.4500 Y64.7700 
G82 X-46.9900 Y64.7700 
G82 X-49.5300 Y64.7700 
G82 X-52.0700 Y64.7700 
G82 X-54.6100 Y64.7700 
G82 X-57.1500 Y64.7700 
G82 X-59.6900 Y64.7700 
G82 X-62.2300 Y64.7700 
G82 X-64.7700 Y64.7700 
G82 X-67.3100 Y64.7700 
G82 X-69.8500 Y64.7700 
G82 X-72.3900 Y64.7700 
G82 X-72.3900 Y72.3900 
G82 X-69.8500 Y72.3900 
G82 X-67.3100 Y72.3900 
G82 X-64.7700 Y72.3900 
G82 X-62.2300 Y72.3900 
G82 X-59.6900 Y72.3900 
G82 X-57.1500 Y72.3900 
G82 X-54.6100 Y72.3900 
G82 X-52.0700 Y72.3900 
G82 X-49.5300 Y72.3900 
G82 X-46.9900 Y72.3900 
G82 X-44.4500 Y72.3900 
G82 X-41.9100 Y72.3900 
G82 X-39.3700 Y72.3900 
G82 X-53.3400 Y77.4700 
G82 X-58.4200 Y77.4700 
G82 X-55.8800 Y90.1700 
G82 X-57.7850 Y91.4400 
G82 X-55.8800 Y92.7100 
G82 X-37.7825 Y95.2500 
G82 X-35.8775 Y95.2500 
G82 X-53.3400 Y57.1500 
G82 X-78.1050 Y83.8200 
G82 X-80.0100 Y82.5500 
G82 X-80.0100 Y85.0900 
M05
G00 Z25.4000 
G00 X0.0000  Y0.0000  
M06 T03  ; 0.9144  
G01 Z0.0000  F250   
M06 
G00 Z2.5400  
M03
G04 P3.000000
G82 X-92.7100 Y59.6900 Z-0.8128 F250   R2.5400  P1.000000
G82 X-92.7100 Y62.2300 
G82 X-92.7100 Y64.7700 
G82 X-95.2500 Y64.7700 
G82 X-95.2500 Y62.2300 
G82 X-95.2500 Y59.6900 
M05
G00 Z25.4000 
G00 X0.0000  Y0.0000  
M06 T04  ; 1.0000  
G01 Z0.0000  F250   
M06 
G00 Z2.5400  
M03
G04 P3.000000
G82 X-62.1600 Y31.3000 Z-0.8128 F250   R2.5400  P1.000000
G82 X-72.4600 Y31.3000 
M05
G00 Z25.4000 
G00 X0.0000  Y0.0000  
M06 T05  ; 1.0160  
G01 Z0.0000  F250   
M06 
G00 Z2.5400  
M03
G04 P3.000000
G82 X-34.2900 Y86.3600 Z-0.8128 F250   R2.5400  P1.000000
G82 X-36.8300 Y86.3600 
G82 X-39.3700 Y86.3600 
G82 X-41.9100 Y86.3600 
G82 X-44.4500 Y86.3600 
G82 X-46.9900 Y86.3600 
G82 X-44.4500 Y78.7400 
G82 X-41.9100 Y78.7400 
G82 X-39.3700 Y78.7400 
G82 X-36.8300 Y78.7400 
G82 X-61.1500 Y95.2500 
G82 X-63.6900 Y95.2500 
G82 X-66.2300 Y95.2500 
G82 X-68.7700 Y95.2500 
G82 X-71.3100 Y95.2500 
G82 X-73.8500 Y95.2500 
G82 X-76.3900 Y95.2500 
G82 X-78.9300 Y95.2500 
G82 X-81.4700 Y95.2500 
G82 X-84.0100 Y95.2500 
G82 X-86.5500 Y95.2500 
G82 X-89.0900 Y95.2500 
G82 X-91.6300 Y95.2500 
G82 X-94.1700 Y95.2500 
G82 X-96.7100 Y95.2500 
G82 X-99.2500 Y95.2500 
G82 X-92.7100 Y86.3600 
G82 X-92.7100 Y78.7400 
G82 X-90.1700 Y73.6600 
G82 X-87.6300 Y73.6600 
G82 X-74.9300 Y80.0100 
G82 X-74.9300 Y82.5500 
G82 X-64.7700 Y55.8800 
G82 X-62.2300 Y55.8800 
G82 X-59.6900 Y55.8800 
M05
G00 Z25.4000 
G00 X0.0000  Y0.0000  
M06 T06  ; 1.1938  
G01 Z0.0000  F250   
M06 
G00 Z2.5400  
M03
G04 P3.000000
G82 X-41.9608 Y12.8016 Z-0.8128 F250   R2.5400  P1.000000
G82 X-46.9392 Y12.8016 
G82 X-46.9392 Y25.2984 
G82 X-41.9608 Y25.2984 
G82 X-41.9608 Y38.2016 
G82 X-46.9392 Y38.2016 
G82 X-46.9392 Y50.6984 
G82 X-41.9608 Y50.6984 
G82 X-87.6808 Y50.6984 
G82 X-92.6592 Y50.6984 
G82 X-92.6592 Y38.2016 
G82 X-87.6808 Y38.2016 
G82 X-87.6808 Y25.2984 
G82 X-92.6592 Y25.2984 
G82 X-92.6592 Y12.8016 
G82 X-87.6808 Y12.8016 
M05
G00 Z25.4000 
G00 X0.0000  Y0.0000  
M06 T07  ; 1.2000  
G01 Z0.0000  F250   
M06 
G00 Z2.5400  
M03
G04 P3.000000
G82 X-62.1600 Y28.5000 Z-0.8128 F250   R2.5400  P1.000000
G82 X-62.1600 Y35.0000 
G82 X-72.4600 Y35.0000 
G82 X-72.4600 Y28.5000 
M05
G00 Z25.4000 
G00 X0.0000  Y0.0000  
M06 T08  ; 1.8034  
G01 Z0.0000  F250   
M06 
G00 Z2.5400  
M03
G04 P3.000000
G82 X-39.9542 Y19.0500 Z-0.8128 F250   R2.5400  P1.000000
G82 X-48.9458 Y19.0500 
G82 X-48.9458 Y44.4500 
G82 X-39.9542 Y44.4500 
G82 X-85.6742 Y44.4500 
G82 X-94.6658 Y44.4500 
G82 X-94.6658 Y19.0500 
G82 X-85.6742 Y19.0500 
T01 
G00 Z12.7000 
M05
M02
