(.../Documents/eagle/pcbgcode/pcb-gcode.ulp)
(Copyright 2005 - 2012 by John Johnson)
(See readme.txt for licensing terms.)
(This file generated from the board:)
(.../fablab-paderborn/laos-i2c-panel/Board4.brd)
(Current profile is .../eagle/pcbgcode/profiles/mach.pp  )
(This file generated 28.05.15 16:37)
(Settings from pcb-machine.h)
(spindle on time = 3.0000)
(  Tool Size)
(0.2000  )
(spindle speed = 30000.0000)
(tool change at 0.0000  0.0000  25.4000 )
(feed rate xy = F500   )
(feed rate z  = F500   )
(Z Axis Settings)
(  High     Up        Down     Drill)
(12.7000 	2.5400  	-0.1778 	-0.8128 )
(Settings from pcb-defaults.h)
(isolate min = 0.0254)
(isolate max = 0.2000)
(isolate step = 0.2000)
(Generated bottom outlines, bottom drill, )
(Unit of measure: mm)
(Metric Mode)
G21
(Absolute Coordinates)
G90
S30000
G00 Z12.7000 
G00 X0.0000  Y0.0000  
M03
G04 P3.000000
G00 Z2.5400  
G00 X-41.0999 Y11.0630 
G01 Z-0.1778 F500   
G01 X-40.9954 Y11.2067 F500   
G01 X-40.9148 Y11.3650 
G01 X-40.8599 Y11.5340 
G01 X-40.8321 Y11.7095 
G01 X-40.8321 Y13.8937 
G01 X-40.8599 Y14.0692 
G01 X-40.9148 Y14.2382 
G01 X-40.9954 Y14.3965 
G01 X-41.0999 Y14.5402 
G01 X-41.2255 Y14.6658 
G01 X-41.3692 Y14.7702 
G01 X-41.5275 Y14.8509 
G01 X-41.5814 Y14.8684 
G01 X-41.5814 Y23.2316 
G01 X-41.5275 Y23.2491 
G01 X-41.3692 Y23.3298 
G01 X-41.2255 Y23.4342 
G01 X-41.0999 Y23.5598 
G01 X-40.9954 Y23.7035 
G01 X-40.9148 Y23.8618 
G01 X-40.8599 Y24.0308 
G01 X-40.8321 Y24.2063 
G01 X-40.8321 Y26.3905 
G01 X-40.8599 Y26.5660 
G01 X-40.9148 Y26.7350 
G01 X-40.9954 Y26.8933 
G01 X-41.0999 Y27.0370 
G01 X-41.2255 Y27.1626 
G01 X-41.3692 Y27.2670 
G01 X-41.5275 Y27.3477 
G01 X-41.5814 Y27.3652 
G01 X-41.5814 Y36.1348 
G01 X-41.5275 Y36.1523 
G01 X-41.3692 Y36.2330 
G01 X-41.2255 Y36.3374 
G01 X-41.0999 Y36.4630 
G01 X-40.9954 Y36.6067 
G01 X-40.9148 Y36.7650 
G01 X-40.8599 Y36.9340 
G01 X-40.8321 Y37.1095 
G01 X-40.8321 Y39.2937 
G01 X-40.8599 Y39.4692 
G01 X-40.9148 Y39.6382 
G01 X-40.9954 Y39.7965 
G01 X-41.0999 Y39.9402 
G01 X-41.2255 Y40.0658 
G01 X-41.3692 Y40.1702 
G01 X-41.5275 Y40.2509 
G01 X-41.5814 Y40.2684 
G01 X-41.5814 Y48.6316 
G01 X-41.5275 Y48.6491 
G01 X-41.3692 Y48.7298 
G01 X-41.2255 Y48.8342 
G01 X-41.0999 Y48.9598 
G01 X-40.9954 Y49.1035 
G01 X-40.9148 Y49.2618 
G01 X-40.8599 Y49.4308 
G01 X-40.8321 Y49.6063 
G01 X-40.8321 Y51.7905 
G01 X-40.8599 Y51.9660 
G01 X-40.9148 Y52.1350 
G01 X-40.9954 Y52.2933 
G01 X-41.0999 Y52.4370 
G01 X-41.2255 Y52.5626 
G01 X-41.3692 Y52.6670 
G01 X-41.5275 Y52.7477 
G01 X-41.6965 Y52.8026 
G01 X-41.8720 Y52.8304 
G01 X-42.0496 Y52.8304 
G01 X-42.2251 Y52.8026 
G01 X-42.3941 Y52.7477 
G01 X-42.5524 Y52.6670 
G01 X-42.6961 Y52.5626 
G01 X-42.8217 Y52.4370 
G01 X-42.9261 Y52.2933 
G01 X-43.0068 Y52.1350 
G01 X-43.0617 Y51.9660 
G01 X-43.0895 Y51.7905 
G01 X-43.0895 Y49.6063 
G01 X-43.0617 Y49.4308 
G01 X-43.0068 Y49.2618 
G01 X-42.9261 Y49.1035 
G01 X-42.8217 Y48.9598 
G01 X-42.6961 Y48.8342 
G01 X-42.5524 Y48.7298 
G01 X-42.3941 Y48.6491 
G01 X-42.2386 Y48.5986 
G01 X-42.2386 Y40.3014 
G01 X-42.3941 Y40.2509 
G01 X-42.5524 Y40.1702 
G01 X-42.6961 Y40.0658 
G01 X-42.8217 Y39.9402 
G01 X-42.9261 Y39.7965 
G01 X-43.0068 Y39.6382 
G01 X-43.0617 Y39.4692 
G01 X-43.0895 Y39.2937 
G01 X-43.0895 Y37.1095 
G01 X-43.0617 Y36.9340 
G01 X-43.0068 Y36.7650 
G01 X-42.9261 Y36.6067 
G01 X-42.8217 Y36.4630 
G01 X-42.6961 Y36.3374 
G01 X-42.5524 Y36.2330 
G01 X-42.3941 Y36.1523 
G01 X-42.2386 Y36.1018 
G01 X-42.2386 Y27.3982 
G01 X-42.3941 Y27.3477 
G01 X-42.5524 Y27.2670 
G01 X-42.6961 Y27.1626 
G01 X-42.8217 Y27.0370 
G01 X-42.9261 Y26.8933 
G01 X-43.0068 Y26.7350 
G01 X-43.0617 Y26.5660 
G01 X-43.0895 Y26.3905 
G01 X-43.0895 Y24.2063 
G01 X-43.0617 Y24.0308 
G01 X-43.0068 Y23.8618 
G01 X-42.9261 Y23.7035 
G01 X-42.8217 Y23.5598 
G01 X-42.6961 Y23.4342 
G01 X-42.5524 Y23.3298 
G01 X-42.3941 Y23.2491 
G01 X-42.2386 Y23.1986 
G01 X-42.2386 Y14.9014 
G01 X-42.3941 Y14.8509 
G01 X-42.5524 Y14.7702 
G01 X-42.6961 Y14.6658 
G01 X-42.8217 Y14.5402 
G01 X-42.9261 Y14.3965 
G01 X-43.0068 Y14.2382 
G01 X-43.0617 Y14.0692 
G01 X-43.0895 Y13.8937 
G01 X-43.0895 Y11.9852 
G01 X-44.5861 Y10.4886 
G01 X-48.1239 Y10.4886 
G01 X-56.8214 Y19.1861 
G01 X-56.8214 Y30.5233 
G01 X-56.8438 Y30.6068 
G01 X-56.8871 Y30.6818 
G01 X-59.4271 Y33.2218 
G01 X-59.4882 Y33.2829 
G01 X-59.5632 Y33.3262 
G01 X-59.6467 Y33.3486 
G01 X-63.5433 Y33.3486 
G01 X-63.6268 Y33.3262 
G01 X-63.7018 Y33.2829 
G01 X-67.5118 Y29.4729 
G01 X-67.5729 Y29.4118 
G01 X-67.6162 Y29.3368 
G01 X-67.6386 Y29.2533 
G01 X-67.6386 Y28.0761 
G01 X-85.2261 Y10.4886 
G01 X-90.0339 Y10.4886 
G01 X-91.5305 Y11.9852 
G01 X-91.5305 Y13.8937 
G01 X-91.5583 Y14.0692 
G01 X-91.6132 Y14.2382 
G01 X-91.6938 Y14.3965 
G01 X-91.7983 Y14.5402 
G01 X-91.9239 Y14.6658 
G01 X-92.0676 Y14.7702 
G01 X-92.2259 Y14.8509 
G01 X-92.3814 Y14.9014 
G01 X-92.3814 Y23.1986 
G01 X-92.2259 Y23.2491 
G01 X-92.0676 Y23.3298 
G01 X-91.9239 Y23.4342 
G01 X-91.7983 Y23.5598 
G01 X-91.6938 Y23.7035 
G01 X-91.6132 Y23.8618 
G01 X-91.5583 Y24.0308 
G01 X-91.5305 Y24.2063 
G01 X-91.5305 Y26.3905 
G01 X-91.5583 Y26.5660 
G01 X-91.6132 Y26.7350 
G01 X-91.6938 Y26.8933 
G01 X-91.7983 Y27.0370 
G01 X-91.9239 Y27.1626 
G01 X-92.0676 Y27.2670 
G01 X-92.2259 Y27.3477 
G01 X-92.3814 Y27.3982 
G01 X-92.3814 Y32.8839 
G01 X-88.6503 Y36.6150 
G01 X-88.6461 Y36.6067 
G01 X-88.5417 Y36.4630 
G01 X-88.4161 Y36.3374 
G01 X-88.2724 Y36.2330 
G01 X-88.1141 Y36.1523 
G01 X-87.9451 Y36.0974 
G01 X-87.7696 Y36.0696 
G01 X-87.5920 Y36.0696 
G01 X-87.4165 Y36.0974 
G01 X-87.2475 Y36.1523 
G01 X-87.0892 Y36.2330 
G01 X-86.9455 Y36.3374 
G01 X-86.8199 Y36.4630 
G01 X-86.7155 Y36.6067 
G01 X-86.6348 Y36.7650 
G01 X-86.5799 Y36.9340 
G01 X-86.5521 Y37.1095 
G01 X-86.5521 Y39.2937 
G01 X-86.5799 Y39.4692 
G01 X-86.6348 Y39.6382 
G01 X-86.7155 Y39.7965 
G01 X-86.8199 Y39.9402 
G01 X-86.9455 Y40.0658 
G01 X-87.0892 Y40.1702 
G01 X-87.2475 Y40.2509 
G01 X-87.3014 Y40.2684 
G01 X-87.3014 Y48.6316 
G01 X-87.2475 Y48.6491 
G01 X-87.0892 Y48.7298 
G01 X-86.9455 Y48.8342 
G01 X-86.8199 Y48.9598 
G01 X-86.7155 Y49.1035 
G01 X-86.6656 Y49.2014 
G01 X-78.6967 Y49.2014 
G01 X-78.6132 Y49.2238 
G01 X-78.5382 Y49.2671 
G01 X-72.1882 Y55.6171 
G01 X-72.1271 Y55.6782 
G01 X-72.0838 Y55.7532 
G01 X-72.0614 Y55.8367 
G01 X-72.0614 Y63.0778 
G01 X-71.9456 Y63.1258 
G01 X-71.7919 Y63.2285 
G01 X-71.6613 Y63.3591 
G01 X-71.5586 Y63.5128 
G01 X-71.4879 Y63.6835 
G01 X-71.4518 Y63.8648 
G01 X-71.4518 Y65.6752 
G01 X-71.4879 Y65.8565 
G01 X-71.5586 Y66.0272 
G01 X-71.6613 Y66.1809 
G01 X-71.7919 Y66.3115 
G01 X-71.9456 Y66.4142 
G01 X-72.1163 Y66.4849 
G01 X-72.2976 Y66.5210 
G01 X-72.4824 Y66.5210 
G01 X-72.6637 Y66.4849 
G01 X-72.8344 Y66.4142 
G01 X-72.9881 Y66.3115 
G01 X-73.1187 Y66.1809 
G01 X-73.2214 Y66.0272 
G01 X-73.2921 Y65.8565 
G01 X-73.3282 Y65.6752 
G01 X-73.3282 Y63.8648 
G01 X-73.2921 Y63.6835 
G01 X-73.2214 Y63.5128 
G01 X-73.1187 Y63.3591 
G01 X-72.9881 Y63.2285 
G01 X-72.8344 Y63.1258 
G01 X-72.7186 Y63.0778 
G01 X-72.7186 Y56.0161 
G01 X-78.8761 Y49.8586 
G01 X-86.5521 Y49.8586 
G01 X-86.5521 Y51.7905 
G01 X-86.5799 Y51.9660 
G01 X-86.6348 Y52.1350 
G01 X-86.7155 Y52.2933 
G01 X-86.8199 Y52.4370 
G01 X-86.9455 Y52.5626 
G01 X-87.0892 Y52.6670 
G01 X-87.2475 Y52.7477 
G01 X-87.4165 Y52.8026 
G01 X-87.5920 Y52.8304 
G01 X-87.7696 Y52.8304 
G01 X-87.9451 Y52.8026 
G01 X-88.1141 Y52.7477 
G01 X-88.2724 Y52.6670 
G01 X-88.4161 Y52.5626 
G01 X-88.5417 Y52.4370 
G01 X-88.6461 Y52.2933 
G01 X-88.7268 Y52.1350 
G01 X-88.7817 Y51.9660 
G01 X-88.8095 Y51.7905 
G01 X-88.8095 Y49.6063 
G01 X-88.7817 Y49.4308 
G01 X-88.7268 Y49.2618 
G01 X-88.6461 Y49.1035 
G01 X-88.5417 Y48.9598 
G01 X-88.4161 Y48.8342 
G01 X-88.2724 Y48.7298 
G01 X-88.1141 Y48.6491 
G01 X-87.9586 Y48.5986 
G01 X-87.9586 Y40.3014 
G01 X-88.1141 Y40.2509 
G01 X-88.2724 Y40.1702 
G01 X-88.4161 Y40.0658 
G01 X-88.5417 Y39.9402 
G01 X-88.6461 Y39.7965 
G01 X-88.7268 Y39.6382 
G01 X-88.7817 Y39.4692 
G01 X-88.8095 Y39.2937 
G01 X-88.8095 Y37.3852 
G01 X-92.9729 Y33.2218 
G01 X-93.0162 Y33.1468 
G01 X-93.0386 Y33.0633 
G01 X-93.0386 Y27.3652 
G01 X-93.0925 Y27.3477 
G01 X-93.2508 Y27.2670 
G01 X-93.3945 Y27.1626 
G01 X-93.5201 Y27.0370 
G01 X-93.6245 Y26.8933 
G01 X-93.7052 Y26.7350 
G01 X-93.7601 Y26.5660 
G01 X-93.7879 Y26.3905 
G01 X-93.7879 Y24.2063 
G01 X-93.7601 Y24.0308 
G01 X-93.7052 Y23.8618 
G01 X-93.6245 Y23.7035 
G01 X-93.5201 Y23.5598 
G01 X-93.3945 Y23.4342 
G01 X-93.2508 Y23.3298 
G01 X-93.0925 Y23.2491 
G01 X-93.0386 Y23.2316 
G01 X-93.0386 Y14.8684 
G01 X-93.0925 Y14.8509 
G01 X-93.2508 Y14.7702 
G01 X-93.3945 Y14.6658 
G01 X-93.5201 Y14.5402 
G01 X-93.6245 Y14.3965 
G01 X-93.7052 Y14.2382 
G01 X-93.7601 Y14.0692 
G01 X-93.7879 Y13.8937 
G01 X-93.7879 Y11.7095 
G01 X-93.7601 Y11.5340 
G01 X-93.7052 Y11.3650 
G01 X-93.6245 Y11.2067 
G01 X-93.5201 Y11.0630 
G01 X-93.3945 Y10.9374 
G01 X-93.2508 Y10.8330 
G01 X-93.0925 Y10.7523 
G01 X-92.9235 Y10.6974 
G01 X-92.7480 Y10.6696 
G01 X-92.5704 Y10.6696 
G01 X-92.3949 Y10.6974 
G01 X-92.2259 Y10.7523 
G01 X-92.0676 Y10.8330 
G01 X-91.9239 Y10.9374 
G01 X-91.7983 Y11.0630 
G01 X-91.6938 Y11.2067 
G01 X-91.6897 Y11.2150 
G01 X-90.3718 Y9.8971  
G01 X-90.2968 Y9.8538  
G01 X-90.2133 Y9.8314  
G01 X-85.0467 Y9.8314  
G01 X-84.9632 Y9.8538  
G01 X-84.8882 Y9.8971  
G01 X-84.8271 Y9.9582  
G01 X-67.0471 Y27.7382 
G01 X-67.0038 Y27.8132 
G01 X-66.9814 Y27.8967 
G01 X-66.9814 Y29.0739 
G01 X-63.3639 Y32.6914 
G01 X-59.8261 Y32.6914 
G01 X-57.4786 Y30.3439 
G01 X-57.4786 Y19.0067 
G01 X-57.4562 Y18.9232 
G01 X-57.4129 Y18.8482 
G01 X-57.3518 Y18.7871 
G01 X-48.4618 Y9.8971  
G01 X-48.3868 Y9.8538  
G01 X-48.3033 Y9.8314  
G01 X-44.4067 Y9.8314  
G01 X-44.3232 Y9.8538  
G01 X-44.2482 Y9.8971  
G01 X-44.1871 Y9.9582  
G01 X-42.9303 Y11.2150 
G01 X-42.9261 Y11.2067 
G01 X-42.8217 Y11.0630 
G01 X-42.6961 Y10.9374 
G01 X-42.5524 Y10.8330 
G01 X-42.3941 Y10.7523 
G01 X-42.2251 Y10.6974 
G01 X-42.0496 Y10.6696 
G01 X-41.8720 Y10.6696 
G01 X-41.6965 Y10.6974 
G01 X-41.5275 Y10.7523 
G01 X-41.3692 Y10.8330 
G01 X-41.2255 Y10.9374 
G01 X-41.0999 Y11.0630 
G00 Z2.5400  
G00 X-46.0783 Y11.0630 
G01 Z-0.1778 F500   
G01 X-45.9738 Y11.2067 F500   
G01 X-45.8932 Y11.3650 
G01 X-45.8383 Y11.5340 
G01 X-45.8105 Y11.7095 
G01 X-45.8105 Y13.8937 
G01 X-45.8383 Y14.0692 
G01 X-45.8932 Y14.2382 
G01 X-45.9738 Y14.3965 
G01 X-46.0783 Y14.5402 
G01 X-46.2039 Y14.6658 
G01 X-46.3476 Y14.7702 
G01 X-46.5059 Y14.8509 
G01 X-46.6614 Y14.9014 
G01 X-46.6614 Y23.1986 
G01 X-46.5059 Y23.2491 
G01 X-46.3476 Y23.3298 
G01 X-46.2039 Y23.4342 
G01 X-46.0783 Y23.5598 
G01 X-45.9738 Y23.7035 
G01 X-45.8932 Y23.8618 
G01 X-45.8383 Y24.0308 
G01 X-45.8105 Y24.2063 
G01 X-45.8105 Y26.3905 
G01 X-45.8383 Y26.5660 
G01 X-45.8932 Y26.7350 
G01 X-45.9738 Y26.8933 
G01 X-46.0783 Y27.0370 
G01 X-46.2039 Y27.1626 
G01 X-46.3476 Y27.2670 
G01 X-46.5059 Y27.3477 
G01 X-46.6749 Y27.4026 
G01 X-46.8504 Y27.4304 
G01 X-47.0280 Y27.4304 
G01 X-47.2035 Y27.4026 
G01 X-47.3725 Y27.3477 
G01 X-47.5308 Y27.2670 
G01 X-47.6745 Y27.1626 
G01 X-47.8001 Y27.0370 
G01 X-47.9045 Y26.8933 
G01 X-47.9430 Y26.8177 
G01 X-49.2014 Y28.0761 
G01 X-49.2014 Y63.0778 
G01 X-49.0856 Y63.1258 
G01 X-48.9319 Y63.2285 
G01 X-48.8013 Y63.3591 
G01 X-48.6986 Y63.5128 
G01 X-48.6279 Y63.6835 
G01 X-48.5918 Y63.8648 
G01 X-48.5918 Y65.6752 
G01 X-48.6279 Y65.8565 
G01 X-48.6986 Y66.0272 
G01 X-48.8013 Y66.1809 
G01 X-48.9319 Y66.3115 
G01 X-49.0856 Y66.4142 
G01 X-49.2563 Y66.4849 
G01 X-49.4376 Y66.5210 
G01 X-49.6224 Y66.5210 
G01 X-49.8037 Y66.4849 
G01 X-49.9744 Y66.4142 
G01 X-50.1281 Y66.3115 
G01 X-50.2587 Y66.1809 
G01 X-50.3614 Y66.0272 
G01 X-50.4321 Y65.8565 
G01 X-50.4682 Y65.6752 
G01 X-50.4682 Y63.8648 
G01 X-50.4321 Y63.6835 
G01 X-50.3614 Y63.5128 
G01 X-50.2587 Y63.3591 
G01 X-50.1281 Y63.2285 
G01 X-49.9744 Y63.1258 
G01 X-49.8586 Y63.0778 
G01 X-49.8586 Y54.7461 
G01 X-72.2729 Y32.3318 
G01 X-73.4680 Y32.3318 
G01 X-73.6674 Y32.2921 
G01 X-73.8551 Y32.2144 
G01 X-74.0241 Y32.1014 
G01 X-74.1679 Y31.9577 
G01 X-74.2808 Y31.7887 
G01 X-74.3585 Y31.6010 
G01 X-74.3982 Y31.4016 
G01 X-74.3982 Y31.1984 
G01 X-74.3585 Y30.9990 
G01 X-74.2808 Y30.8113 
G01 X-74.1679 Y30.6423 
G01 X-74.0241 Y30.4985 
G01 X-73.8551 Y30.3856 
G01 X-73.6674 Y30.3078 
G01 X-73.4680 Y30.2682 
G01 X-72.7186 Y30.2682 
G01 X-72.7186 Y29.6318 
G01 X-73.5555 Y29.6318 
G01 X-73.7314 Y29.6039 
G01 X-73.9009 Y29.5489 
G01 X-74.0596 Y29.4680 
G01 X-74.2037 Y29.3633 
G01 X-74.3297 Y29.2373 
G01 X-74.4344 Y29.0932 
G01 X-74.5153 Y28.9345 
G01 X-74.5703 Y28.7650 
G01 X-74.5982 Y28.5891 
G01 X-74.5982 Y28.4109 
G01 X-74.5703 Y28.2350 
G01 X-74.5153 Y28.0655 
G01 X-74.4344 Y27.9068 
G01 X-74.3297 Y27.7627 
G01 X-74.2037 Y27.6367 
G01 X-74.0596 Y27.5320 
G01 X-73.9009 Y27.4511 
G01 X-73.7314 Y27.3961 
G01 X-73.5555 Y27.3682 
G01 X-71.3645 Y27.3682 
G01 X-71.1886 Y27.3961 
G01 X-71.0191 Y27.4511 
G01 X-70.8604 Y27.5320 
G01 X-70.7163 Y27.6367 
G01 X-70.5903 Y27.7627 
G01 X-70.4856 Y27.9068 
G01 X-70.4047 Y28.0655 
G01 X-70.3497 Y28.2350 
G01 X-70.3218 Y28.4109 
G01 X-70.3218 Y28.5891 
G01 X-70.3497 Y28.7650 
G01 X-70.4047 Y28.9345 
G01 X-70.4856 Y29.0932 
G01 X-70.5903 Y29.2373 
G01 X-70.7163 Y29.3633 
G01 X-70.8604 Y29.4680 
G01 X-71.0191 Y29.5489 
G01 X-71.1886 Y29.6039 
G01 X-71.3645 Y29.6318 
G01 X-72.0614 Y29.6318 
G01 X-72.0614 Y30.2682 
G01 X-71.4520 Y30.2682 
G01 X-71.2526 Y30.3078 
G01 X-71.0649 Y30.3856 
G01 X-70.8959 Y30.4985 
G01 X-70.7521 Y30.6423 
G01 X-70.6392 Y30.8113 
G01 X-70.5614 Y30.9990 
G01 X-70.5218 Y31.1984 
G01 X-70.5218 Y31.4016 
G01 X-70.5614 Y31.6010 
G01 X-70.6392 Y31.7887 
G01 X-70.7521 Y31.9577 
G01 X-70.8959 Y32.1014 
G01 X-71.0649 Y32.2144 
G01 X-71.2526 Y32.2921 
G01 X-71.3615 Y32.3138 
G01 X-49.8586 Y53.8167 
G01 X-49.8586 Y27.8967 
G01 X-49.8362 Y27.8132 
G01 X-49.7929 Y27.7382 
G01 X-48.0679 Y26.0132 
G01 X-48.0679 Y24.2063 
G01 X-48.0401 Y24.0308 
G01 X-47.9852 Y23.8618 
G01 X-47.9045 Y23.7035 
G01 X-47.8001 Y23.5598 
G01 X-47.6745 Y23.4342 
G01 X-47.5308 Y23.3298 
G01 X-47.3725 Y23.2491 
G01 X-47.3186 Y23.2316 
G01 X-47.3186 Y14.8684 
G01 X-47.3725 Y14.8509 
G01 X-47.5308 Y14.7702 
G01 X-47.6745 Y14.6658 
G01 X-47.8001 Y14.5402 
G01 X-47.9045 Y14.3965 
G01 X-47.9852 Y14.2382 
G01 X-48.0401 Y14.0692 
G01 X-48.0679 Y13.8937 
G01 X-48.0679 Y11.7095 
G01 X-48.0401 Y11.5340 
G01 X-47.9852 Y11.3650 
G01 X-47.9045 Y11.2067 
G01 X-47.8001 Y11.0630 
G01 X-47.6745 Y10.9374 
G01 X-47.5308 Y10.8330 
G01 X-47.3725 Y10.7523 
G01 X-47.2035 Y10.6974 
G01 X-47.0280 Y10.6696 
G01 X-46.8504 Y10.6696 
G01 X-46.6749 Y10.6974 
G01 X-46.5059 Y10.7523 
G01 X-46.3476 Y10.8330 
G01 X-46.2039 Y10.9374 
G01 X-46.0783 Y11.0630 
G00 Z2.5400  
G00 X-46.0783 Y36.4630 
G01 Z-0.1778 F500   
G01 X-45.9738 Y36.6067 F500   
G01 X-45.8932 Y36.7650 
G01 X-45.8383 Y36.9340 
G01 X-45.8105 Y37.1095 
G01 X-45.8105 Y39.2937 
G01 X-45.8383 Y39.4692 
G01 X-45.8932 Y39.6382 
G01 X-45.9738 Y39.7965 
G01 X-46.0783 Y39.9402 
G01 X-46.2039 Y40.0658 
G01 X-46.3476 Y40.1702 
G01 X-46.5059 Y40.2509 
G01 X-46.6614 Y40.3014 
G01 X-46.6614 Y48.5986 
G01 X-46.5059 Y48.6491 
G01 X-46.3476 Y48.7298 
G01 X-46.2039 Y48.8342 
G01 X-46.0783 Y48.9598 
G01 X-45.9738 Y49.1035 
G01 X-45.8932 Y49.2618 
G01 X-45.8383 Y49.4308 
G01 X-45.8105 Y49.6063 
G01 X-45.8105 Y51.7905 
G01 X-45.8383 Y51.9660 
G01 X-45.8932 Y52.1350 
G01 X-45.9738 Y52.2933 
G01 X-46.0783 Y52.4370 
G01 X-46.2039 Y52.5626 
G01 X-46.3476 Y52.6670 
G01 X-46.5059 Y52.7477 
G01 X-46.6614 Y52.7982 
G01 X-46.6614 Y63.0778 
G01 X-46.5456 Y63.1258 
G01 X-46.3919 Y63.2285 
G01 X-46.2613 Y63.3591 
G01 X-46.1586 Y63.5128 
G01 X-46.0879 Y63.6835 
G01 X-46.0518 Y63.8648 
G01 X-46.0518 Y65.6752 
G01 X-46.0879 Y65.8565 
G01 X-46.1586 Y66.0272 
G01 X-46.2613 Y66.1809 
G01 X-46.3919 Y66.3115 
G01 X-46.5456 Y66.4142 
G01 X-46.7163 Y66.4849 
G01 X-46.8976 Y66.5210 
G01 X-47.0824 Y66.5210 
G01 X-47.2637 Y66.4849 
G01 X-47.4344 Y66.4142 
G01 X-47.5881 Y66.3115 
G01 X-47.7187 Y66.1809 
G01 X-47.8214 Y66.0272 
G01 X-47.8921 Y65.8565 
G01 X-47.9282 Y65.6752 
G01 X-47.9282 Y63.8648 
G01 X-47.8921 Y63.6835 
G01 X-47.8214 Y63.5128 
G01 X-47.7187 Y63.3591 
G01 X-47.5881 Y63.2285 
G01 X-47.4344 Y63.1258 
G01 X-47.3186 Y63.0778 
G01 X-47.3186 Y52.7652 
G01 X-47.3725 Y52.7477 
G01 X-47.5308 Y52.6670 
G01 X-47.6745 Y52.5626 
G01 X-47.8001 Y52.4370 
G01 X-47.9045 Y52.2933 
G01 X-47.9852 Y52.1350 
G01 X-48.0401 Y51.9660 
G01 X-48.0679 Y51.7905 
G01 X-48.0679 Y49.6063 
G01 X-48.0401 Y49.4308 
G01 X-47.9852 Y49.2618 
G01 X-47.9045 Y49.1035 
G01 X-47.8001 Y48.9598 
G01 X-47.6745 Y48.8342 
G01 X-47.5308 Y48.7298 
G01 X-47.3725 Y48.6491 
G01 X-47.3186 Y48.6316 
G01 X-47.3186 Y40.2684 
G01 X-47.3725 Y40.2509 
G01 X-47.5308 Y40.1702 
G01 X-47.6745 Y40.0658 
G01 X-47.8001 Y39.9402 
G01 X-47.9045 Y39.7965 
G01 X-47.9852 Y39.6382 
G01 X-48.0401 Y39.4692 
G01 X-48.0679 Y39.2937 
G01 X-48.0679 Y37.1095 
G01 X-48.0401 Y36.9340 
G01 X-47.9852 Y36.7650 
G01 X-47.9045 Y36.6067 
G01 X-47.8001 Y36.4630 
G01 X-47.6745 Y36.3374 
G01 X-47.5308 Y36.2330 
G01 X-47.3725 Y36.1523 
G01 X-47.2035 Y36.0974 
G01 X-47.0280 Y36.0696 
G01 X-46.8504 Y36.0696 
G01 X-46.6749 Y36.0974 
G01 X-46.5059 Y36.1523 
G01 X-46.3476 Y36.2330 
G01 X-46.2039 Y36.3374 
G01 X-46.0783 Y36.4630 
G00 Z2.5400  
G00 X-60.4163 Y35.8633 
G01 Z-0.1778 F500   
G01 X-60.5604 Y35.9680 F500   
G01 X-60.7191 Y36.0489 
G01 X-60.8886 Y36.1039 
G01 X-61.0645 Y36.1318 
G01 X-63.2555 Y36.1318 
G01 X-63.4314 Y36.1039 
G01 X-63.6009 Y36.0489 
G01 X-63.7596 Y35.9680 
G01 X-63.9037 Y35.8633 
G01 X-64.0297 Y35.7373 
G01 X-64.1344 Y35.5932 
G01 X-64.2153 Y35.4345 
G01 X-64.2703 Y35.2650 
G01 X-64.2982 Y35.0891 
G01 X-64.2982 Y34.9109 
G01 X-64.2703 Y34.7350 
G01 X-64.2153 Y34.5655 
G01 X-64.1344 Y34.4068 
G01 X-64.0297 Y34.2627 
G01 X-64.0109 Y34.2439 
G01 X-68.7818 Y29.4729 
G01 X-68.8429 Y29.4118 
G01 X-68.8862 Y29.3368 
G01 X-68.9086 Y29.2533 
G01 X-68.9086 Y28.0761 
G01 X-69.9861 Y26.9986 
G01 X-85.5667 Y26.9986 
G01 X-84.8271 Y27.7382 
G01 X-84.7838 Y27.8132 
G01 X-84.7614 Y27.8967 
G01 X-84.7614 Y40.3114 
G01 X-78.6967 Y40.3114 
G01 X-78.6132 Y40.3338 
G01 X-78.5382 Y40.3771 
G01 X-67.1082 Y51.8071 
G01 X-67.0471 Y51.8682 
G01 X-67.0038 Y51.9432 
G01 X-66.9814 Y52.0267 
G01 X-66.9814 Y57.0139 
G01 X-64.5682 Y59.4271 
G01 X-64.5071 Y59.4882 
G01 X-64.4638 Y59.5632 
G01 X-64.4414 Y59.6467 
G01 X-64.4414 Y63.0778 
G01 X-64.3256 Y63.1258 
G01 X-64.1719 Y63.2285 
G01 X-64.0413 Y63.3591 
G01 X-63.9386 Y63.5128 
G01 X-63.8679 Y63.6835 
G01 X-63.8318 Y63.8648 
G01 X-63.8318 Y65.6752 
G01 X-63.8679 Y65.8565 
G01 X-63.9386 Y66.0272 
G01 X-64.0413 Y66.1809 
G01 X-64.1719 Y66.3115 
G01 X-64.3256 Y66.4142 
G01 X-64.4963 Y66.4849 
G01 X-64.6776 Y66.5210 
G01 X-64.8624 Y66.5210 
G01 X-65.0437 Y66.4849 
G01 X-65.2144 Y66.4142 
G01 X-65.3681 Y66.3115 
G01 X-65.4987 Y66.1809 
G01 X-65.6014 Y66.0272 
G01 X-65.6721 Y65.8565 
G01 X-65.7082 Y65.6752 
G01 X-65.7082 Y63.8648 
G01 X-65.6721 Y63.6835 
G01 X-65.6014 Y63.5128 
G01 X-65.4987 Y63.3591 
G01 X-65.3681 Y63.2285 
G01 X-65.2144 Y63.1258 
G01 X-65.0986 Y63.0778 
G01 X-65.0986 Y59.8261 
G01 X-67.5729 Y57.3518 
G01 X-67.6162 Y57.2768 
G01 X-67.6386 Y57.1933 
G01 X-67.6386 Y52.2061 
G01 X-78.8761 Y40.9686 
G01 X-85.1333 Y40.9686 
G01 X-85.2168 Y40.9462 
G01 X-85.2918 Y40.9029 
G01 X-85.3529 Y40.8418 
G01 X-85.3962 Y40.7668 
G01 X-85.4186 Y40.6833 
G01 X-85.4186 Y28.0761 
G01 X-86.5618 Y26.9329 
G01 X-86.6229 Y26.8718 
G01 X-86.6770 Y26.8177 
G01 X-86.7155 Y26.8933 
G01 X-86.8199 Y27.0370 
G01 X-86.9455 Y27.1626 
G01 X-87.0892 Y27.2670 
G01 X-87.2475 Y27.3477 
G01 X-87.4165 Y27.4026 
G01 X-87.5920 Y27.4304 
G01 X-87.7696 Y27.4304 
G01 X-87.9451 Y27.4026 
G01 X-88.1141 Y27.3477 
G01 X-88.2724 Y27.2670 
G01 X-88.4161 Y27.1626 
G01 X-88.5417 Y27.0370 
G01 X-88.6461 Y26.8933 
G01 X-88.7268 Y26.7350 
G01 X-88.7817 Y26.5660 
G01 X-88.8095 Y26.3905 
G01 X-88.8095 Y24.2063 
G01 X-88.7817 Y24.0308 
G01 X-88.7268 Y23.8618 
G01 X-88.6461 Y23.7035 
G01 X-88.5417 Y23.5598 
G01 X-88.4161 Y23.4342 
G01 X-88.2724 Y23.3298 
G01 X-88.1141 Y23.2491 
G01 X-87.9586 Y23.1986 
G01 X-87.9586 Y14.9014 
G01 X-88.1141 Y14.8509 
G01 X-88.2724 Y14.7702 
G01 X-88.4161 Y14.6658 
G01 X-88.5417 Y14.5402 
G01 X-88.6461 Y14.3965 
G01 X-88.7268 Y14.2382 
G01 X-88.7817 Y14.0692 
G01 X-88.8095 Y13.8937 
G01 X-88.8095 Y11.7095 
G01 X-88.7817 Y11.5340 
G01 X-88.7268 Y11.3650 
G01 X-88.6461 Y11.2067 
G01 X-88.5417 Y11.0630 
G01 X-88.4161 Y10.9374 
G01 X-88.2724 Y10.8330 
G01 X-88.1141 Y10.7523 
G01 X-87.9451 Y10.6974 
G01 X-87.7696 Y10.6696 
G01 X-87.5920 Y10.6696 
G01 X-87.4165 Y10.6974 
G01 X-87.2475 Y10.7523 
G01 X-87.0892 Y10.8330 
G01 X-86.9455 Y10.9374 
G01 X-86.8199 Y11.0630 
G01 X-86.7155 Y11.2067 
G01 X-86.6348 Y11.3650 
G01 X-86.5799 Y11.5340 
G01 X-86.5521 Y11.7095 
G01 X-86.5521 Y13.8937 
G01 X-86.5799 Y14.0692 
G01 X-86.6348 Y14.2382 
G01 X-86.7155 Y14.3965 
G01 X-86.8199 Y14.5402 
G01 X-86.9455 Y14.6658 
G01 X-87.0892 Y14.7702 
G01 X-87.2475 Y14.8509 
G01 X-87.3014 Y14.8684 
G01 X-87.3014 Y23.2316 
G01 X-87.2475 Y23.2491 
G01 X-87.0892 Y23.3298 
G01 X-86.9455 Y23.4342 
G01 X-86.8199 Y23.5598 
G01 X-86.7155 Y23.7035 
G01 X-86.6348 Y23.8618 
G01 X-86.5799 Y24.0308 
G01 X-86.5521 Y24.2063 
G01 X-86.5521 Y26.0132 
G01 X-86.2239 Y26.3414 
G01 X-69.8067 Y26.3414 
G01 X-69.7232 Y26.3638 
G01 X-69.6482 Y26.4071 
G01 X-69.5871 Y26.4682 
G01 X-68.3171 Y27.7382 
G01 X-68.2738 Y27.8132 
G01 X-68.2514 Y27.8967 
G01 X-68.2514 Y29.0739 
G01 X-63.4295 Y33.8958 
G01 X-63.2555 Y33.8682 
G01 X-61.0645 Y33.8682 
G01 X-60.8886 Y33.8961 
G01 X-60.7191 Y33.9511 
G01 X-60.5604 Y34.0320 
G01 X-60.4163 Y34.1367 
G01 X-60.2903 Y34.2627 
G01 X-60.1856 Y34.4068 
G01 X-60.1047 Y34.5655 
G01 X-60.0497 Y34.7350 
G01 X-60.0218 Y34.9109 
G01 X-60.0218 Y35.0891 
G01 X-60.0497 Y35.2650 
G01 X-60.1047 Y35.4345 
G01 X-60.1856 Y35.5932 
G01 X-60.2903 Y35.7373 
G01 X-60.4163 Y35.8633 
G00 Z2.5400  
G00 X-60.5959 Y32.1014 
G01 Z-0.1778 F500   
G01 X-60.7649 Y32.2144 F500   
G01 X-60.9526 Y32.2921 
G01 X-61.1520 Y32.3318 
G01 X-63.1680 Y32.3318 
G01 X-63.3674 Y32.2921 
G01 X-63.5551 Y32.2144 
G01 X-63.7241 Y32.1014 
G01 X-63.8678 Y31.9577 
G01 X-63.9808 Y31.7887 
G01 X-64.0585 Y31.6010 
G01 X-64.0982 Y31.4016 
G01 X-64.0982 Y31.1984 
G01 X-64.0585 Y30.9990 
G01 X-63.9808 Y30.8113 
G01 X-63.8678 Y30.6423 
G01 X-63.7241 Y30.4985 
G01 X-63.5551 Y30.3856 
G01 X-63.3674 Y30.3078 
G01 X-63.1680 Y30.2682 
G01 X-61.2325 Y30.2682 
G01 X-61.1707 Y30.2260 
G01 X-61.1618 Y30.2171 
G01 X-61.1351 Y30.2017 
G01 X-61.1097 Y30.1843 
G01 X-61.0978 Y30.1801 
G01 X-61.0868 Y30.1738 
G01 X-61.0571 Y30.1658 
G01 X-61.0280 Y30.1556 
G01 X-61.0154 Y30.1547 
G01 X-61.0033 Y30.1514 
G01 X-60.9725 Y30.1514 
G01 X-60.9418 Y30.1491 
G01 X-60.9294 Y30.1514 
G01 X-59.8261 Y30.1514 
G01 X-58.7486 Y29.0739 
G01 X-58.7486 Y28.0761 
G01 X-78.8761 Y7.9486  
G01 X-92.5739 Y7.9486  
G01 X-96.1914 Y11.5661 
G01 X-96.1914 Y34.1539 
G01 X-93.6630 Y36.6823 
G01 X-93.6245 Y36.6067 
G01 X-93.5201 Y36.4630 
G01 X-93.3945 Y36.3374 
G01 X-93.2508 Y36.2330 
G01 X-93.0925 Y36.1523 
G01 X-92.9235 Y36.0974 
G01 X-92.7480 Y36.0696 
G01 X-92.5704 Y36.0696 
G01 X-92.3949 Y36.0974 
G01 X-92.2259 Y36.1523 
G01 X-92.0676 Y36.2330 
G01 X-91.9239 Y36.3374 
G01 X-91.7983 Y36.4630 
G01 X-91.6938 Y36.6067 
G01 X-91.6132 Y36.7650 
G01 X-91.5583 Y36.9340 
G01 X-91.5305 Y37.1095 
G01 X-91.5305 Y39.2937 
G01 X-91.5583 Y39.4692 
G01 X-91.6132 Y39.6382 
G01 X-91.6938 Y39.7965 
G01 X-91.7983 Y39.9402 
G01 X-91.9239 Y40.0658 
G01 X-92.0676 Y40.1702 
G01 X-92.2259 Y40.2509 
G01 X-92.3814 Y40.3014 
G01 X-92.3814 Y48.5986 
G01 X-92.2259 Y48.6491 
G01 X-92.0676 Y48.7298 
G01 X-91.9239 Y48.8342 
G01 X-91.7983 Y48.9598 
G01 X-91.6938 Y49.1035 
G01 X-91.6132 Y49.2618 
G01 X-91.5583 Y49.4308 
G01 X-91.5305 Y49.6063 
G01 X-91.5305 Y51.5148 
G01 X-86.2239 Y56.8214 
G01 X-78.6967 Y56.8214 
G01 X-78.6132 Y56.8438 
G01 X-78.5382 Y56.8871 
G01 X-78.4771 Y56.9482 
G01 X-77.8371 Y57.5882 
G01 X-76.7387 Y57.5882 
G01 X-76.6926 Y57.6073 
G01 X-76.6573 Y57.6426 
G01 X-76.6382 Y57.6887 
G01 X-76.6382 Y59.1513 
G01 X-76.6573 Y59.1974 
G01 X-76.6926 Y59.2327 
G01 X-76.7387 Y59.2518 
G01 X-78.2013 Y59.2518 
G01 X-78.2474 Y59.2327 
G01 X-78.2827 Y59.1974 
G01 X-78.3018 Y59.1513 
G01 X-78.3018 Y58.0529 
G01 X-78.8761 Y57.4786 
G01 X-86.4033 Y57.4786 
G01 X-86.4868 Y57.4562 
G01 X-86.5618 Y57.4129 
G01 X-86.6229 Y57.3518 
G01 X-91.6897 Y52.2850 
G01 X-91.6938 Y52.2933 
G01 X-91.7983 Y52.4370 
G01 X-91.9239 Y52.5626 
G01 X-92.0676 Y52.6670 
G01 X-92.2259 Y52.7477 
G01 X-92.3949 Y52.8026 
G01 X-92.5704 Y52.8304 
G01 X-92.7480 Y52.8304 
G01 X-92.9235 Y52.8026 
G01 X-93.0925 Y52.7477 
G01 X-93.2508 Y52.6670 
G01 X-93.3945 Y52.5626 
G01 X-93.5201 Y52.4370 
G01 X-93.6245 Y52.2933 
G01 X-93.7052 Y52.1350 
G01 X-93.7601 Y51.9660 
G01 X-93.7879 Y51.7905 
G01 X-93.7879 Y49.6063 
G01 X-93.7601 Y49.4308 
G01 X-93.7052 Y49.2618 
G01 X-93.6245 Y49.1035 
G01 X-93.5201 Y48.9598 
G01 X-93.3945 Y48.8342 
G01 X-93.2508 Y48.7298 
G01 X-93.0925 Y48.6491 
G01 X-93.0386 Y48.6316 
G01 X-93.0386 Y40.2684 
G01 X-93.0925 Y40.2509 
G01 X-93.2508 Y40.1702 
G01 X-93.3945 Y40.0658 
G01 X-93.5201 Y39.9402 
G01 X-93.6245 Y39.7965 
G01 X-93.7052 Y39.6382 
G01 X-93.7601 Y39.4692 
G01 X-93.7879 Y39.2937 
G01 X-93.7879 Y37.4868 
G01 X-96.7829 Y34.4918 
G01 X-96.8262 Y34.4168 
G01 X-96.8486 Y34.3333 
G01 X-96.8486 Y11.3867 
G01 X-96.8262 Y11.3032 
G01 X-96.7829 Y11.2282 
G01 X-96.7218 Y11.1671 
G01 X-92.9118 Y7.3571  
G01 X-92.8368 Y7.3138  
G01 X-92.7533 Y7.2914  
G01 X-78.6967 Y7.2914  
G01 X-78.6132 Y7.3138  
G01 X-78.5382 Y7.3571  
G01 X-78.4771 Y7.4182  
G01 X-58.1571 Y27.7382 
G01 X-58.1138 Y27.8132 
G01 X-58.0914 Y27.8967 
G01 X-58.0914 Y29.2533 
G01 X-58.1138 Y29.3368 
G01 X-58.1571 Y29.4118 
G01 X-58.2182 Y29.4729 
G01 X-59.4882 Y30.7429 
G01 X-59.5632 Y30.7862 
G01 X-59.6467 Y30.8086 
G01 X-60.3410 Y30.8086 
G01 X-60.3392 Y30.8113 
G01 X-60.2615 Y30.9990 
G01 X-60.2218 Y31.1984 
G01 X-60.2218 Y31.4016 
G01 X-60.2615 Y31.6010 
G01 X-60.3392 Y31.7887 
G01 X-60.4521 Y31.9577 
G01 X-60.5959 Y32.1014 
G00 Z2.5400  
G00 X-60.5604 Y29.4680 
G01 Z-0.1778 F500   
G01 X-60.7191 Y29.5489 F500   
G01 X-60.8886 Y29.6039 
G01 X-61.0645 Y29.6318 
G01 X-63.2555 Y29.6318 
G01 X-63.4314 Y29.6039 
G01 X-63.6009 Y29.5489 
G01 X-63.7596 Y29.4680 
G01 X-63.9037 Y29.3633 
G01 X-64.0297 Y29.2373 
G01 X-64.1344 Y29.0932 
G01 X-64.2153 Y28.9345 
G01 X-64.2703 Y28.7650 
G01 X-64.2982 Y28.5891 
G01 X-64.2982 Y28.4109 
G01 X-64.2703 Y28.2350 
G01 X-64.2153 Y28.0655 
G01 X-64.1344 Y27.9068 
G01 X-64.0297 Y27.7627 
G01 X-63.9037 Y27.6367 
G01 X-63.7596 Y27.5320 
G01 X-63.6009 Y27.4511 
G01 X-63.4314 Y27.3961 
G01 X-63.2650 Y27.3697 
G01 X-81.4161 Y9.2186  
G01 X-92.5739 Y9.2186  
G01 X-94.9214 Y11.5661 
G01 X-94.9214 Y31.6139 
G01 X-89.9071 Y36.6282 
G01 X-89.8638 Y36.7032 
G01 X-89.8414 Y36.7867 
G01 X-89.8414 Y51.9339 
G01 X-86.2239 Y55.5514 
G01 X-74.8867 Y55.5514 
G01 X-74.8032 Y55.5738 
G01 X-74.7282 Y55.6171 
G01 X-74.6671 Y55.6782 
G01 X-74.6238 Y55.7532 
G01 X-74.6014 Y55.8367 
G01 X-74.6014 Y60.1282 
G01 X-74.1987 Y60.1282 
G01 X-74.1526 Y60.1473 
G01 X-74.1173 Y60.1826 
G01 X-74.0982 Y60.2287 
G01 X-74.0982 Y61.6913 
G01 X-74.1173 Y61.7374 
G01 X-74.1526 Y61.7727 
G01 X-74.1987 Y61.7918 
G01 X-75.6613 Y61.7918 
G01 X-75.7074 Y61.7727 
G01 X-75.7427 Y61.7374 
G01 X-75.7618 Y61.6913 
G01 X-75.7618 Y60.2287 
G01 X-75.7427 Y60.1826 
G01 X-75.7074 Y60.1473 
G01 X-75.6613 Y60.1282 
G01 X-75.2586 Y60.1282 
G01 X-75.2586 Y56.2086 
G01 X-86.4033 Y56.2086 
G01 X-86.4868 Y56.1862 
G01 X-86.5618 Y56.1429 
G01 X-86.6229 Y56.0818 
G01 X-90.3718 Y52.3329 
G01 X-90.4329 Y52.2718 
G01 X-90.4762 Y52.1968 
G01 X-90.4986 Y52.1133 
G01 X-90.4986 Y36.9661 
G01 X-95.4518 Y32.0129 
G01 X-95.5129 Y31.9518 
G01 X-95.5562 Y31.8768 
G01 X-95.5786 Y31.7933 
G01 X-95.5786 Y11.3867 
G01 X-95.5562 Y11.3032 
G01 X-95.5129 Y11.2282 
G01 X-92.9729 Y8.6882  
G01 X-92.9118 Y8.6271  
G01 X-92.8368 Y8.5838  
G01 X-92.7533 Y8.5614  
G01 X-81.2367 Y8.5614  
G01 X-81.1532 Y8.5838  
G01 X-81.0782 Y8.6271  
G01 X-62.3371 Y27.3682 
G01 X-61.0645 Y27.3682 
G01 X-60.8886 Y27.3961 
G01 X-60.7191 Y27.4511 
G01 X-60.5604 Y27.5320 
G01 X-60.4163 Y27.6367 
G01 X-60.2903 Y27.7627 
G01 X-60.1856 Y27.9068 
G01 X-60.1047 Y28.0655 
G01 X-60.0497 Y28.2350 
G01 X-60.0218 Y28.4109 
G01 X-60.0218 Y28.5891 
G01 X-60.0497 Y28.7650 
G01 X-60.1047 Y28.9345 
G01 X-60.1856 Y29.0932 
G01 X-60.2903 Y29.2373 
G01 X-60.4163 Y29.3633 
G01 X-60.5604 Y29.4680 
G00 Z2.5400  
G00 X-70.5903 Y34.2627 
G01 Z-0.1778 F500   
G01 X-70.4856 Y34.4068 F500   
G01 X-70.4047 Y34.5655 
G01 X-70.3497 Y34.7350 
G01 X-70.3218 Y34.9109 
G01 X-70.3218 Y35.0891 
G01 X-70.3497 Y35.2650 
G01 X-70.4047 Y35.4345 
G01 X-70.4856 Y35.5932 
G01 X-70.5903 Y35.7373 
G01 X-70.7163 Y35.8633 
G01 X-70.8604 Y35.9680 
G01 X-71.0191 Y36.0489 
G01 X-71.1886 Y36.1039 
G01 X-71.3550 Y36.1303 
G01 X-50.5371 Y56.9482 
G01 X-50.4938 Y57.0232 
G01 X-50.4714 Y57.1067 
G01 X-50.4714 Y62.2201 
G01 X-50.4694 Y62.2535 
G01 X-50.4714 Y62.2633 
G01 X-50.4714 Y62.2733 
G01 X-50.4800 Y62.3055 
G01 X-50.4867 Y62.3383 
G01 X-50.4912 Y62.3472 
G01 X-50.4938 Y62.3568 
G01 X-50.5105 Y62.3858 
G01 X-51.1654 Y63.6957 
G01 X-51.1318 Y63.8648 
G01 X-51.1318 Y65.6752 
G01 X-51.1679 Y65.8565 
G01 X-51.2386 Y66.0272 
G01 X-51.3413 Y66.1809 
G01 X-51.4719 Y66.3115 
G01 X-51.6256 Y66.4142 
G01 X-51.7963 Y66.4849 
G01 X-51.9776 Y66.5210 
G01 X-52.1624 Y66.5210 
G01 X-52.3437 Y66.4849 
G01 X-52.5144 Y66.4142 
G01 X-52.6681 Y66.3115 
G01 X-52.7987 Y66.1809 
G01 X-52.9014 Y66.0272 
G01 X-52.9721 Y65.8565 
G01 X-53.0082 Y65.6752 
G01 X-53.0082 Y63.8648 
G01 X-52.9721 Y63.6835 
G01 X-52.9014 Y63.5128 
G01 X-52.7987 Y63.3591 
G01 X-52.6681 Y63.2285 
G01 X-52.5144 Y63.1258 
G01 X-52.3437 Y63.0551 
G01 X-52.1624 Y63.0190 
G01 X-51.9776 Y63.0190 
G01 X-51.7963 Y63.0551 
G01 X-51.6256 Y63.1258 
G01 X-51.6179 Y63.1309 
G01 X-51.1286 Y62.1524 
G01 X-51.1286 Y57.2861 
G01 X-72.2829 Y36.1318 
G01 X-73.5555 Y36.1318 
G01 X-73.7314 Y36.1039 
G01 X-73.9009 Y36.0489 
G01 X-74.0596 Y35.9680 
G01 X-74.2037 Y35.8633 
G01 X-74.3297 Y35.7373 
G01 X-74.4344 Y35.5932 
G01 X-74.5153 Y35.4345 
G01 X-74.5703 Y35.2650 
G01 X-74.5982 Y35.0891 
G01 X-74.5982 Y34.9109 
G01 X-74.5703 Y34.7350 
G01 X-74.5153 Y34.5655 
G01 X-74.4344 Y34.4068 
G01 X-74.3297 Y34.2627 
G01 X-74.2037 Y34.1367 
G01 X-74.0596 Y34.0320 
G01 X-73.9009 Y33.9511 
G01 X-73.7314 Y33.8961 
G01 X-73.5555 Y33.8682 
G01 X-71.3645 Y33.8682 
G01 X-71.1886 Y33.8961 
G01 X-71.0191 Y33.9511 
G01 X-70.8604 Y34.0320 
G01 X-70.7163 Y34.1367 
G01 X-70.5903 Y34.2627 
G00 Z2.5400  
G00 X-78.4771 Y37.8982 
G01 Z-0.1778 F500   
G01 X-78.4771 Y37.8982 F500   
G01 X-64.6339 Y51.7414 
G01 X-58.3767 Y51.7414 
G01 X-58.2932 Y51.7638 
G01 X-58.2182 Y51.8071 
G01 X-58.1571 Y51.8682 
G01 X-56.8871 Y53.1382 
G01 X-56.8438 Y53.2132 
G01 X-56.8214 Y53.2967 
G01 X-56.8214 Y63.0778 
G01 X-56.7056 Y63.1258 
G01 X-56.5519 Y63.2285 
G01 X-56.4213 Y63.3591 
G01 X-56.3186 Y63.5128 
G01 X-56.2479 Y63.6835 
G01 X-56.2118 Y63.8648 
G01 X-56.2118 Y65.6752 
G01 X-56.2479 Y65.8565 
G01 X-56.3186 Y66.0272 
G01 X-56.4213 Y66.1809 
G01 X-56.5519 Y66.3115 
G01 X-56.7056 Y66.4142 
G01 X-56.8763 Y66.4849 
G01 X-57.0576 Y66.5210 
G01 X-57.2424 Y66.5210 
G01 X-57.4237 Y66.4849 
G01 X-57.5944 Y66.4142 
G01 X-57.7481 Y66.3115 
G01 X-57.8787 Y66.1809 
G01 X-57.9814 Y66.0272 
G01 X-58.0521 Y65.8565 
G01 X-58.0882 Y65.6752 
G01 X-58.0882 Y63.8648 
G01 X-58.0521 Y63.6835 
G01 X-57.9814 Y63.5128 
G01 X-57.8787 Y63.3591 
G01 X-57.7481 Y63.2285 
G01 X-57.5944 Y63.1258 
G01 X-57.4786 Y63.0778 
G01 X-57.4786 Y53.4761 
G01 X-58.5561 Y52.3986 
G01 X-63.9767 Y52.3986 
G01 X-62.4307 Y53.9446 
G01 X-62.3118 Y53.9258 
G01 X-62.1482 Y53.9258 
G01 X-61.9865 Y53.9514 
G01 X-61.8309 Y54.0020 
G01 X-61.6850 Y54.0763 
G01 X-61.5526 Y54.1725 
G01 X-61.4369 Y54.2882 
G01 X-61.3407 Y54.4206 
G01 X-61.2664 Y54.5665 
G01 X-61.2158 Y54.7221 
G01 X-61.1902 Y54.8838 
G01 X-61.1902 Y56.8762 
G01 X-61.2158 Y57.0379 
G01 X-61.2664 Y57.1935 
G01 X-61.3407 Y57.3394 
G01 X-61.4369 Y57.4718 
G01 X-61.5526 Y57.5875 
G01 X-61.6850 Y57.6837 
G01 X-61.8309 Y57.7580 
G01 X-61.9865 Y57.8086 
G01 X-62.1482 Y57.8342 
G01 X-62.3118 Y57.8342 
G01 X-62.4735 Y57.8086 
G01 X-62.6291 Y57.7580 
G01 X-62.7750 Y57.6837 
G01 X-62.9074 Y57.5875 
G01 X-63.0231 Y57.4718 
G01 X-63.1193 Y57.3394 
G01 X-63.1936 Y57.1935 
G01 X-63.2442 Y57.0379 
G01 X-63.2698 Y56.8762 
G01 X-63.2698 Y54.8838 
G01 X-63.2442 Y54.7221 
G01 X-63.1936 Y54.5665 
G01 X-63.1193 Y54.4206 
G01 X-63.0231 Y54.2882 
G01 X-63.0198 Y54.2849 
G01 X-65.0329 Y52.2718 
G01 X-78.8761 Y38.4286 
G01 X-82.5933 Y38.4286 
G01 X-82.6768 Y38.4062 
G01 X-82.7518 Y38.3629 
G01 X-82.8129 Y38.3018 
G01 X-82.8562 Y38.2268 
G01 X-82.8786 Y38.1433 
G01 X-82.8786 Y33.8518 
G01 X-83.2813 Y33.8518 
G01 X-83.3274 Y33.8327 
G01 X-83.3627 Y33.7974 
G01 X-83.3818 Y33.7513 
G01 X-83.3818 Y32.2887 
G01 X-83.3627 Y32.2426 
G01 X-83.3274 Y32.2073 
G01 X-83.2813 Y32.1882 
G01 X-81.8187 Y32.1882 
G01 X-81.7726 Y32.2073 
G01 X-81.7373 Y32.2426 
G01 X-81.7182 Y32.2887 
G01 X-81.7182 Y33.7513 
G01 X-81.7373 Y33.7974 
G01 X-81.7726 Y33.8327 
G01 X-81.8187 Y33.8518 
G01 X-82.2214 Y33.8518 
G01 X-82.2214 Y37.7714 
G01 X-78.6967 Y37.7714 
G01 X-78.6132 Y37.7938 
G01 X-78.5382 Y37.8371 
G01 X-78.4771 Y37.8982 
G00 Z2.5400  
G00 X-81.0171 Y58.2182 
G01 Z-0.1778 F500   
G01 X-80.9738 Y58.2932 F500   
G01 X-80.9514 Y58.3767 
G01 X-80.9514 Y70.9839 
G01 X-79.8739 Y72.0614 
G01 X-77.4267 Y72.0614 
G01 X-77.3432 Y72.0838 
G01 X-77.2682 Y72.1271 
G01 X-75.9789 Y73.4164 
G01 X-75.9578 Y73.4338 
G01 X-75.9484 Y73.4469 
G01 X-75.9371 Y73.4582 
G01 X-75.9234 Y73.4819 
G01 X-71.6672 Y79.4406 
G01 X-71.6579 Y79.4536 
G01 X-71.6465 Y79.4650 
G01 X-71.6328 Y79.4887 
G01 X-69.6809 Y82.2214 
G01 X-59.8261 Y82.2214 
G01 X-59.2518 Y81.6471 
G01 X-59.2518 Y80.5487 
G01 X-59.2327 Y80.5026 
G01 X-59.1974 Y80.4673 
G01 X-59.1513 Y80.4482 
G01 X-58.2069 Y80.4482 
G01 X-54.9386 Y76.0905 
G01 X-54.9386 Y74.0822 
G01 X-55.0544 Y74.0342 
G01 X-55.2081 Y73.9315 
G01 X-55.3387 Y73.8009 
G01 X-55.4414 Y73.6472 
G01 X-55.5121 Y73.4765 
G01 X-55.5482 Y73.2952 
G01 X-55.5482 Y71.4848 
G01 X-55.5121 Y71.3035 
G01 X-55.4414 Y71.1328 
G01 X-55.3387 Y70.9791 
G01 X-55.2081 Y70.8485 
G01 X-55.0544 Y70.7458 
G01 X-54.8837 Y70.6751 
G01 X-54.7024 Y70.6390 
G01 X-54.5176 Y70.6390 
G01 X-54.3363 Y70.6751 
G01 X-54.1656 Y70.7458 
G01 X-54.0119 Y70.8485 
G01 X-53.8813 Y70.9791 
G01 X-53.7786 Y71.1328 
G01 X-53.7079 Y71.3035 
G01 X-53.6718 Y71.4848 
G01 X-53.6718 Y73.2952 
G01 X-53.7079 Y73.4765 
G01 X-53.7786 Y73.6472 
G01 X-53.8813 Y73.8009 
G01 X-54.0119 Y73.9315 
G01 X-54.1656 Y74.0342 
G01 X-54.2814 Y74.0822 
G01 X-54.2814 Y76.0639 
G01 X-53.7711 Y76.5742 
G01 X-53.7286 Y76.5318 
G01 X-52.9514 Y76.5318 
G01 X-52.4018 Y77.0814 
G01 X-52.4018 Y77.8586 
G01 X-52.9514 Y78.4082 
G01 X-53.7286 Y78.4082 
G01 X-54.2782 Y77.8586 
G01 X-54.2782 Y77.0814 
G01 X-54.2358 Y77.0389 
G01 X-54.5744 Y76.7003 
G01 X-57.5882 Y80.7186 
G01 X-57.5882 Y82.0113 
G01 X-57.6073 Y82.0574 
G01 X-57.6426 Y82.0927 
G01 X-57.6887 Y82.1118 
G01 X-58.7871 Y82.1118 
G01 X-59.4882 Y82.8129 
G01 X-59.5632 Y82.8562 
G01 X-59.6467 Y82.8786 
G01 X-69.8341 Y82.8786 
G01 X-69.8614 Y82.8812 
G01 X-69.8772 Y82.8786 
G01 X-69.8933 Y82.8786 
G01 X-69.9197 Y82.8715 
G01 X-69.9467 Y82.8670 
G01 X-69.9613 Y82.8604 
G01 X-69.9768 Y82.8562 
G01 X-70.0005 Y82.8425 
G01 X-70.0254 Y82.8312 
G01 X-70.0379 Y82.8210 
G01 X-70.0518 Y82.8129 
G01 X-70.0711 Y82.7936 
G01 X-70.0922 Y82.7762 
G01 X-70.1016 Y82.7631 
G01 X-70.1129 Y82.7518 
G01 X-70.1266 Y82.7281 
G01 X-72.0786 Y79.9954 
G01 X-72.9758 Y79.9954 
G01 X-72.9758 Y80.0918 
G01 X-73.0014 Y80.2535 
G01 X-73.0520 Y80.4091 
G01 X-73.1263 Y80.5550 
G01 X-73.2225 Y80.6874 
G01 X-73.3382 Y80.8031 
G01 X-73.4706 Y80.8993 
G01 X-73.6165 Y80.9736 
G01 X-73.7721 Y81.0242 
G01 X-73.9338 Y81.0498 
G01 X-75.9262 Y81.0498 
G01 X-76.0879 Y81.0242 
G01 X-76.2435 Y80.9736 
G01 X-76.3894 Y80.8993 
G01 X-76.5218 Y80.8031 
G01 X-76.6375 Y80.6874 
G01 X-76.7337 Y80.5550 
G01 X-76.8080 Y80.4091 
G01 X-76.8586 Y80.2535 
G01 X-76.8842 Y80.0918 
G01 X-76.8842 Y79.9282 
G01 X-76.8586 Y79.7665 
G01 X-76.8080 Y79.6109 
G01 X-76.7337 Y79.4650 
G01 X-76.6375 Y79.3326 
G01 X-76.5218 Y79.2169 
G01 X-76.3894 Y79.1207 
G01 X-76.2435 Y79.0464 
G01 X-76.0879 Y78.9958 
G01 X-75.9262 Y78.9702 
G01 X-73.9338 Y78.9702 
G01 X-73.7721 Y78.9958 
G01 X-73.6165 Y79.0464 
G01 X-73.4706 Y79.1207 
G01 X-73.3382 Y79.2169 
G01 X-73.2225 Y79.3326 
G01 X-73.2185 Y79.3382 
G01 X-72.5480 Y79.3382 
G01 X-76.4516 Y73.8731 
G01 X-77.6061 Y72.7186 
G01 X-80.0533 Y72.7186 
G01 X-80.1368 Y72.6962 
G01 X-80.2118 Y72.6529 
G01 X-80.2729 Y72.5918 
G01 X-81.4818 Y71.3829 
G01 X-81.5429 Y71.3218 
G01 X-81.5862 Y71.2468 
G01 X-81.6086 Y71.1633 
G01 X-81.6086 Y58.7486 
G01 X-87.6733 Y58.7486 
G01 X-87.7568 Y58.7262 
G01 X-87.8318 Y58.6829 
G01 X-92.2111 Y54.3036 
G01 X-94.0233 Y54.3036 
G01 X-94.1068 Y54.2812 
G01 X-94.1818 Y54.2379 
G01 X-94.8168 Y53.6029 
G01 X-94.8779 Y53.5418 
G01 X-94.9212 Y53.4668 
G01 X-94.9436 Y53.3833 
G01 X-94.9436 Y51.1286 
G01 X-98.7314 Y51.1286 
G01 X-98.7314 Y56.3466 
G01 X-95.7780 Y58.8194 
G01 X-95.6597 Y58.7010 
G01 X-94.8403 Y58.7010 
G01 X-94.2610 Y59.2803 
G01 X-94.2610 Y60.0997 
G01 X-94.8403 Y60.6790 
G01 X-95.6597 Y60.6790 
G01 X-96.2390 Y60.0997 
G01 X-96.2390 Y59.2905 
G01 X-99.2490 Y56.7703 
G01 X-99.2618 Y56.7629 
G01 X-99.2821 Y56.7426 
G01 X-99.3041 Y56.7242 
G01 X-99.3125 Y56.7122 
G01 X-99.3229 Y56.7018 
G01 X-99.3373 Y56.6769 
G01 X-99.3538 Y56.6534 
G01 X-99.3589 Y56.6396 
G01 X-99.3662 Y56.6268 
G01 X-99.3736 Y56.5991 
G01 X-99.3835 Y56.5721 
G01 X-99.3848 Y56.5574 
G01 X-99.3886 Y56.5433 
G01 X-99.3886 Y56.5145 
G01 X-99.3911 Y56.4859 
G01 X-99.3886 Y56.4714 
G01 X-99.3886 Y33.8518 
G01 X-99.7913 Y33.8518 
G01 X-99.8374 Y33.8327 
G01 X-99.8727 Y33.7974 
G01 X-99.8918 Y33.7513 
G01 X-99.8918 Y32.2887 
G01 X-99.8727 Y32.2426 
G01 X-99.8374 Y32.2073 
G01 X-99.7913 Y32.1882 
G01 X-98.3287 Y32.1882 
G01 X-98.2826 Y32.2073 
G01 X-98.2473 Y32.2426 
G01 X-98.2282 Y32.2887 
G01 X-98.2282 Y33.7513 
G01 X-98.2473 Y33.7974 
G01 X-98.2826 Y33.8327 
G01 X-98.3287 Y33.8518 
G01 X-98.7314 Y33.8518 
G01 X-98.7314 Y50.4714 
G01 X-94.5717 Y50.4714 
G01 X-94.4882 Y50.4938 
G01 X-94.4132 Y50.5371 
G01 X-94.3521 Y50.5982 
G01 X-94.3088 Y50.6732 
G01 X-94.2864 Y50.7567 
G01 X-94.2864 Y53.2039 
G01 X-93.8439 Y53.6464 
G01 X-92.0317 Y53.6464 
G01 X-91.9482 Y53.6688 
G01 X-91.8732 Y53.7121 
G01 X-91.8121 Y53.7732 
G01 X-87.4939 Y58.0914 
G01 X-81.2367 Y58.0914 
G01 X-81.1532 Y58.1138 
G01 X-81.0782 Y58.1571 
G01 X-81.0171 Y58.2182 
G00 Z2.5400  
G00 X-79.5174 Y63.9573 
G01 Z-0.1778 F500   
G01 X-79.4713 Y63.9382 F500   
G01 X-78.0087 Y63.9382 
G01 X-77.9626 Y63.9573 
G01 X-77.9273 Y63.9926 
G01 X-77.9082 Y64.0387 
G01 X-77.9082 Y64.4414 
G01 X-77.4267 Y64.4414 
G01 X-77.3432 Y64.4638 
G01 X-77.2682 Y64.5071 
G01 X-77.2071 Y64.5682 
G01 X-74.7939 Y66.9814 
G01 X-63.4567 Y66.9814 
G01 X-63.3732 Y67.0038 
G01 X-63.2982 Y67.0471 
G01 X-63.2371 Y67.1082 
G01 X-61.9671 Y68.3782 
G01 X-61.9238 Y68.4532 
G01 X-61.9014 Y68.5367 
G01 X-61.9014 Y70.6978 
G01 X-61.7856 Y70.7458 
G01 X-61.6319 Y70.8485 
G01 X-61.5013 Y70.9791 
G01 X-61.3986 Y71.1328 
G01 X-61.3279 Y71.3035 
G01 X-61.2918 Y71.4848 
G01 X-61.2918 Y73.2952 
G01 X-61.3279 Y73.4765 
G01 X-61.3986 Y73.6472 
G01 X-61.5013 Y73.8009 
G01 X-61.6319 Y73.9315 
G01 X-61.7856 Y74.0342 
G01 X-61.9563 Y74.1049 
G01 X-62.0578 Y74.1251 
G01 X-62.4594 Y78.5432 
G01 X-62.1337 Y78.5432 
G01 X-62.0876 Y78.5623 
G01 X-62.0523 Y78.5976 
G01 X-62.0332 Y78.6437 
G01 X-62.0332 Y80.1063 
G01 X-62.0523 Y80.1524 
G01 X-62.0876 Y80.1877 
G01 X-62.1337 Y80.2068 
G01 X-63.5963 Y80.2068 
G01 X-63.6424 Y80.1877 
G01 X-63.6777 Y80.1524 
G01 X-63.6968 Y80.1063 
G01 X-63.6968 Y78.6437 
G01 X-63.6777 Y78.5976 
G01 X-63.6424 Y78.5623 
G01 X-63.5963 Y78.5432 
G01 X-63.1193 Y78.5432 
G01 X-62.7074 Y74.0122 
G01 X-62.8281 Y73.9315 
G01 X-62.9587 Y73.8009 
G01 X-63.0614 Y73.6472 
G01 X-63.1321 Y73.4765 
G01 X-63.1682 Y73.2952 
G01 X-63.1682 Y71.4848 
G01 X-63.1321 Y71.3035 
G01 X-63.0614 Y71.1328 
G01 X-62.9587 Y70.9791 
G01 X-62.8281 Y70.8485 
G01 X-62.6744 Y70.7458 
G01 X-62.5586 Y70.6978 
G01 X-62.5586 Y68.7161 
G01 X-63.6361 Y67.6386 
G01 X-74.9733 Y67.6386 
G01 X-75.0568 Y67.6162 
G01 X-75.1318 Y67.5729 
G01 X-77.6061 Y65.0986 
G01 X-77.9082 Y65.0986 
G01 X-77.9082 Y65.5013 
G01 X-77.9273 Y65.5474 
G01 X-77.9626 Y65.5827 
G01 X-78.0087 Y65.6018 
G01 X-79.4713 Y65.6018 
G01 X-79.5174 Y65.5827 
G01 X-79.5527 Y65.5474 
G01 X-79.5718 Y65.5013 
G01 X-79.5718 Y64.0387 
G01 X-79.5527 Y63.9926 
G01 X-79.5174 Y63.9573 
G00 Z2.5400  
G00 X-79.5174 Y66.4973 
G01 Z-0.1778 F500   
G01 X-79.4713 Y66.4782 F500   
G01 X-78.0087 Y66.4782 
G01 X-77.9626 Y66.4973 
G01 X-77.9273 Y66.5326 
G01 X-77.9082 Y66.5787 
G01 X-77.9082 Y67.6771 
G01 X-77.3339 Y68.2514 
G01 X-64.7267 Y68.2514 
G01 X-64.6432 Y68.2738 
G01 X-64.5682 Y68.3171 
G01 X-64.5071 Y68.3782 
G01 X-64.4638 Y68.4532 
G01 X-64.4414 Y68.5367 
G01 X-64.4414 Y70.6978 
G01 X-64.3256 Y70.7458 
G01 X-64.1719 Y70.8485 
G01 X-64.0413 Y70.9791 
G01 X-63.9386 Y71.1328 
G01 X-63.8679 Y71.3035 
G01 X-63.8318 Y71.4848 
G01 X-63.8318 Y73.2952 
G01 X-63.8679 Y73.4765 
G01 X-63.9386 Y73.6472 
G01 X-64.0413 Y73.8009 
G01 X-64.1719 Y73.9315 
G01 X-64.3256 Y74.0342 
G01 X-64.4414 Y74.0822 
G01 X-64.4414 Y78.5432 
G01 X-64.0387 Y78.5432 
G01 X-63.9926 Y78.5623 
G01 X-63.9573 Y78.5976 
G01 X-63.9382 Y78.6437 
G01 X-63.9382 Y80.1063 
G01 X-63.9573 Y80.1524 
G01 X-63.9926 Y80.1877 
G01 X-64.0387 Y80.2068 
G01 X-65.5013 Y80.2068 
G01 X-65.5474 Y80.1877 
G01 X-65.5827 Y80.1524 
G01 X-65.6018 Y80.1063 
G01 X-65.6018 Y78.6437 
G01 X-65.5827 Y78.5976 
G01 X-65.5474 Y78.5623 
G01 X-65.5013 Y78.5432 
G01 X-65.0986 Y78.5432 
G01 X-65.0986 Y74.0822 
G01 X-65.2144 Y74.0342 
G01 X-65.3681 Y73.9315 
G01 X-65.4987 Y73.8009 
G01 X-65.6014 Y73.6472 
G01 X-65.6721 Y73.4765 
G01 X-65.7082 Y73.2952 
G01 X-65.7082 Y71.4848 
G01 X-65.6721 Y71.3035 
G01 X-65.6014 Y71.1328 
G01 X-65.4987 Y70.9791 
G01 X-65.3681 Y70.8485 
G01 X-65.2144 Y70.7458 
G01 X-65.0986 Y70.6978 
G01 X-65.0986 Y68.9086 
G01 X-77.5133 Y68.9086 
G01 X-77.5968 Y68.8862 
G01 X-77.6718 Y68.8429 
G01 X-78.3729 Y68.1418 
G01 X-79.4713 Y68.1418 
G01 X-79.5174 Y68.1227 
G01 X-79.5527 Y68.0874 
G01 X-79.5718 Y68.0413 
G01 X-79.5718 Y66.5787 
G01 X-79.5527 Y66.5326 
G01 X-79.5174 Y66.4973 
G00 Z2.5400  
G00 X-79.5174 Y69.0373 
G01 Z-0.1778 F500   
G01 X-79.4713 Y69.0182 F500   
G01 X-78.0087 Y69.0182 
G01 X-77.9626 Y69.0373 
G01 X-77.9273 Y69.0726 
G01 X-77.9082 Y69.1187 
G01 X-77.9082 Y69.5214 
G01 X-67.2667 Y69.5214 
G01 X-67.1832 Y69.5438 
G01 X-67.1082 Y69.5871 
G01 X-67.0471 Y69.6482 
G01 X-67.0038 Y69.7232 
G01 X-66.9814 Y69.8067 
G01 X-66.9814 Y70.6978 
G01 X-66.8656 Y70.7458 
G01 X-66.7119 Y70.8485 
G01 X-66.5813 Y70.9791 
G01 X-66.4786 Y71.1328 
G01 X-66.4079 Y71.3035 
G01 X-66.3718 Y71.4848 
G01 X-66.3718 Y73.2952 
G01 X-66.4079 Y73.4765 
G01 X-66.4786 Y73.6472 
G01 X-66.5813 Y73.8009 
G01 X-66.7119 Y73.9315 
G01 X-66.8326 Y74.0122 
G01 X-66.4207 Y78.5432 
G01 X-65.9437 Y78.5432 
G01 X-65.8976 Y78.5623 
G01 X-65.8623 Y78.5976 
G01 X-65.8432 Y78.6437 
G01 X-65.8432 Y80.1063 
G01 X-65.8623 Y80.1524 
G01 X-65.8976 Y80.1877 
G01 X-65.9437 Y80.2068 
G01 X-67.4063 Y80.2068 
G01 X-67.4524 Y80.1877 
G01 X-67.4877 Y80.1524 
G01 X-67.5068 Y80.1063 
G01 X-67.5068 Y78.6437 
G01 X-67.4877 Y78.5976 
G01 X-67.4524 Y78.5623 
G01 X-67.4063 Y78.5432 
G01 X-67.0806 Y78.5432 
G01 X-67.4822 Y74.1251 
G01 X-67.5837 Y74.1049 
G01 X-67.7544 Y74.0342 
G01 X-67.9081 Y73.9315 
G01 X-68.0387 Y73.8009 
G01 X-68.1414 Y73.6472 
G01 X-68.2121 Y73.4765 
G01 X-68.2482 Y73.2952 
G01 X-68.2482 Y71.4848 
G01 X-68.2121 Y71.3035 
G01 X-68.1414 Y71.1328 
G01 X-68.0387 Y70.9791 
G01 X-67.9081 Y70.8485 
G01 X-67.7544 Y70.7458 
G01 X-67.6386 Y70.6978 
G01 X-67.6386 Y70.1786 
G01 X-77.9082 Y70.1786 
G01 X-77.9082 Y70.5813 
G01 X-77.9273 Y70.6274 
G01 X-77.9626 Y70.6627 
G01 X-78.0087 Y70.6818 
G01 X-79.4713 Y70.6818 
G01 X-79.5174 Y70.6627 
G01 X-79.5527 Y70.6274 
G01 X-79.5718 Y70.5813 
G01 X-79.5718 Y69.1187 
G01 X-79.5527 Y69.0726 
G01 X-79.5174 Y69.0373 
G00 Z2.5400  
G00 X-84.2773 Y69.0726 
G01 Z-0.1778 F500   
G01 X-84.2582 Y69.1187 F500   
G01 X-84.2582 Y70.5813 
G01 X-84.2773 Y70.6274 
G01 X-84.3126 Y70.6627 
G01 X-84.3587 Y70.6818 
G01 X-85.8213 Y70.6818 
G01 X-85.8674 Y70.6627 
G01 X-85.9027 Y70.6274 
G01 X-85.9218 Y70.5813 
G01 X-85.9218 Y70.1786 
G01 X-91.7139 Y70.1786 
G01 X-93.1682 Y71.6329 
G01 X-93.1682 Y72.7313 
G01 X-93.1873 Y72.7774 
G01 X-93.2226 Y72.8127 
G01 X-93.2687 Y72.8318 
G01 X-94.7313 Y72.8318 
G01 X-94.7774 Y72.8127 
G01 X-94.8127 Y72.7774 
G01 X-94.8318 Y72.7313 
G01 X-94.8318 Y71.2687 
G01 X-94.8127 Y71.2226 
G01 X-94.7774 Y71.1873 
G01 X-94.7313 Y71.1682 
G01 X-93.6329 Y71.1682 
G01 X-92.0518 Y69.5871 
G01 X-91.9768 Y69.5438 
G01 X-91.8933 Y69.5214 
G01 X-85.9218 Y69.5214 
G01 X-85.9218 Y69.1187 
G01 X-85.9027 Y69.0726 
G01 X-85.8674 Y69.0373 
G01 X-85.8213 Y69.0182 
G01 X-84.3587 Y69.0182 
G01 X-84.3126 Y69.0373 
G01 X-84.2773 Y69.0726 
G00 Z2.5400  
G00 X-84.3126 Y68.1227 
G01 Z-0.1778 F500   
G01 X-84.3587 Y68.1418 F500   
G01 X-85.8213 Y68.1418 
G01 X-85.8674 Y68.1227 
G01 X-85.9027 Y68.0874 
G01 X-85.9218 Y68.0413 
G01 X-85.9218 Y67.6386 
G01 X-90.2133 Y67.6386 
G01 X-90.2968 Y67.6162 
G01 X-90.3718 Y67.5729 
G01 X-92.2430 Y65.7017 
G01 X-92.3003 Y65.7590 
G01 X-93.1197 Y65.7590 
G01 X-93.6990 Y65.1797 
G01 X-93.6990 Y64.3603 
G01 X-93.1197 Y63.7810 
G01 X-92.3003 Y63.7810 
G01 X-91.7210 Y64.3603 
G01 X-91.7210 Y65.1797 
G01 X-91.7783 Y65.2370 
G01 X-90.0339 Y66.9814 
G01 X-85.9218 Y66.9814 
G01 X-85.9218 Y66.5787 
G01 X-85.9027 Y66.5326 
G01 X-85.8674 Y66.4973 
G01 X-85.8213 Y66.4782 
G01 X-84.3587 Y66.4782 
G01 X-84.3126 Y66.4973 
G01 X-84.2773 Y66.5326 
G01 X-84.2582 Y66.5787 
G01 X-84.2582 Y68.0413 
G01 X-84.2773 Y68.0874 
G01 X-84.3126 Y68.1227 
G00 Z2.5400  
G00 X-84.3126 Y65.5827 
G01 Z-0.1778 F500   
G01 X-84.3587 Y65.6018 F500   
G01 X-85.8213 Y65.6018 
G01 X-85.8674 Y65.5827 
G01 X-85.9027 Y65.5474 
G01 X-85.9218 Y65.5013 
G01 X-85.9218 Y64.6104 
G01 X-88.9995 Y62.5586 
G01 X-91.7210 Y62.5586 
G01 X-91.7210 Y62.6397 
G01 X-92.3003 Y63.2190 
G01 X-93.1197 Y63.2190 
G01 X-93.6990 Y62.6397 
G01 X-93.6990 Y61.8203 
G01 X-93.1197 Y61.2410 
G01 X-92.3003 Y61.2410 
G01 X-91.7210 Y61.8203 
G01 X-91.7210 Y61.9014 
G01 X-88.9325 Y61.9014 
G01 X-88.9220 Y61.8993 
G01 X-88.8894 Y61.9014 
G01 X-88.8567 Y61.9014 
G01 X-88.8464 Y61.9042 
G01 X-88.8357 Y61.9049 
G01 X-88.8047 Y61.9153 
G01 X-88.7732 Y61.9238 
G01 X-88.7639 Y61.9292 
G01 X-88.7537 Y61.9326 
G01 X-88.7265 Y61.9507 
G01 X-88.6982 Y61.9671 
G01 X-88.6907 Y61.9746 
G01 X-85.7453 Y63.9382 
G01 X-84.3587 Y63.9382 
G01 X-84.3126 Y63.9573 
G01 X-84.2773 Y63.9926 
G01 X-84.2582 Y64.0387 
G01 X-84.2582 Y65.5013 
G01 X-84.2773 Y65.5474 
G01 X-84.3126 Y65.5827 
G00 Z2.5400  
G00 X-86.8369 Y72.0682 
G01 Z-0.1778 F500   
G01 X-86.7407 Y72.2006 F500   
G01 X-86.6664 Y72.3465 
G01 X-86.6158 Y72.5021 
G01 X-86.5902 Y72.6638 
G01 X-86.5902 Y73.3314 
G01 X-82.5067 Y73.3314 
G01 X-82.4232 Y73.3538 
G01 X-82.3482 Y73.3971 
G01 X-82.2871 Y73.4582 
G01 X-79.8082 Y75.9371 
G01 X-79.7471 Y75.9982 
G01 X-79.7038 Y76.0732 
G01 X-79.6814 Y76.1567 
G01 X-79.6814 Y77.4557 
G01 X-79.6789 Y77.4845 
G01 X-79.6814 Y77.4988 
G01 X-79.6814 Y81.6118 
G01 X-79.6214 Y81.6118 
G01 X-79.0718 Y82.1614 
G01 X-79.0718 Y82.9386 
G01 X-79.6214 Y83.4882 
G01 X-80.3986 Y83.4882 
G01 X-80.9482 Y82.9386 
G01 X-80.9482 Y82.1614 
G01 X-80.3986 Y81.6118 
G01 X-80.3386 Y81.6118 
G01 X-80.3386 Y78.1011 
G01 X-91.3146 Y85.7843 
G01 X-91.3146 Y86.9380 
G01 X-92.1320 Y87.7554 
G01 X-93.2880 Y87.7554 
G01 X-94.1054 Y86.9380 
G01 X-94.1054 Y85.7820 
G01 X-93.2880 Y84.9646 
G01 X-92.1320 Y84.9646 
G01 X-91.7851 Y85.3115 
G01 X-80.3386 Y77.2989 
G01 X-80.3386 Y76.3361 
G01 X-82.6861 Y73.9886 
G01 X-86.5902 Y73.9886 
G01 X-86.5902 Y74.6562 
G01 X-86.6158 Y74.8179 
G01 X-86.6664 Y74.9735 
G01 X-86.7407 Y75.1194 
G01 X-86.8369 Y75.2518 
G01 X-86.9526 Y75.3675 
G01 X-87.0850 Y75.4637 
G01 X-87.2309 Y75.5380 
G01 X-87.3865 Y75.5886 
G01 X-87.5482 Y75.6142 
G01 X-87.7118 Y75.6142 
G01 X-87.8735 Y75.5886 
G01 X-88.0291 Y75.5380 
G01 X-88.1750 Y75.4637 
G01 X-88.3074 Y75.3675 
G01 X-88.4231 Y75.2518 
G01 X-88.5193 Y75.1194 
G01 X-88.5936 Y74.9735 
G01 X-88.6442 Y74.8179 
G01 X-88.6698 Y74.6562 
G01 X-88.6698 Y72.6638 
G01 X-88.6442 Y72.5021 
G01 X-88.5936 Y72.3465 
G01 X-88.5193 Y72.2006 
G01 X-88.4231 Y72.0682 
G01 X-88.3074 Y71.9525 
G01 X-88.1750 Y71.8563 
G01 X-88.0291 Y71.7820 
G01 X-87.8735 Y71.7314 
G01 X-87.7118 Y71.7058 
G01 X-87.5482 Y71.7058 
G01 X-87.3865 Y71.7314 
G01 X-87.2309 Y71.7820 
G01 X-87.0850 Y71.8563 
G01 X-86.9526 Y71.9525 
G01 X-86.8369 Y72.0682 
G00 Z2.5400  
G00 X-89.3769 Y72.0682 
G01 Z-0.1778 F500   
G01 X-89.2807 Y72.2006 F500   
G01 X-89.2064 Y72.3465 
G01 X-89.1558 Y72.5021 
G01 X-89.1302 Y72.6638 
G01 X-89.1302 Y74.6562 
G01 X-89.1558 Y74.8179 
G01 X-89.2064 Y74.9735 
G01 X-89.2807 Y75.1194 
G01 X-89.3769 Y75.2518 
G01 X-89.4926 Y75.3675 
G01 X-89.6250 Y75.4637 
G01 X-89.7709 Y75.5380 
G01 X-89.9265 Y75.5886 
G01 X-90.0882 Y75.6142 
G01 X-90.2518 Y75.6142 
G01 X-90.4135 Y75.5886 
G01 X-90.5691 Y75.5380 
G01 X-90.7150 Y75.4637 
G01 X-90.8474 Y75.3675 
G01 X-90.9631 Y75.2518 
G01 X-91.0593 Y75.1194 
G01 X-91.0949 Y75.0496 
G01 X-91.1771 Y75.1318 
G01 X-91.2382 Y75.1929 
G01 X-91.3132 Y75.2362 
G01 X-91.3967 Y75.2586 
G01 X-92.3814 Y75.2586 
G01 X-92.3814 Y77.3446 
G01 X-92.1320 Y77.3446 
G01 X-91.3146 Y78.1620 
G01 X-91.3146 Y79.3180 
G01 X-92.1320 Y80.1354 
G01 X-93.2880 Y80.1354 
G01 X-93.4643 Y79.9590 
G01 X-96.1914 Y82.6861 
G01 X-96.1914 Y93.4328 
G01 X-96.1650 Y93.4463 
G01 X-96.0326 Y93.5425 
G01 X-95.9169 Y93.6582 
G01 X-95.8207 Y93.7906 
G01 X-95.7464 Y93.9365 
G01 X-95.6958 Y94.0921 
G01 X-95.6702 Y94.2538 
G01 X-95.6702 Y96.2462 
G01 X-95.6958 Y96.4079 
G01 X-95.7464 Y96.5635 
G01 X-95.8207 Y96.7094 
G01 X-95.9169 Y96.8418 
G01 X-96.0326 Y96.9575 
G01 X-96.1650 Y97.0537 
G01 X-96.3109 Y97.1280 
G01 X-96.4665 Y97.1786 
G01 X-96.6282 Y97.2042 
G01 X-96.7918 Y97.2042 
G01 X-96.9535 Y97.1786 
G01 X-97.1091 Y97.1280 
G01 X-97.2550 Y97.0537 
G01 X-97.3874 Y96.9575 
G01 X-97.5031 Y96.8418 
G01 X-97.5993 Y96.7094 
G01 X-97.6736 Y96.5635 
G01 X-97.7242 Y96.4079 
G01 X-97.7498 Y96.2462 
G01 X-97.7498 Y94.2538 
G01 X-97.7242 Y94.0921 
G01 X-97.6736 Y93.9365 
G01 X-97.5993 Y93.7906 
G01 X-97.5031 Y93.6582 
G01 X-97.3874 Y93.5425 
G01 X-97.2550 Y93.4463 
G01 X-97.1091 Y93.3720 
G01 X-96.9535 Y93.3214 
G01 X-96.8486 Y93.3048 
G01 X-96.8486 Y82.5067 
G01 X-96.8262 Y82.4232 
G01 X-96.7829 Y82.3482 
G01 X-93.9290 Y79.4943 
G01 X-94.1054 Y79.3180 
G01 X-94.1054 Y78.1620 
G01 X-93.2880 Y77.3446 
G01 X-93.0386 Y77.3446 
G01 X-93.0386 Y75.2586 
G01 X-95.8826 Y75.2586 
G01 X-95.9235 Y75.2592 
G01 X-100.1939 Y75.2586 
G01 X-101.2714 Y76.3361 
G01 X-101.2714 Y96.3839 
G01 X-98.9239 Y98.7314 
G01 X-89.0361 Y98.7314 
G01 X-87.8318 Y97.5271 
G01 X-87.7568 Y97.4838 
G01 X-87.6733 Y97.4614 
G01 X-63.0233 Y97.4614 
G01 X-63.3405 Y97.1442 
G01 X-63.4465 Y97.1786 
G01 X-63.6082 Y97.2042 
G01 X-63.7718 Y97.2042 
G01 X-63.9335 Y97.1786 
G01 X-64.0891 Y97.1280 
G01 X-64.2350 Y97.0537 
G01 X-64.3674 Y96.9575 
G01 X-64.4831 Y96.8418 
G01 X-64.5793 Y96.7094 
G01 X-64.6536 Y96.5635 
G01 X-64.7042 Y96.4079 
G01 X-64.7298 Y96.2462 
G01 X-64.7298 Y94.2538 
G01 X-64.7042 Y94.0921 
G01 X-64.6536 Y93.9365 
G01 X-64.5793 Y93.7906 
G01 X-64.4831 Y93.6582 
G01 X-64.3674 Y93.5425 
G01 X-64.2350 Y93.4463 
G01 X-64.0891 Y93.3720 
G01 X-63.9335 Y93.3214 
G01 X-63.7718 Y93.2958 
G01 X-63.6082 Y93.2958 
G01 X-63.4465 Y93.3214 
G01 X-63.2909 Y93.3720 
G01 X-63.1450 Y93.4463 
G01 X-63.0126 Y93.5425 
G01 X-62.8969 Y93.6582 
G01 X-62.8007 Y93.7906 
G01 X-62.7264 Y93.9365 
G01 X-62.6758 Y94.0921 
G01 X-62.6502 Y94.2538 
G01 X-62.6502 Y96.2462 
G01 X-62.6758 Y96.4079 
G01 X-62.7264 Y96.5635 
G01 X-62.8007 Y96.7094 
G01 X-62.8197 Y96.7356 
G01 X-62.0939 Y97.4614 
G01 X-44.7891 Y97.4614 
G01 X-42.6860 Y95.0578 
G01 X-42.6804 Y95.0482 
G01 X-42.6576 Y95.0254 
G01 X-42.6363 Y95.0011 
G01 X-42.6271 Y94.9949 
G01 X-42.6193 Y94.9871 
G01 X-42.5913 Y94.9709 
G01 X-42.5644 Y94.9529 
G01 X-42.5539 Y94.9493 
G01 X-42.5443 Y94.9438 
G01 X-42.5131 Y94.9354 
G01 X-42.4825 Y94.9250 
G01 X-42.4715 Y94.9243 
G01 X-42.4608 Y94.9214 
G01 X-42.4284 Y94.9214 
G01 X-42.3962 Y94.9193 
G01 X-42.3853 Y94.9214 
G01 X-41.7207 Y94.9214 
G01 X-41.7207 Y94.3448 
G01 X-41.6846 Y94.1635 
G01 X-41.6139 Y93.9928 
G01 X-41.5112 Y93.8391 
G01 X-41.3806 Y93.7085 
G01 X-41.2269 Y93.6058 
G01 X-41.0562 Y93.5351 
G01 X-40.8749 Y93.4990 
G01 X-40.6901 Y93.4990 
G01 X-40.5088 Y93.5351 
G01 X-40.3381 Y93.6058 
G01 X-40.1844 Y93.7085 
G01 X-40.0538 Y93.8391 
G01 X-39.9511 Y93.9928 
G01 X-39.8804 Y94.1635 
G01 X-39.8443 Y94.3448 
G01 X-39.8443 Y96.1552 
G01 X-39.8804 Y96.3365 
G01 X-39.9511 Y96.5072 
G01 X-40.0538 Y96.6609 
G01 X-40.1844 Y96.7915 
G01 X-40.3381 Y96.8942 
G01 X-40.5088 Y96.9649 
G01 X-40.6901 Y97.0010 
G01 X-40.8749 Y97.0010 
G01 X-41.0562 Y96.9649 
G01 X-41.2269 Y96.8942 
G01 X-41.3806 Y96.7915 
G01 X-41.5112 Y96.6609 
G01 X-41.6139 Y96.5072 
G01 X-41.6846 Y96.3365 
G01 X-41.7207 Y96.1552 
G01 X-41.7207 Y95.5786 
G01 X-42.2684 Y95.5786 
G01 X-43.9158 Y97.4614 
G01 X-37.3242 Y97.4614 
G01 X-36.8411 Y97.0119 
G01 X-36.8411 Y95.4692 
G01 X-36.8187 Y95.3857 
G01 X-36.7754 Y95.3107 
G01 X-35.2629 Y93.7982 
G01 X-35.2018 Y93.7371 
G01 X-35.1268 Y93.6938 
G01 X-35.0950 Y93.6853 
G01 X-32.0786 Y90.6689 
G01 X-32.0786 Y85.2261 
G01 X-33.1561 Y84.1486 
G01 X-37.9639 Y84.1486 
G01 X-38.5802 Y84.7649 
G01 X-38.5769 Y84.7682 
G01 X-38.4807 Y84.9006 
G01 X-38.4064 Y85.0465 
G01 X-38.3558 Y85.2021 
G01 X-38.3302 Y85.3638 
G01 X-38.3302 Y87.3562 
G01 X-38.3558 Y87.5179 
G01 X-38.4064 Y87.6735 
G01 X-38.4807 Y87.8194 
G01 X-38.5769 Y87.9518 
G01 X-38.6926 Y88.0675 
G01 X-38.8250 Y88.1637 
G01 X-38.9709 Y88.2380 
G01 X-39.0414 Y88.2609 
G01 X-39.0414 Y91.4833 
G01 X-39.0638 Y91.5668 
G01 X-39.1071 Y91.6418 
G01 X-39.1682 Y91.7029 
G01 X-39.2432 Y91.7462 
G01 X-39.3267 Y91.7686 
G01 X-48.3033 Y91.7686 
G01 X-48.3868 Y91.7462 
G01 X-48.4618 Y91.7029 
G01 X-51.0629 Y89.1018 
G01 X-51.1062 Y89.0268 
G01 X-51.1286 Y88.9433 
G01 X-51.1286 Y83.7767 
G01 X-51.1062 Y83.6932 
G01 X-51.0629 Y83.6182 
G01 X-48.5229 Y81.0782 
G01 X-48.4618 Y81.0171 
G01 X-48.3868 Y80.9738 
G01 X-48.3033 Y80.9514 
G01 X-38.2361 Y80.9514 
G01 X-37.6198 Y80.3351 
G01 X-37.6231 Y80.3318 
G01 X-37.7193 Y80.1994 
G01 X-37.7936 Y80.0535 
G01 X-37.8442 Y79.8979 
G01 X-37.8698 Y79.7362 
G01 X-37.8698 Y77.7438 
G01 X-37.8442 Y77.5821 
G01 X-37.7936 Y77.4265 
G01 X-37.7193 Y77.2806 
G01 X-37.6231 Y77.1482 
G01 X-37.5074 Y77.0325 
G01 X-37.3750 Y76.9363 
G01 X-37.2291 Y76.8620 
G01 X-37.1586 Y76.8391 
G01 X-37.1586 Y71.2561 
G01 X-38.2361 Y70.1786 
G01 X-55.7439 Y70.1786 
G01 X-56.4828 Y70.9175 
G01 X-56.4213 Y70.9791 
G01 X-56.3186 Y71.1328 
G01 X-56.2479 Y71.3035 
G01 X-56.2118 Y71.4848 
G01 X-56.2118 Y73.2952 
G01 X-56.2479 Y73.4765 
G01 X-56.3186 Y73.6472 
G01 X-56.4213 Y73.8009 
G01 X-56.5519 Y73.9315 
G01 X-56.7056 Y74.0342 
G01 X-56.8763 Y74.1049 
G01 X-57.0576 Y74.1410 
G01 X-57.2424 Y74.1410 
G01 X-57.4237 Y74.1049 
G01 X-57.5944 Y74.0342 
G01 X-57.7481 Y73.9315 
G01 X-57.8787 Y73.8009 
G01 X-57.9814 Y73.6472 
G01 X-58.0521 Y73.4765 
G01 X-58.0882 Y73.2952 
G01 X-58.0882 Y72.7186 
G01 X-58.0914 Y72.7186 
G01 X-58.0914 Y76.5318 
G01 X-58.0314 Y76.5318 
G01 X-57.4818 Y77.0814 
G01 X-57.4818 Y77.8586 
G01 X-58.0314 Y78.4082 
G01 X-58.8086 Y78.4082 
G01 X-59.3582 Y77.8586 
G01 X-59.3582 Y77.0814 
G01 X-58.8086 Y76.5318 
G01 X-58.7486 Y76.5318 
G01 X-58.7486 Y72.7186 
G01 X-58.7518 Y72.7186 
G01 X-58.7518 Y73.2952 
G01 X-58.7879 Y73.4765 
G01 X-58.8586 Y73.6472 
G01 X-58.9613 Y73.8009 
G01 X-59.0919 Y73.9315 
G01 X-59.2456 Y74.0342 
G01 X-59.4163 Y74.1049 
G01 X-59.5976 Y74.1410 
G01 X-59.7824 Y74.1410 
G01 X-59.9637 Y74.1049 
G01 X-60.1344 Y74.0342 
G01 X-60.2881 Y73.9315 
G01 X-60.4187 Y73.8009 
G01 X-60.5214 Y73.6472 
G01 X-60.5921 Y73.4765 
G01 X-60.6282 Y73.2952 
G01 X-60.6282 Y71.4848 
G01 X-60.5921 Y71.3035 
G01 X-60.5214 Y71.1328 
G01 X-60.4187 Y70.9791 
G01 X-60.2881 Y70.8485 
G01 X-60.1344 Y70.7458 
G01 X-59.9637 Y70.6751 
G01 X-59.7824 Y70.6390 
G01 X-59.5976 Y70.6390 
G01 X-59.4163 Y70.6751 
G01 X-59.2456 Y70.7458 
G01 X-59.0919 Y70.8485 
G01 X-58.9613 Y70.9791 
G01 X-58.8586 Y71.1328 
G01 X-58.7879 Y71.3035 
G01 X-58.7518 Y71.4848 
G01 X-58.7518 Y72.0614 
G01 X-58.5561 Y72.0614 
G01 X-58.0882 Y71.5935 
G01 X-58.0882 Y71.4848 
G01 X-58.0521 Y71.3035 
G01 X-57.9814 Y71.1328 
G01 X-57.8787 Y70.9791 
G01 X-57.7481 Y70.8485 
G01 X-57.5944 Y70.7458 
G01 X-57.4237 Y70.6751 
G01 X-57.2424 Y70.6390 
G01 X-57.1337 Y70.6390 
G01 X-56.0818 Y69.5871 
G01 X-56.0068 Y69.5438 
G01 X-55.9233 Y69.5214 
G01 X-54.9386 Y69.5214 
G01 X-54.9386 Y66.4622 
G01 X-55.0544 Y66.4142 
G01 X-55.2081 Y66.3115 
G01 X-55.3387 Y66.1809 
G01 X-55.4414 Y66.0272 
G01 X-55.5121 Y65.8565 
G01 X-55.5482 Y65.6752 
G01 X-55.5482 Y63.8648 
G01 X-55.5121 Y63.6835 
G01 X-55.4414 Y63.5128 
G01 X-55.3387 Y63.3591 
G01 X-55.2081 Y63.2285 
G01 X-55.0544 Y63.1258 
G01 X-54.8837 Y63.0551 
G01 X-54.7024 Y63.0190 
G01 X-54.5937 Y63.0190 
G01 X-53.6686 Y62.0939 
G01 X-53.6686 Y58.0882 
G01 X-53.7286 Y58.0882 
G01 X-54.2782 Y57.5386 
G01 X-54.2782 Y56.7614 
G01 X-53.7286 Y56.2118 
G01 X-52.9514 Y56.2118 
G01 X-52.4018 Y56.7614 
G01 X-52.4018 Y57.5386 
G01 X-52.9514 Y58.0882 
G01 X-53.0114 Y58.0882 
G01 X-53.0114 Y62.2733 
G01 X-53.0338 Y62.3568 
G01 X-53.0771 Y62.4318 
G01 X-53.9428 Y63.2975 
G01 X-53.8813 Y63.3591 
G01 X-53.7786 Y63.5128 
G01 X-53.7079 Y63.6835 
G01 X-53.6718 Y63.8648 
G01 X-53.6718 Y65.6752 
G01 X-53.7079 Y65.8565 
G01 X-53.7786 Y66.0272 
G01 X-53.8813 Y66.1809 
G01 X-54.0119 Y66.3115 
G01 X-54.1656 Y66.4142 
G01 X-54.2814 Y66.4622 
G01 X-54.2814 Y69.5214 
G01 X-38.0567 Y69.5214 
G01 X-37.9732 Y69.5438 
G01 X-37.8982 Y69.5871 
G01 X-37.8371 Y69.6482 
G01 X-36.5671 Y70.9182 
G01 X-36.5238 Y70.9932 
G01 X-36.5014 Y71.0767 
G01 X-36.5014 Y76.8391 
G01 X-36.4309 Y76.8620 
G01 X-36.2850 Y76.9363 
G01 X-36.1526 Y77.0325 
G01 X-36.0369 Y77.1482 
G01 X-35.9407 Y77.2806 
G01 X-35.8664 Y77.4265 
G01 X-35.8158 Y77.5821 
G01 X-35.7902 Y77.7438 
G01 X-35.7902 Y79.7362 
G01 X-35.8158 Y79.8979 
G01 X-35.8664 Y80.0535 
G01 X-35.9407 Y80.1994 
G01 X-36.0369 Y80.3318 
G01 X-36.1526 Y80.4475 
G01 X-36.2850 Y80.5437 
G01 X-36.4309 Y80.6180 
G01 X-36.5865 Y80.6686 
G01 X-36.7482 Y80.6942 
G01 X-36.9118 Y80.6942 
G01 X-37.0307 Y80.6754 
G01 X-37.8982 Y81.5429 
G01 X-37.9732 Y81.5862 
G01 X-38.0567 Y81.6086 
G01 X-48.1239 Y81.6086 
G01 X-50.4714 Y83.9561 
G01 X-50.4714 Y88.7639 
G01 X-48.1239 Y91.1114 
G01 X-39.6986 Y91.1114 
G01 X-39.6986 Y88.2609 
G01 X-39.7691 Y88.2380 
G01 X-39.9150 Y88.1637 
G01 X-40.0474 Y88.0675 
G01 X-40.1631 Y87.9518 
G01 X-40.2593 Y87.8194 
G01 X-40.3336 Y87.6735 
G01 X-40.3842 Y87.5179 
G01 X-40.4098 Y87.3562 
G01 X-40.4098 Y85.3638 
G01 X-40.3842 Y85.2021 
G01 X-40.3336 Y85.0465 
G01 X-40.2593 Y84.9006 
G01 X-40.1631 Y84.7682 
G01 X-40.0474 Y84.6525 
G01 X-39.9150 Y84.5563 
G01 X-39.7691 Y84.4820 
G01 X-39.6135 Y84.4314 
G01 X-39.4518 Y84.4058 
G01 X-39.2882 Y84.4058 
G01 X-39.1693 Y84.4246 
G01 X-38.3629 Y83.6182 
G01 X-38.3018 Y83.5571 
G01 X-38.2268 Y83.5138 
G01 X-38.1433 Y83.4914 
G01 X-32.9767 Y83.4914 
G01 X-32.8932 Y83.5138 
G01 X-32.8182 Y83.5571 
G01 X-31.4871 Y84.8882 
G01 X-31.4438 Y84.9632 
G01 X-31.4214 Y85.0467 
G01 X-31.4214 Y90.8483 
G01 X-31.4438 Y90.9318 
G01 X-31.4871 Y91.0068 
G01 X-31.5482 Y91.0679 
G01 X-34.7432 Y94.2629 
G01 X-34.8182 Y94.3062 
G01 X-34.8500 Y94.3147 
G01 X-36.1839 Y95.6486 
G01 X-36.1839 Y97.1177 
G01 X-36.1826 Y97.1236 
G01 X-36.1839 Y97.1609 
G01 X-36.1839 Y97.1983 
G01 X-36.1855 Y97.2041 
G01 X-36.1857 Y97.2101 
G01 X-36.1966 Y97.2458 
G01 X-36.2063 Y97.2818 
G01 X-36.2093 Y97.2870 
G01 X-36.2111 Y97.2928 
G01 X-36.2309 Y97.3244 
G01 X-36.2496 Y97.3568 
G01 X-36.2538 Y97.3610 
G01 X-36.2570 Y97.3661 
G01 X-36.2843 Y97.3915 
G01 X-36.3107 Y97.4179 
G01 X-36.3159 Y97.4209 
G01 X-36.9668 Y98.0265 
G01 X-36.9932 Y98.0529 
G01 X-36.9984 Y98.0559 
G01 X-37.0028 Y98.0600 
G01 X-37.0358 Y98.0775 
G01 X-37.0682 Y98.0962 
G01 X-37.0740 Y98.0978 
G01 X-37.0793 Y98.1006 
G01 X-37.1157 Y98.1089 
G01 X-37.1517 Y98.1186 
G01 X-37.1577 Y98.1186 
G01 X-37.1636 Y98.1199 
G01 X-37.2009 Y98.1186 
G01 X-44.6291 Y98.1186 
G01 X-44.6613 Y98.1207 
G01 X-44.6722 Y98.1186 
G01 X-87.4939 Y98.1186 
G01 X-88.6371 Y99.2618 
G01 X-88.6982 Y99.3229 
G01 X-88.7732 Y99.3662 
G01 X-88.8567 Y99.3886 
G01 X-99.1033 Y99.3886 
G01 X-99.1868 Y99.3662 
G01 X-99.2618 Y99.3229 
G01 X-101.8629 Y96.7218 
G01 X-101.9062 Y96.6468 
G01 X-101.9286 Y96.5633 
G01 X-101.9286 Y76.1567 
G01 X-101.9062 Y76.0732 
G01 X-101.8629 Y75.9982 
G01 X-100.5929 Y74.7282 
G01 X-100.5318 Y74.6671 
G01 X-100.4568 Y74.6238 
G01 X-100.3733 Y74.6014 
G01 X-96.2184 Y74.6014 
G01 X-96.3281 Y67.0352 
G01 X-96.3307 Y67.0226 
G01 X-96.3287 Y66.9921 
G01 X-96.3292 Y66.9615 
G01 X-96.3260 Y66.9490 
G01 X-96.3252 Y66.9363 
G01 X-96.3155 Y66.9073 
G01 X-96.3080 Y66.8776 
G01 X-96.3018 Y66.8664 
G01 X-95.8614 Y65.5572 
G01 X-96.2390 Y65.1797 
G01 X-96.2390 Y64.3603 
G01 X-95.6597 Y63.7810 
G01 X-94.8403 Y63.7810 
G01 X-94.2610 Y64.3603 
G01 X-94.2610 Y65.1797 
G01 X-94.8403 Y65.7590 
G01 X-95.2359 Y65.7590 
G01 X-95.6706 Y67.0515 
G01 X-95.5611 Y74.6014 
G01 X-91.5761 Y74.6014 
G01 X-91.2098 Y74.2351 
G01 X-91.2098 Y72.6638 
G01 X-91.1842 Y72.5021 
G01 X-91.1336 Y72.3465 
G01 X-91.0593 Y72.2006 
G01 X-90.9631 Y72.0682 
G01 X-90.8474 Y71.9525 
G01 X-90.7150 Y71.8563 
G01 X-90.5691 Y71.7820 
G01 X-90.4135 Y71.7314 
G01 X-90.2518 Y71.7058 
G01 X-90.0882 Y71.7058 
G01 X-89.9265 Y71.7314 
G01 X-89.7709 Y71.7820 
G01 X-89.6250 Y71.8563 
G01 X-89.4926 Y71.9525 
G01 X-89.3769 Y72.0682 
G00 Z2.5400  
G00 X-85.8674 Y75.3873 
G01 Z-0.1778 F500   
G01 X-85.8213 Y75.3682 F500   
G01 X-84.3587 Y75.3682 
G01 X-84.3126 Y75.3873 
G01 X-84.2773 Y75.4226 
G01 X-84.2582 Y75.4687 
G01 X-84.2582 Y76.9313 
G01 X-84.2773 Y76.9774 
G01 X-84.3126 Y77.0127 
G01 X-84.3587 Y77.0318 
G01 X-84.7614 Y77.0318 
G01 X-84.7614 Y77.4503 
G01 X-84.7586 Y77.4736 
G01 X-84.7614 Y77.4934 
G01 X-84.7614 Y77.5133 
G01 X-84.7675 Y77.5360 
G01 X-84.7708 Y77.5593 
G01 X-84.7786 Y77.5776 
G01 X-84.7838 Y77.5968 
G01 X-84.7956 Y77.6172 
G01 X-84.8048 Y77.6389 
G01 X-84.8171 Y77.6545 
G01 X-84.8271 Y77.6718 
G01 X-84.8437 Y77.6884 
G01 X-84.8582 Y77.7069 
G01 X-84.8742 Y77.7189 
G01 X-84.8882 Y77.7329 
G01 X-84.9086 Y77.7447 
G01 X-89.9542 Y81.5289 
G01 X-89.9682 Y81.5429 
G01 X-89.9886 Y81.5547 
G01 X-90.0074 Y81.5688 
G01 X-90.0259 Y81.5763 
G01 X-90.0432 Y81.5862 
G01 X-90.0659 Y81.5923 
G01 X-90.0877 Y81.6011 
G01 X-90.1075 Y81.6034 
G01 X-90.1267 Y81.6086 
G01 X-90.1503 Y81.6086 
G01 X-90.1736 Y81.6114 
G01 X-90.1933 Y81.6086 
G01 X-92.5739 Y81.6086 
G01 X-94.9214 Y83.9561 
G01 X-94.9214 Y87.4939 
G01 X-93.9071 Y88.5082 
G01 X-93.8638 Y88.5832 
G01 X-93.8414 Y88.6667 
G01 X-93.8414 Y93.3491 
G01 X-93.7709 Y93.3720 
G01 X-93.6250 Y93.4463 
G01 X-93.4926 Y93.5425 
G01 X-93.3769 Y93.6582 
G01 X-93.2807 Y93.7906 
G01 X-93.2064 Y93.9365 
G01 X-93.1558 Y94.0921 
G01 X-93.1302 Y94.2538 
G01 X-93.1302 Y96.2462 
G01 X-93.1558 Y96.4079 
G01 X-93.2064 Y96.5635 
G01 X-93.2807 Y96.7094 
G01 X-93.3769 Y96.8418 
G01 X-93.4926 Y96.9575 
G01 X-93.6250 Y97.0537 
G01 X-93.7709 Y97.1280 
G01 X-93.9265 Y97.1786 
G01 X-94.0882 Y97.2042 
G01 X-94.2518 Y97.2042 
G01 X-94.4135 Y97.1786 
G01 X-94.5691 Y97.1280 
G01 X-94.7150 Y97.0537 
G01 X-94.8474 Y96.9575 
G01 X-94.9631 Y96.8418 
G01 X-95.0593 Y96.7094 
G01 X-95.1336 Y96.5635 
G01 X-95.1842 Y96.4079 
G01 X-95.2098 Y96.2462 
G01 X-95.2098 Y94.2538 
G01 X-95.1842 Y94.0921 
G01 X-95.1336 Y93.9365 
G01 X-95.0593 Y93.7906 
G01 X-94.9631 Y93.6582 
G01 X-94.8474 Y93.5425 
G01 X-94.7150 Y93.4463 
G01 X-94.5691 Y93.3720 
G01 X-94.4986 Y93.3491 
G01 X-94.4986 Y88.8461 
G01 X-95.4518 Y87.8929 
G01 X-95.5129 Y87.8318 
G01 X-95.5562 Y87.7568 
G01 X-95.5786 Y87.6733 
G01 X-95.5786 Y83.7767 
G01 X-95.5562 Y83.6932 
G01 X-95.5129 Y83.6182 
G01 X-92.9729 Y81.0782 
G01 X-92.9118 Y81.0171 
G01 X-92.8368 Y80.9738 
G01 X-92.7533 Y80.9514 
G01 X-90.2795 Y80.9514 
G01 X-85.4186 Y77.3057 
G01 X-85.4186 Y77.0318 
G01 X-85.8213 Y77.0318 
G01 X-85.8674 Y77.0127 
G01 X-85.9027 Y76.9774 
G01 X-85.9218 Y76.9313 
G01 X-85.9218 Y75.4687 
G01 X-85.9027 Y75.4226 
G01 X-85.8674 Y75.3873 
G00 Z2.5400  
G00 X-88.9433 Y84.7614 
G01 Z-0.1778 F500   
G01 X-80.9482 Y84.7614 F500   
G01 X-80.9482 Y84.7014 
G01 X-80.3986 Y84.1518 
G01 X-79.6214 Y84.1518 
G01 X-79.0718 Y84.7014 
G01 X-79.0718 Y85.4786 
G01 X-79.6214 Y86.0282 
G01 X-79.6814 Y86.0282 
G01 X-79.6814 Y93.6165 
G01 X-79.6074 Y93.5425 
G01 X-79.4750 Y93.4463 
G01 X-79.3291 Y93.3720 
G01 X-79.1735 Y93.3214 
G01 X-79.0118 Y93.2958 
G01 X-78.8482 Y93.2958 
G01 X-78.6865 Y93.3214 
G01 X-78.5309 Y93.3720 
G01 X-78.3850 Y93.4463 
G01 X-78.2526 Y93.5425 
G01 X-78.1369 Y93.6582 
G01 X-78.0407 Y93.7906 
G01 X-77.9664 Y93.9365 
G01 X-77.9158 Y94.0921 
G01 X-77.8902 Y94.2538 
G01 X-77.8902 Y94.9214 
G01 X-77.4298 Y94.9214 
G01 X-77.4298 Y94.2538 
G01 X-77.4042 Y94.0921 
G01 X-77.3536 Y93.9365 
G01 X-77.2793 Y93.7906 
G01 X-77.1831 Y93.6582 
G01 X-77.0674 Y93.5425 
G01 X-76.9350 Y93.4463 
G01 X-76.7891 Y93.3720 
G01 X-76.6335 Y93.3214 
G01 X-76.4718 Y93.2958 
G01 X-76.3082 Y93.2958 
G01 X-76.1465 Y93.3214 
G01 X-75.9909 Y93.3720 
G01 X-75.9306 Y93.4027 
G01 X-75.2448 Y91.3454 
G01 X-75.2362 Y91.3132 
G01 X-75.2312 Y91.3045 
G01 X-75.2281 Y91.2950 
G01 X-75.2096 Y91.2672 
G01 X-75.1929 Y91.2382 
G01 X-75.1859 Y91.2312 
G01 X-75.1804 Y91.2228 
G01 X-75.1554 Y91.2007 
G01 X-75.1318 Y91.1771 
G01 X-75.1231 Y91.1721 
G01 X-75.1156 Y91.1654 
G01 X-75.0858 Y91.1505 
G01 X-75.0568 Y91.1338 
G01 X-75.0472 Y91.1312 
G01 X-75.0383 Y91.1267 
G01 X-75.0055 Y91.1200 
G01 X-74.9733 Y91.1114 
G01 X-74.9633 Y91.1114 
G01 X-74.9535 Y91.1094 
G01 X-74.9201 Y91.1114 
G01 X-73.9886 Y91.1114 
G01 X-73.9886 Y88.8567 
G01 X-73.9662 Y88.7732 
G01 X-73.9229 Y88.6982 
G01 X-73.8618 Y88.6371 
G01 X-73.7868 Y88.5938 
G01 X-73.7033 Y88.5714 
G01 X-55.8982 Y88.5714 
G01 X-55.8733 Y88.5686 
G01 X-55.8551 Y88.5714 
G01 X-54.9386 Y88.5714 
G01 X-54.9386 Y86.3167 
G01 X-54.9162 Y86.2332 
G01 X-54.8729 Y86.1582 
G01 X-54.8118 Y86.0971 
G01 X-47.1918 Y78.4771 
G01 X-47.1168 Y78.4338 
G01 X-47.0333 Y78.4114 
G01 X-45.4898 Y78.4114 
G01 X-45.4898 Y77.7438 
G01 X-45.4642 Y77.5821 
G01 X-45.4136 Y77.4265 
G01 X-45.3393 Y77.2806 
G01 X-45.2431 Y77.1482 
G01 X-45.1274 Y77.0325 
G01 X-44.9950 Y76.9363 
G01 X-44.8491 Y76.8620 
G01 X-44.6935 Y76.8114 
G01 X-44.5318 Y76.7858 
G01 X-44.3682 Y76.7858 
G01 X-44.2065 Y76.8114 
G01 X-44.0509 Y76.8620 
G01 X-43.9050 Y76.9363 
G01 X-43.7726 Y77.0325 
G01 X-43.6569 Y77.1482 
G01 X-43.5607 Y77.2806 
G01 X-43.4864 Y77.4265 
G01 X-43.4358 Y77.5821 
G01 X-43.4102 Y77.7438 
G01 X-43.4102 Y79.7362 
G01 X-43.4358 Y79.8979 
G01 X-43.4864 Y80.0535 
G01 X-43.5607 Y80.1994 
G01 X-43.6569 Y80.3318 
G01 X-43.7726 Y80.4475 
G01 X-43.9050 Y80.5437 
G01 X-44.0509 Y80.6180 
G01 X-44.2065 Y80.6686 
G01 X-44.3682 Y80.6942 
G01 X-44.5318 Y80.6942 
G01 X-44.6935 Y80.6686 
G01 X-44.8491 Y80.6180 
G01 X-44.9950 Y80.5437 
G01 X-45.1274 Y80.4475 
G01 X-45.2431 Y80.3318 
G01 X-45.3393 Y80.1994 
G01 X-45.4136 Y80.0535 
G01 X-45.4642 Y79.8979 
G01 X-45.4898 Y79.7362 
G01 X-45.4898 Y79.0686 
G01 X-46.8539 Y79.0686 
G01 X-54.2814 Y86.4961 
G01 X-54.2814 Y88.7639 
G01 X-53.7711 Y89.2742 
G01 X-53.7286 Y89.2318 
G01 X-52.9514 Y89.2318 
G01 X-52.4018 Y89.7814 
G01 X-52.4018 Y89.8414 
G01 X-52.0267 Y89.8414 
G01 X-51.9432 Y89.8638 
G01 X-51.8682 Y89.9071 
G01 X-49.3939 Y92.3814 
G01 X-37.7838 Y92.3814 
G01 X-36.0417 Y87.9566 
G01 X-36.1526 Y88.0675 
G01 X-36.2850 Y88.1637 
G01 X-36.4309 Y88.2380 
G01 X-36.5865 Y88.2886 
G01 X-36.7482 Y88.3142 
G01 X-36.9118 Y88.3142 
G01 X-37.0735 Y88.2886 
G01 X-37.2291 Y88.2380 
G01 X-37.3750 Y88.1637 
G01 X-37.5074 Y88.0675 
G01 X-37.6231 Y87.9518 
G01 X-37.7193 Y87.8194 
G01 X-37.7936 Y87.6735 
G01 X-37.8442 Y87.5179 
G01 X-37.8698 Y87.3562 
G01 X-37.8698 Y85.3638 
G01 X-37.8442 Y85.2021 
G01 X-37.7936 Y85.0465 
G01 X-37.7193 Y84.9006 
G01 X-37.6231 Y84.7682 
G01 X-37.5074 Y84.6525 
G01 X-37.3750 Y84.5563 
G01 X-37.2291 Y84.4820 
G01 X-37.0735 Y84.4314 
G01 X-36.9118 Y84.4058 
G01 X-36.7482 Y84.4058 
G01 X-36.5865 Y84.4314 
G01 X-36.4309 Y84.4820 
G01 X-36.2850 Y84.5563 
G01 X-36.1526 Y84.6525 
G01 X-36.0369 Y84.7682 
G01 X-35.9407 Y84.9006 
G01 X-35.8664 Y85.0465 
G01 X-35.8158 Y85.2021 
G01 X-35.7902 Y85.3638 
G01 X-35.7902 Y86.9351 
G01 X-35.5600 Y87.1653 
G01 X-35.3298 Y86.9351 
G01 X-35.3298 Y85.3638 
G01 X-35.3042 Y85.2021 
G01 X-35.2536 Y85.0465 
G01 X-35.1793 Y84.9006 
G01 X-35.0831 Y84.7682 
G01 X-34.9674 Y84.6525 
G01 X-34.8350 Y84.5563 
G01 X-34.6891 Y84.4820 
G01 X-34.5335 Y84.4314 
G01 X-34.3718 Y84.4058 
G01 X-34.2082 Y84.4058 
G01 X-34.0465 Y84.4314 
G01 X-33.8909 Y84.4820 
G01 X-33.7450 Y84.5563 
G01 X-33.6126 Y84.6525 
G01 X-33.4969 Y84.7682 
G01 X-33.4007 Y84.9006 
G01 X-33.3264 Y85.0465 
G01 X-33.2758 Y85.2021 
G01 X-33.2502 Y85.3638 
G01 X-33.2502 Y87.3562 
G01 X-33.2758 Y87.5179 
G01 X-33.3264 Y87.6735 
G01 X-33.4007 Y87.8194 
G01 X-33.4969 Y87.9518 
G01 X-33.6126 Y88.0675 
G01 X-33.7450 Y88.1637 
G01 X-33.8909 Y88.2380 
G01 X-34.0465 Y88.2886 
G01 X-34.2082 Y88.3142 
G01 X-34.3718 Y88.3142 
G01 X-34.5335 Y88.2886 
G01 X-34.6891 Y88.2380 
G01 X-34.8350 Y88.1637 
G01 X-34.9674 Y88.0675 
G01 X-35.0831 Y87.9518 
G01 X-35.1793 Y87.8194 
G01 X-35.2149 Y87.7496 
G01 X-35.2793 Y87.8140 
G01 X-37.2314 Y92.7724 
G01 X-37.2314 Y95.2933 
G01 X-37.2538 Y95.3768 
G01 X-37.2971 Y95.4518 
G01 X-37.3582 Y95.5129 
G01 X-37.4332 Y95.5562 
G01 X-37.5167 Y95.5786 
G01 X-37.9393 Y95.5786 
G01 X-37.9393 Y96.1552 
G01 X-37.9754 Y96.3365 
G01 X-38.0461 Y96.5072 
G01 X-38.1488 Y96.6609 
G01 X-38.2794 Y96.7915 
G01 X-38.4331 Y96.8942 
G01 X-38.6038 Y96.9649 
G01 X-38.7851 Y97.0010 
G01 X-38.9699 Y97.0010 
G01 X-39.1512 Y96.9649 
G01 X-39.3219 Y96.8942 
G01 X-39.4756 Y96.7915 
G01 X-39.6062 Y96.6609 
G01 X-39.7089 Y96.5072 
G01 X-39.7796 Y96.3365 
G01 X-39.8157 Y96.1552 
G01 X-39.8157 Y94.3448 
G01 X-39.7796 Y94.1635 
G01 X-39.7089 Y93.9928 
G01 X-39.6062 Y93.8391 
G01 X-39.4756 Y93.7085 
G01 X-39.3219 Y93.6058 
G01 X-39.1512 Y93.5351 
G01 X-38.9699 Y93.4990 
G01 X-38.7851 Y93.4990 
G01 X-38.6038 Y93.5351 
G01 X-38.4331 Y93.6058 
G01 X-38.2794 Y93.7085 
G01 X-38.1488 Y93.8391 
G01 X-38.0461 Y93.9928 
G01 X-37.9754 Y94.1635 
G01 X-37.9393 Y94.3448 
G01 X-37.9393 Y94.9214 
G01 X-37.8886 Y94.9214 
G01 X-37.8886 Y93.0386 
G01 X-49.5733 Y93.0386 
G01 X-49.6568 Y93.0162 
G01 X-49.7318 Y92.9729 
G01 X-52.2061 Y90.4986 
G01 X-52.4018 Y90.4986 
G01 X-52.4018 Y90.5586 
G01 X-52.9514 Y91.1082 
G01 X-53.7286 Y91.1082 
G01 X-54.2782 Y90.5586 
G01 X-54.2782 Y89.7814 
G01 X-54.2358 Y89.7389 
G01 X-54.7461 Y89.2286 
G01 X-55.7221 Y89.2286 
G01 X-56.8779 Y90.6733 
G01 X-56.8871 Y90.6893 
G01 X-56.9048 Y90.7070 
G01 X-56.9204 Y90.7266 
G01 X-56.9352 Y90.7374 
G01 X-56.9482 Y90.7504 
G01 X-56.9699 Y90.7630 
G01 X-56.9901 Y90.7778 
G01 X-57.0072 Y90.7845 
G01 X-57.0232 Y90.7937 
G01 X-57.0474 Y90.8002 
G01 X-57.0707 Y90.8093 
G01 X-57.0890 Y90.8113 
G01 X-57.1067 Y90.8161 
G01 X-57.1318 Y90.8161 
G01 X-57.1567 Y90.8189 
G01 X-57.1749 Y90.8161 
G01 X-57.5882 Y90.8161 
G01 X-57.5882 Y91.2188 
G01 X-57.6073 Y91.2649 
G01 X-57.6426 Y91.3002 
G01 X-57.6887 Y91.3193 
G01 X-59.1513 Y91.3193 
G01 X-59.1974 Y91.3002 
G01 X-59.2327 Y91.2649 
G01 X-59.2518 Y91.2188 
G01 X-59.2518 Y89.7562 
G01 X-59.2327 Y89.7101 
G01 X-59.1974 Y89.6748 
G01 X-59.1513 Y89.6557 
G01 X-57.6887 Y89.6557 
G01 X-57.6426 Y89.6748 
G01 X-57.6073 Y89.7101 
G01 X-57.5882 Y89.7562 
G01 X-57.5882 Y90.1589 
G01 X-57.3079 Y90.1589 
G01 X-56.5637 Y89.2286 
G01 X-73.3314 Y89.2286 
G01 X-73.3314 Y91.4833 
G01 X-73.3538 Y91.5668 
G01 X-73.3971 Y91.6418 
G01 X-73.4582 Y91.7029 
G01 X-73.5332 Y91.7462 
G01 X-73.6167 Y91.7686 
G01 X-74.6932 Y91.7686 
G01 X-75.4211 Y93.9526 
G01 X-75.3758 Y94.0921 
G01 X-75.3502 Y94.2538 
G01 X-75.3502 Y96.2462 
G01 X-75.3758 Y96.4079 
G01 X-75.4264 Y96.5635 
G01 X-75.5007 Y96.7094 
G01 X-75.5969 Y96.8418 
G01 X-75.7126 Y96.9575 
G01 X-75.8450 Y97.0537 
G01 X-75.9909 Y97.1280 
G01 X-76.1465 Y97.1786 
G01 X-76.3082 Y97.2042 
G01 X-76.4718 Y97.2042 
G01 X-76.6335 Y97.1786 
G01 X-76.7891 Y97.1280 
G01 X-76.9350 Y97.0537 
G01 X-77.0674 Y96.9575 
G01 X-77.1831 Y96.8418 
G01 X-77.2793 Y96.7094 
G01 X-77.3536 Y96.5635 
G01 X-77.4042 Y96.4079 
G01 X-77.4298 Y96.2462 
G01 X-77.4298 Y95.5786 
G01 X-77.8902 Y95.5786 
G01 X-77.8902 Y96.2462 
G01 X-77.9158 Y96.4079 
G01 X-77.9664 Y96.5635 
G01 X-78.0407 Y96.7094 
G01 X-78.1369 Y96.8418 
G01 X-78.2526 Y96.9575 
G01 X-78.3850 Y97.0537 
G01 X-78.5309 Y97.1280 
G01 X-78.6865 Y97.1786 
G01 X-78.8482 Y97.2042 
G01 X-79.0118 Y97.2042 
G01 X-79.1735 Y97.1786 
G01 X-79.3291 Y97.1280 
G01 X-79.4750 Y97.0537 
G01 X-79.6074 Y96.9575 
G01 X-79.7231 Y96.8418 
G01 X-79.8193 Y96.7094 
G01 X-79.8936 Y96.5635 
G01 X-79.9442 Y96.4079 
G01 X-79.9698 Y96.2462 
G01 X-79.9698 Y95.5786 
G01 X-80.4302 Y95.5786 
G01 X-80.4302 Y96.2462 
G01 X-80.4558 Y96.4079 
G01 X-80.5064 Y96.5635 
G01 X-80.5807 Y96.7094 
G01 X-80.6769 Y96.8418 
G01 X-80.7926 Y96.9575 
G01 X-80.9250 Y97.0537 
G01 X-81.0709 Y97.1280 
G01 X-81.2265 Y97.1786 
G01 X-81.3882 Y97.2042 
G01 X-81.5518 Y97.2042 
G01 X-81.7135 Y97.1786 
G01 X-81.8691 Y97.1280 
G01 X-82.0150 Y97.0537 
G01 X-82.1474 Y96.9575 
G01 X-82.2631 Y96.8418 
G01 X-82.3593 Y96.7094 
G01 X-82.4336 Y96.5635 
G01 X-82.4842 Y96.4079 
G01 X-82.5098 Y96.2462 
G01 X-82.5098 Y95.5786 
G01 X-82.9702 Y95.5786 
G01 X-82.9702 Y96.2462 
G01 X-82.9958 Y96.4079 
G01 X-83.0464 Y96.5635 
G01 X-83.1207 Y96.7094 
G01 X-83.2169 Y96.8418 
G01 X-83.3326 Y96.9575 
G01 X-83.4650 Y97.0537 
G01 X-83.6109 Y97.1280 
G01 X-83.7665 Y97.1786 
G01 X-83.9282 Y97.2042 
G01 X-84.0918 Y97.2042 
G01 X-84.2535 Y97.1786 
G01 X-84.4091 Y97.1280 
G01 X-84.5550 Y97.0537 
G01 X-84.6874 Y96.9575 
G01 X-84.8031 Y96.8418 
G01 X-84.8993 Y96.7094 
G01 X-84.9736 Y96.5635 
G01 X-85.0242 Y96.4079 
G01 X-85.0498 Y96.2462 
G01 X-85.0498 Y94.2538 
G01 X-85.0242 Y94.0921 
G01 X-84.9736 Y93.9365 
G01 X-84.8993 Y93.7906 
G01 X-84.8031 Y93.6582 
G01 X-84.6874 Y93.5425 
G01 X-84.5550 Y93.4463 
G01 X-84.4091 Y93.3720 
G01 X-84.2535 Y93.3214 
G01 X-84.0918 Y93.2958 
G01 X-83.9282 Y93.2958 
G01 X-83.7665 Y93.3214 
G01 X-83.6109 Y93.3720 
G01 X-83.4650 Y93.4463 
G01 X-83.3326 Y93.5425 
G01 X-83.2169 Y93.6582 
G01 X-83.1207 Y93.7906 
G01 X-83.0464 Y93.9365 
G01 X-82.9958 Y94.0921 
G01 X-82.9702 Y94.2538 
G01 X-82.9702 Y94.9214 
G01 X-82.5098 Y94.9214 
G01 X-82.5098 Y94.2538 
G01 X-82.4842 Y94.0921 
G01 X-82.4336 Y93.9365 
G01 X-82.3593 Y93.7906 
G01 X-82.2631 Y93.6582 
G01 X-82.1474 Y93.5425 
G01 X-82.0150 Y93.4463 
G01 X-81.8691 Y93.3720 
G01 X-81.7135 Y93.3214 
G01 X-81.5518 Y93.2958 
G01 X-81.3882 Y93.2958 
G01 X-81.2265 Y93.3214 
G01 X-81.0709 Y93.3720 
G01 X-80.9250 Y93.4463 
G01 X-80.7926 Y93.5425 
G01 X-80.6769 Y93.6582 
G01 X-80.5807 Y93.7906 
G01 X-80.5064 Y93.9365 
G01 X-80.4879 Y93.9932 
G01 X-80.3386 Y93.8439 
G01 X-80.3386 Y86.0282 
G01 X-80.3986 Y86.0282 
G01 X-80.9482 Y85.4786 
G01 X-80.9482 Y85.4186 
G01 X-88.5714 Y85.4186 
G01 X-88.5714 Y93.4328 
G01 X-88.5450 Y93.4463 
G01 X-88.4126 Y93.5425 
G01 X-88.2969 Y93.6582 
G01 X-88.2007 Y93.7906 
G01 X-88.1264 Y93.9365 
G01 X-88.0758 Y94.0921 
G01 X-88.0502 Y94.2538 
G01 X-88.0502 Y96.2462 
G01 X-88.0758 Y96.4079 
G01 X-88.1264 Y96.5635 
G01 X-88.2007 Y96.7094 
G01 X-88.2969 Y96.8418 
G01 X-88.4126 Y96.9575 
G01 X-88.5450 Y97.0537 
G01 X-88.6909 Y97.1280 
G01 X-88.8465 Y97.1786 
G01 X-89.0082 Y97.2042 
G01 X-89.1195 Y97.2042 
G01 X-89.9071 Y97.9918 
G01 X-89.9682 Y98.0529 
G01 X-90.0432 Y98.0962 
G01 X-90.1267 Y98.1186 
G01 X-97.8333 Y98.1186 
G01 X-97.9168 Y98.0962 
G01 X-97.9918 Y98.0529 
G01 X-98.9005 Y97.1442 
G01 X-99.0065 Y97.1786 
G01 X-99.1682 Y97.2042 
G01 X-99.3318 Y97.2042 
G01 X-99.4935 Y97.1786 
G01 X-99.6491 Y97.1280 
G01 X-99.7950 Y97.0537 
G01 X-99.9274 Y96.9575 
G01 X-100.0431 Y96.8418 
G01 X-100.1393 Y96.7094 
G01 X-100.2136 Y96.5635 
G01 X-100.2642 Y96.4079 
G01 X-100.2898 Y96.2462 
G01 X-100.2898 Y94.2538 
G01 X-100.2642 Y94.0921 
G01 X-100.2136 Y93.9365 
G01 X-100.1393 Y93.7906 
G01 X-100.0431 Y93.6582 
G01 X-99.9274 Y93.5425 
G01 X-99.7950 Y93.4463 
G01 X-99.6491 Y93.3720 
G01 X-99.4935 Y93.3214 
G01 X-99.3318 Y93.2958 
G01 X-99.1682 Y93.2958 
G01 X-99.0065 Y93.3214 
G01 X-98.8509 Y93.3720 
G01 X-98.7050 Y93.4463 
G01 X-98.5726 Y93.5425 
G01 X-98.4569 Y93.6582 
G01 X-98.3607 Y93.7906 
G01 X-98.2864 Y93.9365 
G01 X-98.2358 Y94.0921 
G01 X-98.2102 Y94.2538 
G01 X-98.2102 Y96.2462 
G01 X-98.2358 Y96.4079 
G01 X-98.2864 Y96.5635 
G01 X-98.3607 Y96.7094 
G01 X-98.3797 Y96.7356 
G01 X-97.6539 Y97.4614 
G01 X-90.3061 Y97.4614 
G01 X-89.7848 Y96.9401 
G01 X-89.8831 Y96.8418 
G01 X-89.9793 Y96.7094 
G01 X-90.0536 Y96.5635 
G01 X-90.1042 Y96.4079 
G01 X-90.1298 Y96.2462 
G01 X-90.1298 Y94.2538 
G01 X-90.1042 Y94.0921 
G01 X-90.0536 Y93.9365 
G01 X-89.9793 Y93.7906 
G01 X-89.8831 Y93.6582 
G01 X-89.7674 Y93.5425 
G01 X-89.6350 Y93.4463 
G01 X-89.4891 Y93.3720 
G01 X-89.3335 Y93.3214 
G01 X-89.2286 Y93.3048 
G01 X-89.2286 Y85.0467 
G01 X-89.2062 Y84.9632 
G01 X-89.1629 Y84.8882 
G01 X-89.1018 Y84.8271 
G01 X-89.0268 Y84.7838 
G01 X-88.9433 Y84.7614 
G00 Z2.5400  
G00 X-90.6273 Y91.2976 
G01 Z-0.1778 F500   
G01 X-90.6082 Y91.3437 F500   
G01 X-90.6082 Y92.8063 
G01 X-90.6273 Y92.8524 
G01 X-90.6626 Y92.8877 
G01 X-90.7087 Y92.9068 
G01 X-91.3014 Y92.9068 
G01 X-91.3014 Y93.3491 
G01 X-91.2309 Y93.3720 
G01 X-91.0850 Y93.4463 
G01 X-90.9526 Y93.5425 
G01 X-90.8369 Y93.6582 
G01 X-90.7407 Y93.7906 
G01 X-90.6664 Y93.9365 
G01 X-90.6158 Y94.0921 
G01 X-90.5902 Y94.2538 
G01 X-90.5902 Y96.2462 
G01 X-90.6158 Y96.4079 
G01 X-90.6664 Y96.5635 
G01 X-90.7407 Y96.7094 
G01 X-90.8369 Y96.8418 
G01 X-90.9526 Y96.9575 
G01 X-91.0850 Y97.0537 
G01 X-91.2309 Y97.1280 
G01 X-91.3865 Y97.1786 
G01 X-91.5482 Y97.2042 
G01 X-91.7118 Y97.2042 
G01 X-91.8735 Y97.1786 
G01 X-92.0291 Y97.1280 
G01 X-92.1750 Y97.0537 
G01 X-92.3074 Y96.9575 
G01 X-92.4231 Y96.8418 
G01 X-92.5193 Y96.7094 
G01 X-92.5936 Y96.5635 
G01 X-92.6442 Y96.4079 
G01 X-92.6698 Y96.2462 
G01 X-92.6698 Y94.2538 
G01 X-92.6442 Y94.0921 
G01 X-92.5936 Y93.9365 
G01 X-92.5193 Y93.7906 
G01 X-92.4231 Y93.6582 
G01 X-92.3074 Y93.5425 
G01 X-92.1750 Y93.4463 
G01 X-92.0291 Y93.3720 
G01 X-91.9586 Y93.3491 
G01 X-91.9586 Y92.9068 
G01 X-92.1713 Y92.9068 
G01 X-92.2174 Y92.8877 
G01 X-92.2527 Y92.8524 
G01 X-92.2718 Y92.8063 
G01 X-92.2718 Y91.3437 
G01 X-92.2527 Y91.2976 
G01 X-92.2174 Y91.2623 
G01 X-92.1713 Y91.2432 
G01 X-90.7087 Y91.2432 
G01 X-90.6626 Y91.2623 
G01 X-90.6273 Y91.2976 
G00 Z2.5400  
G00 X-86.6662 Y91.3132 
G01 Z-0.1778 F500   
G01 X-86.6229 Y91.2382 F500   
G01 X-86.5618 Y91.1771 
G01 X-84.3393 Y88.9546 
G01 X-84.2643 Y88.9113 
G01 X-84.1808 Y88.8889 
G01 X-83.0643 Y88.8889 
G01 X-83.0643 Y88.4862 
G01 X-83.0452 Y88.4401 
G01 X-83.0099 Y88.4048 
G01 X-82.9638 Y88.3857 
G01 X-81.5012 Y88.3857 
G01 X-81.4551 Y88.4048 
G01 X-81.4198 Y88.4401 
G01 X-81.4007 Y88.4862 
G01 X-81.4007 Y89.9488 
G01 X-81.4198 Y89.9949 
G01 X-81.4551 Y90.0302 
G01 X-81.5012 Y90.0493 
G01 X-82.9638 Y90.0493 
G01 X-83.0099 Y90.0302 
G01 X-83.0452 Y89.9949 
G01 X-83.0643 Y89.9488 
G01 X-83.0643 Y89.5461 
G01 X-84.0014 Y89.5461 
G01 X-86.0314 Y91.5761 
G01 X-86.0314 Y93.4328 
G01 X-86.0050 Y93.4463 
G01 X-85.8726 Y93.5425 
G01 X-85.7569 Y93.6582 
G01 X-85.6607 Y93.7906 
G01 X-85.5864 Y93.9365 
G01 X-85.5358 Y94.0921 
G01 X-85.5102 Y94.2538 
G01 X-85.5102 Y96.2462 
G01 X-85.5358 Y96.4079 
G01 X-85.5864 Y96.5635 
G01 X-85.6607 Y96.7094 
G01 X-85.7569 Y96.8418 
G01 X-85.8726 Y96.9575 
G01 X-86.0050 Y97.0537 
G01 X-86.1509 Y97.1280 
G01 X-86.3065 Y97.1786 
G01 X-86.4682 Y97.2042 
G01 X-86.6318 Y97.2042 
G01 X-86.7935 Y97.1786 
G01 X-86.9491 Y97.1280 
G01 X-87.0950 Y97.0537 
G01 X-87.2274 Y96.9575 
G01 X-87.3431 Y96.8418 
G01 X-87.4393 Y96.7094 
G01 X-87.5136 Y96.5635 
G01 X-87.5642 Y96.4079 
G01 X-87.5898 Y96.2462 
G01 X-87.5898 Y94.2538 
G01 X-87.5642 Y94.0921 
G01 X-87.5136 Y93.9365 
G01 X-87.4393 Y93.7906 
G01 X-87.3431 Y93.6582 
G01 X-87.2274 Y93.5425 
G01 X-87.0950 Y93.4463 
G01 X-86.9491 Y93.3720 
G01 X-86.7935 Y93.3214 
G01 X-86.6886 Y93.3048 
G01 X-86.6886 Y91.3967 
G01 X-86.6662 Y91.3132 
G00 Z2.5400  
G00 X-78.3018 Y91.3437 
G01 Z-0.1778 F500   
G01 X-78.2827 Y91.2976 F500   
G01 X-78.2474 Y91.2623 
G01 X-78.2013 Y91.2432 
G01 X-77.4204 Y91.2432 
G01 X-76.0843 Y89.9071 
G01 X-76.0093 Y89.8638 
G01 X-75.9258 Y89.8414 
G01 X-75.2586 Y89.8414 
G01 X-75.2586 Y87.5867 
G01 X-75.2362 Y87.5032 
G01 X-75.1929 Y87.4282 
G01 X-75.1318 Y87.3671 
G01 X-75.0568 Y87.3238 
G01 X-74.9733 Y87.3014 
G01 X-57.2861 Y87.3014 
G01 X-44.7786 Y74.7939 
G01 X-44.7786 Y74.0822 
G01 X-44.8944 Y74.0342 
G01 X-45.0481 Y73.9315 
G01 X-45.1787 Y73.8009 
G01 X-45.2814 Y73.6472 
G01 X-45.3521 Y73.4765 
G01 X-45.3882 Y73.2952 
G01 X-45.3882 Y71.4848 
G01 X-45.3521 Y71.3035 
G01 X-45.2814 Y71.1328 
G01 X-45.1787 Y70.9791 
G01 X-45.0481 Y70.8485 
G01 X-44.8944 Y70.7458 
G01 X-44.7237 Y70.6751 
G01 X-44.5424 Y70.6390 
G01 X-44.3576 Y70.6390 
G01 X-44.1763 Y70.6751 
G01 X-44.0056 Y70.7458 
G01 X-43.8519 Y70.8485 
G01 X-43.7213 Y70.9791 
G01 X-43.6186 Y71.1328 
G01 X-43.5479 Y71.3035 
G01 X-43.5118 Y71.4848 
G01 X-43.5118 Y73.2952 
G01 X-43.5479 Y73.4765 
G01 X-43.6186 Y73.6472 
G01 X-43.7213 Y73.8009 
G01 X-43.8519 Y73.9315 
G01 X-44.0056 Y74.0342 
G01 X-44.1214 Y74.0822 
G01 X-44.1214 Y74.9733 
G01 X-44.1438 Y75.0568 
G01 X-44.1871 Y75.1318 
G01 X-56.8871 Y87.8318 
G01 X-56.9482 Y87.8929 
G01 X-57.0232 Y87.9362 
G01 X-57.1067 Y87.9586 
G01 X-74.6014 Y87.9586 
G01 X-74.6014 Y90.2133 
G01 X-74.6238 Y90.2968 
G01 X-74.6671 Y90.3718 
G01 X-74.7282 Y90.4329 
G01 X-74.8032 Y90.4762 
G01 X-74.8867 Y90.4986 
G01 X-75.7464 Y90.4986 
G01 X-76.6382 Y91.3904 
G01 X-76.6382 Y92.8063 
G01 X-76.6573 Y92.8524 
G01 X-76.6926 Y92.8877 
G01 X-76.7387 Y92.9068 
G01 X-78.2013 Y92.9068 
G01 X-78.2474 Y92.8877 
G01 X-78.2827 Y92.8524 
G01 X-78.3018 Y92.8063 
G01 X-78.3018 Y91.3437 
G00 Z2.5400  
G00 X-78.2827 Y89.9949 
G01 Z-0.1778 F500   
G01 X-78.3018 Y89.9488 F500   
G01 X-78.3018 Y88.4862 
G01 X-78.2827 Y88.4401 
G01 X-78.2474 Y88.4048 
G01 X-78.2013 Y88.3857 
G01 X-76.7387 Y88.3857 
G01 X-76.6926 Y88.4048 
G01 X-76.6573 Y88.4401 
G01 X-76.6382 Y88.4862 
G01 X-76.6382 Y88.5714 
G01 X-76.5286 Y88.5714 
G01 X-76.5286 Y86.3167 
G01 X-76.5062 Y86.2332 
G01 X-76.4629 Y86.1582 
G01 X-76.4018 Y86.0971 
G01 X-76.3268 Y86.0538 
G01 X-76.2433 Y86.0314 
G01 X-57.2861 Y86.0314 
G01 X-47.3186 Y76.0639 
G01 X-47.3186 Y74.0822 
G01 X-47.4344 Y74.0342 
G01 X-47.5881 Y73.9315 
G01 X-47.7187 Y73.8009 
G01 X-47.8214 Y73.6472 
G01 X-47.8921 Y73.4765 
G01 X-47.9282 Y73.2952 
G01 X-47.9282 Y71.4848 
G01 X-47.8921 Y71.3035 
G01 X-47.8214 Y71.1328 
G01 X-47.7187 Y70.9791 
G01 X-47.5881 Y70.8485 
G01 X-47.4344 Y70.7458 
G01 X-47.2637 Y70.6751 
G01 X-47.0824 Y70.6390 
G01 X-46.8976 Y70.6390 
G01 X-46.7163 Y70.6751 
G01 X-46.5456 Y70.7458 
G01 X-46.3919 Y70.8485 
G01 X-46.2613 Y70.9791 
G01 X-46.1586 Y71.1328 
G01 X-46.0879 Y71.3035 
G01 X-46.0518 Y71.4848 
G01 X-46.0518 Y73.2952 
G01 X-46.0879 Y73.4765 
G01 X-46.1586 Y73.6472 
G01 X-46.2613 Y73.8009 
G01 X-46.3919 Y73.9315 
G01 X-46.5456 Y74.0342 
G01 X-46.6614 Y74.0822 
G01 X-46.6614 Y76.2433 
G01 X-46.6838 Y76.3268 
G01 X-46.7271 Y76.4018 
G01 X-56.9482 Y86.6229 
G01 X-57.0232 Y86.6662 
G01 X-57.1067 Y86.6886 
G01 X-75.8714 Y86.6886 
G01 X-75.8714 Y88.9433 
G01 X-75.8938 Y89.0268 
G01 X-75.9371 Y89.1018 
G01 X-75.9982 Y89.1629 
G01 X-76.0732 Y89.2062 
G01 X-76.1567 Y89.2286 
G01 X-76.6382 Y89.2286 
G01 X-76.6382 Y89.9488 
G01 X-76.6573 Y89.9949 
G01 X-76.6926 Y90.0302 
G01 X-76.7387 Y90.0493 
G01 X-78.2013 Y90.0493 
G01 X-78.2474 Y90.0302 
G01 X-78.2827 Y89.9949 
G00 Z2.5400  
G00 X-78.4936 Y84.7582 
G01 Z-0.1778 F500   
G01 X-79.0432 Y84.2086 F500   
G01 X-79.0432 Y83.4314 
G01 X-78.4936 Y82.8818 
G01 X-77.7164 Y82.8818 
G01 X-77.1668 Y83.4314 
G01 X-77.1668 Y83.8414 
G01 X-74.8667 Y84.7614 
G01 X-74.4533 Y84.7614 
G01 X-75.1318 Y84.0829 
G01 X-75.1929 Y84.0218 
G01 X-75.2362 Y83.9468 
G01 X-75.2586 Y83.8633 
G01 X-75.2586 Y83.5898 
G01 X-75.9262 Y83.5898 
G01 X-76.0879 Y83.5642 
G01 X-76.2435 Y83.5136 
G01 X-76.3894 Y83.4393 
G01 X-76.5218 Y83.3431 
G01 X-76.6375 Y83.2274 
G01 X-76.7337 Y83.0950 
G01 X-76.8080 Y82.9491 
G01 X-76.8586 Y82.7935 
G01 X-76.8842 Y82.6318 
G01 X-76.8842 Y82.4682 
G01 X-76.8586 Y82.3065 
G01 X-76.8080 Y82.1509 
G01 X-76.7337 Y82.0050 
G01 X-76.6375 Y81.8726 
G01 X-76.5218 Y81.7569 
G01 X-76.3894 Y81.6607 
G01 X-76.2435 Y81.5864 
G01 X-76.0879 Y81.5358 
G01 X-75.9262 Y81.5102 
G01 X-73.9338 Y81.5102 
G01 X-73.7721 Y81.5358 
G01 X-73.6165 Y81.5864 
G01 X-73.4706 Y81.6607 
G01 X-73.3382 Y81.7569 
G01 X-73.2225 Y81.8726 
G01 X-73.1263 Y82.0050 
G01 X-73.0520 Y82.1509 
G01 X-73.0014 Y82.3065 
G01 X-72.9758 Y82.4682 
G01 X-72.9758 Y82.6318 
G01 X-73.0014 Y82.7935 
G01 X-73.0520 Y82.9491 
G01 X-73.1263 Y83.0950 
G01 X-73.2225 Y83.2274 
G01 X-73.3382 Y83.3431 
G01 X-73.4706 Y83.4393 
G01 X-73.6165 Y83.5136 
G01 X-73.7721 Y83.5642 
G01 X-73.9338 Y83.5898 
G01 X-74.6014 Y83.5898 
G01 X-74.6014 Y83.6839 
G01 X-73.5239 Y84.7614 
G01 X-57.2861 Y84.7614 
G01 X-49.8586 Y77.3339 
G01 X-49.8586 Y74.0822 
G01 X-49.9744 Y74.0342 
G01 X-50.1281 Y73.9315 
G01 X-50.2587 Y73.8009 
G01 X-50.3614 Y73.6472 
G01 X-50.4321 Y73.4765 
G01 X-50.4682 Y73.2952 
G01 X-50.4682 Y71.4848 
G01 X-50.4321 Y71.3035 
G01 X-50.3614 Y71.1328 
G01 X-50.2587 Y70.9791 
G01 X-50.1281 Y70.8485 
G01 X-49.9744 Y70.7458 
G01 X-49.8037 Y70.6751 
G01 X-49.6224 Y70.6390 
G01 X-49.4376 Y70.6390 
G01 X-49.2563 Y70.6751 
G01 X-49.0856 Y70.7458 
G01 X-48.9319 Y70.8485 
G01 X-48.8013 Y70.9791 
G01 X-48.6986 Y71.1328 
G01 X-48.6279 Y71.3035 
G01 X-48.5918 Y71.4848 
G01 X-48.5918 Y73.2952 
G01 X-48.6279 Y73.4765 
G01 X-48.6986 Y73.6472 
G01 X-48.8013 Y73.8009 
G01 X-48.9319 Y73.9315 
G01 X-49.0856 Y74.0342 
G01 X-49.2014 Y74.0822 
G01 X-49.2014 Y77.5133 
G01 X-49.2238 Y77.5968 
G01 X-49.2671 Y77.6718 
G01 X-56.8871 Y85.2918 
G01 X-56.9482 Y85.3529 
G01 X-57.0232 Y85.3962 
G01 X-57.1067 Y85.4186 
G01 X-74.9065 Y85.4186 
G01 X-74.9260 Y85.4214 
G01 X-74.9495 Y85.4186 
G01 X-74.9733 Y85.4186 
G01 X-74.9923 Y85.4135 
G01 X-75.0119 Y85.4112 
G01 X-75.0339 Y85.4023 
G01 X-75.0568 Y85.3962 
G01 X-75.0739 Y85.3864 
G01 X-77.4101 Y84.4519 
G01 X-77.7164 Y84.7582 
G01 X-78.4936 Y84.7582 
G00 Z2.5400  
G00 X-72.5677 Y84.2799 
G01 Z-0.1778 F500   
G01 X-72.5868 Y84.2338 F500   
G01 X-72.5868 Y82.7712 
G01 X-72.5677 Y82.7251 
G01 X-72.5324 Y82.6898 
G01 X-72.4863 Y82.6707 
G01 X-71.0237 Y82.6707 
G01 X-70.9776 Y82.6898 
G01 X-70.9423 Y82.7251 
G01 X-70.9232 Y82.7712 
G01 X-70.9232 Y83.3080 
G01 X-69.8228 Y83.4914 
G01 X-57.2861 Y83.4914 
G01 X-51.1286 Y77.3339 
G01 X-51.1286 Y76.3361 
G01 X-52.3329 Y75.1318 
G01 X-52.3762 Y75.0568 
G01 X-52.3986 Y74.9733 
G01 X-52.3986 Y74.0822 
G01 X-52.5144 Y74.0342 
G01 X-52.6681 Y73.9315 
G01 X-52.7987 Y73.8009 
G01 X-52.9014 Y73.6472 
G01 X-52.9721 Y73.4765 
G01 X-53.0082 Y73.2952 
G01 X-53.0082 Y71.4848 
G01 X-52.9721 Y71.3035 
G01 X-52.9014 Y71.1328 
G01 X-52.7987 Y70.9791 
G01 X-52.6681 Y70.8485 
G01 X-52.5144 Y70.7458 
G01 X-52.3437 Y70.6751 
G01 X-52.1624 Y70.6390 
G01 X-51.9776 Y70.6390 
G01 X-51.7963 Y70.6751 
G01 X-51.6256 Y70.7458 
G01 X-51.4719 Y70.8485 
G01 X-51.3413 Y70.9791 
G01 X-51.2386 Y71.1328 
G01 X-51.1679 Y71.3035 
G01 X-51.1318 Y71.4848 
G01 X-51.1318 Y73.2952 
G01 X-51.1679 Y73.4765 
G01 X-51.2386 Y73.6472 
G01 X-51.3413 Y73.8009 
G01 X-51.4719 Y73.9315 
G01 X-51.6256 Y74.0342 
G01 X-51.7414 Y74.0822 
G01 X-51.7414 Y74.7939 
G01 X-50.5982 Y75.9371 
G01 X-50.5371 Y75.9982 
G01 X-50.4938 Y76.0732 
G01 X-50.4714 Y76.1567 
G01 X-50.4714 Y77.5133 
G01 X-50.4938 Y77.5968 
G01 X-50.5371 Y77.6718 
G01 X-56.8871 Y84.0218 
G01 X-56.9482 Y84.0829 
G01 X-57.0232 Y84.1262 
G01 X-57.1067 Y84.1486 
G01 X-69.8341 Y84.1486 
G01 X-69.8614 Y84.1512 
G01 X-69.8772 Y84.1486 
G01 X-69.8933 Y84.1486 
G01 X-69.9197 Y84.1415 
G01 X-70.9232 Y83.9743 
G01 X-70.9232 Y84.2338 
G01 X-70.9423 Y84.2799 
G01 X-70.9776 Y84.3152 
G01 X-71.0237 Y84.3343 
G01 X-72.4863 Y84.3343 
G01 X-72.5324 Y84.3152 
G01 X-72.5677 Y84.2799 
G00 Z2.5400  
G00 X-72.5324 Y90.6273 
G01 Z-0.1778 F500   
G01 X-72.4863 Y90.6082 F500   
G01 X-71.0237 Y90.6082 
G01 X-70.9776 Y90.6273 
G01 X-70.9423 Y90.6626 
G01 X-70.9232 Y90.7087 
G01 X-70.9232 Y92.1713 
G01 X-70.9423 Y92.2174 
G01 X-70.9776 Y92.2527 
G01 X-71.0237 Y92.2718 
G01 X-71.8035 Y92.2718 
G01 X-72.8102 Y94.2852 
G01 X-72.8102 Y96.2462 
G01 X-72.8358 Y96.4079 
G01 X-72.8864 Y96.5635 
G01 X-72.9607 Y96.7094 
G01 X-73.0569 Y96.8418 
G01 X-73.1726 Y96.9575 
G01 X-73.3050 Y97.0537 
G01 X-73.4509 Y97.1280 
G01 X-73.6065 Y97.1786 
G01 X-73.7682 Y97.2042 
G01 X-73.9318 Y97.2042 
G01 X-74.0935 Y97.1786 
G01 X-74.2491 Y97.1280 
G01 X-74.3950 Y97.0537 
G01 X-74.5274 Y96.9575 
G01 X-74.6431 Y96.8418 
G01 X-74.7393 Y96.7094 
G01 X-74.8136 Y96.5635 
G01 X-74.8642 Y96.4079 
G01 X-74.8898 Y96.2462 
G01 X-74.8898 Y94.2538 
G01 X-74.8642 Y94.0921 
G01 X-74.8136 Y93.9365 
G01 X-74.7393 Y93.7906 
G01 X-74.6431 Y93.6582 
G01 X-74.5274 Y93.5425 
G01 X-74.3950 Y93.4463 
G01 X-74.2491 Y93.3720 
G01 X-74.0935 Y93.3214 
G01 X-73.9318 Y93.2958 
G01 X-73.7682 Y93.2958 
G01 X-73.6065 Y93.3214 
G01 X-73.4509 Y93.3720 
G01 X-73.3050 Y93.4463 
G01 X-73.1734 Y93.5419 
G01 X-72.5294 Y92.2540 
G01 X-72.5324 Y92.2527 
G01 X-72.5677 Y92.2174 
G01 X-72.5868 Y92.1713 
G01 X-72.5868 Y90.7087 
G01 X-72.5677 Y90.6626 
G01 X-72.5324 Y90.6273 
G00 Z2.5400  
G00 X-71.9874 Y93.5425 
G01 Z-0.1778 F500   
G01 X-71.8550 Y93.4463 F500   
G01 X-71.7091 Y93.3720 
G01 X-71.5535 Y93.3214 
G01 X-71.3918 Y93.2958 
G01 X-71.2282 Y93.2958 
G01 X-71.0665 Y93.3214 
G01 X-70.9109 Y93.3720 
G01 X-70.7650 Y93.4463 
G01 X-70.6326 Y93.5425 
G01 X-70.5719 Y93.6032 
G01 X-69.1754 Y91.5817 
G01 X-69.1604 Y91.5557 
G01 X-69.1509 Y91.5462 
G01 X-69.1433 Y91.5351 
G01 X-69.1204 Y91.5157 
G01 X-69.0993 Y91.4946 
G01 X-69.0876 Y91.4878 
G01 X-69.0774 Y91.4791 
G01 X-69.0503 Y91.4663 
G01 X-69.0243 Y91.4513 
G01 X-69.0113 Y91.4478 
G01 X-68.9992 Y91.4420 
G01 X-68.9697 Y91.4367 
G01 X-68.9408 Y91.4289 
G01 X-68.9273 Y91.4289 
G01 X-68.9141 Y91.4265 
G01 X-68.8842 Y91.4289 
G01 X-67.5131 Y91.4289 
G01 X-67.4494 Y91.3015 
G01 X-67.4524 Y91.3002 
G01 X-67.4877 Y91.2649 
G01 X-67.5068 Y91.2188 
G01 X-67.5068 Y89.7562 
G01 X-67.4877 Y89.7101 
G01 X-67.4524 Y89.6748 
G01 X-67.4063 Y89.6557 
G01 X-65.9437 Y89.6557 
G01 X-65.8976 Y89.6748 
G01 X-65.8623 Y89.7101 
G01 X-65.8432 Y89.7562 
G01 X-65.8432 Y91.2188 
G01 X-65.8623 Y91.2649 
G01 X-65.8976 Y91.3002 
G01 X-65.9437 Y91.3193 
G01 X-66.7235 Y91.3193 
G01 X-67.0012 Y91.8747 
G01 X-67.0038 Y91.8843 
G01 X-67.0205 Y91.9133 
G01 X-67.0354 Y91.9431 
G01 X-67.0421 Y91.9506 
G01 X-67.0471 Y91.9593 
G01 X-67.0707 Y91.9829 
G01 X-67.0928 Y92.0079 
G01 X-67.1012 Y92.0134 
G01 X-67.1082 Y92.0204 
G01 X-67.1372 Y92.0371 
G01 X-67.1650 Y92.0556 
G01 X-67.1745 Y92.0587 
G01 X-67.1832 Y92.0637 
G01 X-67.2154 Y92.0723 
G01 X-67.2471 Y92.0829 
G01 X-67.2571 Y92.0835 
G01 X-67.2667 Y92.0861 
G01 X-67.3001 Y92.0861 
G01 X-67.3335 Y92.0881 
G01 X-67.3433 Y92.0861 
G01 X-68.7251 Y92.0861 
G01 X-70.2702 Y94.3229 
G01 X-70.2702 Y96.2462 
G01 X-70.2958 Y96.4079 
G01 X-70.3464 Y96.5635 
G01 X-70.4207 Y96.7094 
G01 X-70.5169 Y96.8418 
G01 X-70.6326 Y96.9575 
G01 X-70.7650 Y97.0537 
G01 X-70.9109 Y97.1280 
G01 X-71.0665 Y97.1786 
G01 X-71.2282 Y97.2042 
G01 X-71.3918 Y97.2042 
G01 X-71.5535 Y97.1786 
G01 X-71.7091 Y97.1280 
G01 X-71.8550 Y97.0537 
G01 X-71.9874 Y96.9575 
G01 X-72.1031 Y96.8418 
G01 X-72.1993 Y96.7094 
G01 X-72.2736 Y96.5635 
G01 X-72.3242 Y96.4079 
G01 X-72.3498 Y96.2462 
G01 X-72.3498 Y94.2538 
G01 X-72.3242 Y94.0921 
G01 X-72.2736 Y93.9365 
G01 X-72.1993 Y93.7906 
G01 X-72.1031 Y93.6582 
G01 X-71.9874 Y93.5425 
G00 Z2.5400  
G00 X-69.4474 Y93.5425 
G01 Z-0.1778 F500   
G01 X-69.3150 Y93.4463 F500   
G01 X-69.1691 Y93.3720 
G01 X-69.0135 Y93.3214 
G01 X-68.8518 Y93.2958 
G01 X-68.6882 Y93.2958 
G01 X-68.5265 Y93.3214 
G01 X-68.3709 Y93.3720 
G01 X-68.2250 Y93.4463 
G01 X-68.1455 Y93.5041 
G01 X-67.6163 Y92.5835 
G01 X-67.5943 Y92.5451 
G01 X-67.5733 Y92.5087 
G01 X-67.5419 Y92.4772 
G01 X-67.5123 Y92.4474 
G01 X-67.4736 Y92.4250 
G01 X-67.4374 Y92.4040 
G01 X-67.3943 Y92.3924 
G01 X-67.3539 Y92.3815 
G01 X-67.3092 Y92.3814 
G01 X-67.2674 Y92.3813 
G01 X-65.9392 Y92.3814 
G01 X-65.4840 Y91.3193 
G01 X-65.5013 Y91.3193 
G01 X-65.5474 Y91.3002 
G01 X-65.5827 Y91.2649 
G01 X-65.6018 Y91.2188 
G01 X-65.6018 Y89.7562 
G01 X-65.5827 Y89.7101 
G01 X-65.5474 Y89.6748 
G01 X-65.5013 Y89.6557 
G01 X-64.0387 Y89.6557 
G01 X-63.9926 Y89.6748 
G01 X-63.9573 Y89.7101 
G01 X-63.9382 Y89.7562 
G01 X-63.9382 Y91.2188 
G01 X-63.9573 Y91.2649 
G01 X-63.9926 Y91.3002 
G01 X-64.0387 Y91.3193 
G01 X-64.7690 Y91.3193 
G01 X-65.4112 Y92.8178 
G01 X-65.4163 Y92.8368 
G01 X-65.4282 Y92.8574 
G01 X-65.4375 Y92.8792 
G01 X-65.4497 Y92.8947 
G01 X-65.4596 Y92.9118 
G01 X-65.4763 Y92.9285 
G01 X-65.4910 Y92.9472 
G01 X-65.5068 Y92.9590 
G01 X-65.5207 Y92.9729 
G01 X-65.5413 Y92.9848 
G01 X-65.5603 Y92.9990 
G01 X-65.5786 Y93.0063 
G01 X-65.5957 Y93.0162 
G01 X-65.6186 Y93.0223 
G01 X-65.6406 Y93.0312 
G01 X-65.6602 Y93.0335 
G01 X-65.6792 Y93.0386 
G01 X-65.7030 Y93.0386 
G01 X-65.7265 Y93.0414 
G01 X-65.7460 Y93.0386 
G01 X-67.1199 Y93.0386 
G01 X-67.7492 Y94.1335 
G01 X-67.7302 Y94.2538 
G01 X-67.7302 Y96.2462 
G01 X-67.7558 Y96.4079 
G01 X-67.8064 Y96.5635 
G01 X-67.8807 Y96.7094 
G01 X-67.9769 Y96.8418 
G01 X-68.0926 Y96.9575 
G01 X-68.2250 Y97.0537 
G01 X-68.3709 Y97.1280 
G01 X-68.5265 Y97.1786 
G01 X-68.6882 Y97.2042 
G01 X-68.8518 Y97.2042 
G01 X-69.0135 Y97.1786 
G01 X-69.1691 Y97.1280 
G01 X-69.3150 Y97.0537 
G01 X-69.4474 Y96.9575 
G01 X-69.5631 Y96.8418 
G01 X-69.6593 Y96.7094 
G01 X-69.7336 Y96.5635 
G01 X-69.7842 Y96.4079 
G01 X-69.8098 Y96.2462 
G01 X-69.8098 Y94.2538 
G01 X-69.7842 Y94.0921 
G01 X-69.7336 Y93.9365 
G01 X-69.6593 Y93.7906 
G01 X-69.5631 Y93.6582 
G01 X-69.4474 Y93.5425 
G00 Z2.5400  
G00 X-66.9074 Y93.5425 
G01 Z-0.1778 F500   
G01 X-66.7750 Y93.4463 F500   
G01 X-66.6291 Y93.3720 
G01 X-66.4735 Y93.3214 
G01 X-66.3118 Y93.2958 
G01 X-66.1482 Y93.2958 
G01 X-65.9865 Y93.3214 
G01 X-65.8309 Y93.3720 
G01 X-65.6850 Y93.4463 
G01 X-65.5526 Y93.5425 
G01 X-65.4841 Y93.6110 
G01 X-64.7443 Y92.5538 
G01 X-64.7428 Y92.5501 
G01 X-64.7195 Y92.5184 
G01 X-64.6969 Y92.4861 
G01 X-64.6939 Y92.4836 
G01 X-64.6916 Y92.4804 
G01 X-64.6608 Y92.4559 
G01 X-64.6307 Y92.4305 
G01 X-64.6271 Y92.4288 
G01 X-63.6968 Y91.6846 
G01 X-63.6968 Y90.7087 
G01 X-63.6777 Y90.6626 
G01 X-63.6424 Y90.6273 
G01 X-63.5963 Y90.6082 
G01 X-62.1337 Y90.6082 
G01 X-62.0876 Y90.6273 
G01 X-62.0523 Y90.6626 
G01 X-62.0332 Y90.7087 
G01 X-62.0332 Y92.1713 
G01 X-62.0523 Y92.2174 
G01 X-62.0876 Y92.2527 
G01 X-62.1337 Y92.2718 
G01 X-63.3787 Y92.2718 
G01 X-64.2104 Y92.9371 
G01 X-65.1902 Y94.3373 
G01 X-65.1902 Y96.2462 
G01 X-65.2158 Y96.4079 
G01 X-65.2664 Y96.5635 
G01 X-65.3407 Y96.7094 
G01 X-65.4369 Y96.8418 
G01 X-65.5526 Y96.9575 
G01 X-65.6850 Y97.0537 
G01 X-65.8309 Y97.1280 
G01 X-65.9865 Y97.1786 
G01 X-66.1482 Y97.2042 
G01 X-66.3118 Y97.2042 
G01 X-66.4735 Y97.1786 
G01 X-66.6291 Y97.1280 
G01 X-66.7750 Y97.0537 
G01 X-66.9074 Y96.9575 
G01 X-67.0231 Y96.8418 
G01 X-67.1193 Y96.7094 
G01 X-67.1936 Y96.5635 
G01 X-67.2442 Y96.4079 
G01 X-67.2698 Y96.2462 
G01 X-67.2698 Y94.2538 
G01 X-67.2442 Y94.0921 
G01 X-67.1936 Y93.9365 
G01 X-67.1193 Y93.7906 
G01 X-67.0231 Y93.6582 
G01 X-66.9074 Y93.5425 
G00 Z2.5400  
G00 X-61.8274 Y93.5425 
G01 Z-0.1778 F500   
G01 X-61.6950 Y93.4463 F500   
G01 X-61.5491 Y93.3720 
G01 X-61.3935 Y93.3214 
G01 X-61.2318 Y93.2958 
G01 X-61.0682 Y93.2958 
G01 X-60.9065 Y93.3214 
G01 X-60.7509 Y93.3720 
G01 X-60.6050 Y93.4463 
G01 X-60.4726 Y93.5425 
G01 X-60.3569 Y93.6582 
G01 X-60.2607 Y93.7906 
G01 X-60.1864 Y93.9365 
G01 X-60.1358 Y94.0921 
G01 X-60.1102 Y94.2538 
G01 X-60.1102 Y94.9214 
G01 X-54.8131 Y94.9214 
G01 X-54.0272 Y93.3496 
G01 X-54.2782 Y93.0986 
G01 X-54.2782 Y92.3214 
G01 X-53.7286 Y91.7718 
G01 X-52.9514 Y91.7718 
G01 X-52.4018 Y92.3214 
G01 X-52.4018 Y93.0986 
G01 X-52.9514 Y93.6482 
G01 X-53.4417 Y93.6482 
G01 X-54.3012 Y95.3672 
G01 X-54.3038 Y95.3768 
G01 X-54.3205 Y95.4058 
G01 X-54.3354 Y95.4356 
G01 X-54.3421 Y95.4431 
G01 X-54.3471 Y95.4518 
G01 X-54.3707 Y95.4754 
G01 X-54.3928 Y95.5004 
G01 X-54.4012 Y95.5059 
G01 X-54.4082 Y95.5129 
G01 X-54.4372 Y95.5297 
G01 X-54.4650 Y95.5481 
G01 X-54.4745 Y95.5512 
G01 X-54.4832 Y95.5562 
G01 X-54.5154 Y95.5648 
G01 X-54.5471 Y95.5754 
G01 X-54.5571 Y95.5760 
G01 X-54.5667 Y95.5786 
G01 X-54.6001 Y95.5786 
G01 X-54.6335 Y95.5806 
G01 X-54.6433 Y95.5786 
G01 X-60.1102 Y95.5786 
G01 X-60.1102 Y96.2462 
G01 X-60.1358 Y96.4079 
G01 X-60.1864 Y96.5635 
G01 X-60.2607 Y96.7094 
G01 X-60.3569 Y96.8418 
G01 X-60.4726 Y96.9575 
G01 X-60.6050 Y97.0537 
G01 X-60.7509 Y97.1280 
G01 X-60.9065 Y97.1786 
G01 X-61.0682 Y97.2042 
G01 X-61.2318 Y97.2042 
G01 X-61.3935 Y97.1786 
G01 X-61.5491 Y97.1280 
G01 X-61.6950 Y97.0537 
G01 X-61.8274 Y96.9575 
G01 X-61.9431 Y96.8418 
G01 X-62.0393 Y96.7094 
G01 X-62.1136 Y96.5635 
G01 X-62.1642 Y96.4079 
G01 X-62.1898 Y96.2462 
G01 X-62.1898 Y94.2538 
G01 X-62.1642 Y94.0921 
G01 X-62.1136 Y93.9365 
G01 X-62.0393 Y93.7906 
G01 X-61.9431 Y93.6582 
G01 X-61.8274 Y93.5425 
G00 Z2.5400  
G00 X-61.7727 Y92.2174 
G01 Z-0.1778 F500   
G01 X-61.7918 Y92.1713 F500   
G01 X-61.7918 Y90.7087 
G01 X-61.7727 Y90.6626 
G01 X-61.7374 Y90.6273 
G01 X-61.6913 Y90.6082 
G01 X-60.2287 Y90.6082 
G01 X-60.1826 Y90.6273 
G01 X-60.1473 Y90.6626 
G01 X-60.1282 Y90.7087 
G01 X-60.1282 Y91.8071 
G01 X-59.5539 Y92.3814 
G01 X-57.2495 Y92.3814 
G01 X-56.1832 Y91.6705 
G01 X-56.1832 Y91.0514 
G01 X-55.6336 Y90.5018 
G01 X-54.8564 Y90.5018 
G01 X-54.3068 Y91.0514 
G01 X-54.3068 Y91.8286 
G01 X-54.8564 Y92.3782 
G01 X-55.6336 Y92.3782 
G01 X-55.8041 Y92.2077 
G01 X-56.9407 Y92.9654 
G01 X-56.9482 Y92.9729 
G01 X-56.9765 Y92.9893 
G01 X-57.0037 Y93.0074 
G01 X-57.0139 Y93.0108 
G01 X-57.0232 Y93.0162 
G01 X-57.0547 Y93.0247 
G01 X-57.0857 Y93.0351 
G01 X-57.0964 Y93.0358 
G01 X-57.1067 Y93.0386 
G01 X-57.1394 Y93.0386 
G01 X-57.1720 Y93.0407 
G01 X-57.1825 Y93.0386 
G01 X-59.7333 Y93.0386 
G01 X-59.8168 Y93.0162 
G01 X-59.8918 Y92.9729 
G01 X-59.9529 Y92.9118 
G01 X-60.5929 Y92.2718 
G01 X-61.6913 Y92.2718 
G01 X-61.7374 Y92.2527 
G01 X-61.7727 Y92.2174 
G00 Z2.5400  
G00 X-61.7727 Y81.7399 
G01 Z-0.1778 F500   
G01 X-61.7918 Y81.6938 F500   
G01 X-61.7918 Y81.2911 
G01 X-68.5551 Y81.2911 
G01 X-68.5733 Y81.2939 
G01 X-68.5982 Y81.2911 
G01 X-68.6233 Y81.2911 
G01 X-68.6410 Y81.2863 
G01 X-68.6593 Y81.2843 
G01 X-68.6826 Y81.2752 
G01 X-68.7068 Y81.2687 
G01 X-68.7228 Y81.2595 
G01 X-68.7399 Y81.2528 
G01 X-68.7601 Y81.2380 
G01 X-68.7818 Y81.2254 
G01 X-68.7948 Y81.2124 
G01 X-68.8096 Y81.2016 
G01 X-68.8252 Y81.1820 
G01 X-68.8429 Y81.1643 
G01 X-68.8521 Y81.1483 
G01 X-72.6352 Y76.4195 
G01 X-72.6529 Y76.4018 
G01 X-72.6621 Y76.3858 
G01 X-72.6736 Y76.3715 
G01 X-72.6837 Y76.3485 
G01 X-72.6962 Y76.3268 
G01 X-72.7010 Y76.3091 
G01 X-72.7083 Y76.2922 
G01 X-72.7121 Y76.2675 
G01 X-72.7186 Y76.2433 
G01 X-72.7186 Y76.2249 
G01 X-72.7214 Y76.2067 
G01 X-72.7186 Y76.1818 
G01 X-72.7186 Y74.0822 
G01 X-72.8344 Y74.0342 
G01 X-72.9881 Y73.9315 
G01 X-73.1187 Y73.8009 
G01 X-73.2214 Y73.6472 
G01 X-73.2921 Y73.4765 
G01 X-73.3282 Y73.2952 
G01 X-73.3282 Y71.4848 
G01 X-73.2921 Y71.3035 
G01 X-73.2214 Y71.1328 
G01 X-73.1187 Y70.9791 
G01 X-72.9881 Y70.8485 
G01 X-72.8344 Y70.7458 
G01 X-72.6637 Y70.6751 
G01 X-72.4824 Y70.6390 
